!!!!SEGMENT: pl-sa--235-a-vi-39--001_toeschi-carl-joseph--sinfonia-ex-dis-allegro.krn
!!!cenid: 17xx:666
!!!COM: Toeschi, Carl Joseph
!!!COM-rismid: pe30003139
!!!CDT: 1731-1788
!!!CNT: Italian
!!!OPR: Sinfonia ex Dis
!!!OTL: Allegro
!!!OMV: 001
!!!PDT:
!!!AGN: Secular
!!!SMS-siglum: PL-SA
!!!SMS-shelfmark: 235/A VI 39
!!!SMS-shelfwork: 001-001 M
!!!SMS-variant:
!!!SMS-altvar:
!!!NIFC-rismid: 1001035307
!!!URL-scan: http://bc.bdsandomierz.pl/dlibra/publication/1588/edition/1556/content
!!!ONB-nifc: UWAGA: części Sinfonii: Allegro, Andante, Presto. Uwaga: Andante jako „Adagio” w vl I.
**kern	**dynam	**kern	**dynam	**kern	**dynam	**kern	**dynam	**kern	**dynam	**kern	**dynam	**kern	**dynam	**kern	**dynam
*part8	*part8	*part7	*part7	*part6	*part6	*part5	*part5	*part4	*part4	*part3	*part3	*part2	*part2	*part1	*part1
*staff8	*	*staff7	*	*staff6	*	*staff5	*	*staff4	*	*staff3	*	*staff2	*	*staff1	*
*Iempty	*	*Iviola	*	*Ivioln	*	*Ivioln	*	*Icor	*	*Icor	*	*Iflt	*	*Iflt	*
*I"Baſso	*	*I"alto viola	*	*I"Violino Secundo	*	*I"Violino Primo	*	*I"Corno 2do	*	*I"Corno 1mo	*	*I"Flauto 2do	*	*I"Flauto 1mo	*
*I'B	*	*I'a-vla	*	*I'Vl 2	*	*I'Vl 1	*	*I'Cor 2	*	*I'Cor 1	*	*I'Fl 2	*	*I'Fl 1	*
*clefF4	*	*clefC3	*	*clefG2	*	*clefG2	*	*clefG2	*	*clefG2	*	*clefG2	*	*clefG2	*
*	*	*	*	*	*	*	*	*ITrd-2c-3	*	*ITrd-2c-3	*	*	*	*	*
*k[b-e-a-]	*	*k[e-b-a-]	*	*k[b-e-a-]	*	*k[e-b-a-]	*	*k[b-e-a-]	*	*k[b-e-a-]	*	*k[b-e-a-]	*	*k[b-e-a-]	*
*E-:	*	*E-:	*	*E-:	*	*E-:	*	*	*	*	*	*E-:	*	*E-:	*
*M4/4	*	*M4/4	*	*M4/4	*	*M4/4	*	*M4/4	*	*M4/4	*	*M4/4	*	*M4/4	*
*met(c)	*	*met(c)	*	*met(c)	*	*met(c)	*	*met(c)	*	*met(c)	*	*met(c)	*	*met(c)	*
=1	=1	=1	=1	=1	=1	=1	=1	=1	=1	=1	=1	=1	=1	=1	=1
!	!	!	!	!	!	!	!	!LO:SIC:o:s=:v:metrum C z kropką w środku	!	!LO:SIC:o:s=:v:metrum C z kropką w środku	!	!	!	!	!
!LO:TX:t=P:problem:kolejność bemoli es b as	!	!	!	!LO:SIC:o:s=:v:metrum C z kropką w środku	!	!	!	!LO:TX:rj:a:t=alle	!	!LO:TX:rj:a:t=Allegro	!	!	!	!	!
!LO:TX:rj:a:t=allo	!	!LO:TX:a:t=allo	!	!LO:TX:rj:a:t=Synfonia	!LO:DY:rj	!LO:TX:a:t=allŏ	!	!LO:TX:rj:a:t=Synfonia	!	!	!	!	!	!	!
1E-\	.	1e-\	.	1G/ 1e-/	f	1G/ 1e-/	.	1e-/	.	1ee-\	.	1ee-\	.	1ee-\	.
=2	=2	=2	=2	=2	=2	=2	=2	=2	=2	=2	=2	=2	=2	=2	=2
*2\right	*	*2\right	*	*2\right	*	*2\right	*	*2\right	*	*2\right	*	*2\right	*	*2\right	*
2e-\	.	2ee-\	.	2ee-\	.	2ee-\	.	2ee-\	.	2eee-\	.	2eee-\	.	2eee-\	.
!LO:SIC:o:s=:v:problem:4\right:global	!	!LO:SIC:o:s=:v:problem:4\right:global	!	!	!	!	!	!	!	!LO:SIC:o:s=:v:problem:4\right:global	!	!LO:SIC:o:s=:v:problem:4\right:global	!	!LO:SIC:o:s=:v:problem:4\right:global	!
4.G\	.	4.g\	.	4.g/	.	4.g/	.	4.b-/	.	4.gg-\	.	4.gg\	.	4.gg\	.
!LO:SIC:o:s=:v:problem:8\right:global	!	!LO:SIC:o:s=:v:problem:8\right:global	!	!	!	!	!	!LO:SIC:o:s=:v:problem:8\right:global	!	!LO:SIC:o:s=:v:problem:8\right:global	!	!LO:SIC:o:s=:v:problem:8\right:global	!	!LO:SIC:o:s=:v:problem:8\right:global	!
8B-\	.	8b-\	.	8b-/	.	8b-\	.	8ee-\	.	8bb-\	.	8bb-\	.	8bb-\	.
=3	=3	=3	=3	=3	=3	=3	=3	=3	=3	=3	=3	=3	=3	=3	=3
4E-\	.	4e-\	.	4G/ 4e-/	.	4G/ 4e-/	.	4g/	.	4ee-\	.	4ee-\	.	4ee-\	.
8.E-\L	.	8.e-\L	.	8.G/L 8.e-/	.	8.G/L 8.e-/	.	8.g/L	.	8.ee-\L	.	8.ee-\L	.	8.ee-\L	.
!LO:SIC:o:s=:v:problem:16\right:global	!	!LO:SIC:o:s=:v:problem:16\right:global	!	!	!	!	!	!	!	!LO:SIC:o:s=:v:problem:16\right:global	!	!LO:SIC:o:s=:v:problem:16\right:global	!	!LO:SIC:o:s=:v:problem:16\right:global	!
16E-\Jk	.	16e-\Jk	.	16G/Jk 16e-/	.	16G/Jk 16e-/	.	16g/Jk	.	16ee-\Jk	.	16ee-\Jk	.	16ee-\Jk	.
4E-\	.	4e-\	.	4G/ 4e-/	.	4G/ 4e-/	.	4g/	.	4ee-\	.	4ee-\	.	4ee-\	.
4E-\	.	4e-\	.	4G/ 4e-/	.	4G/ 4e-/	.	4g/	.	4ee-\	.	4ee-\	.	4ee-\	.
=4	=4	=4	=4	=4	=4	=4	=4	=4	=4	=4	=4	=4	=4	=4	=4
4E-\	.	4e-\	.	1G/ 1e-/	.	1G/ 1e-/	.	1g/	.	[1ee-\	.	[1ee-\	.	1ee-\	.
4D\	.	4d\	.	.	.	.	.	.	.	.	.	.	.	.	.
4C\	.	4c\	.	.	.	.	.	.	.	.	.	.	.	.	.
8BB-\L	.	8.B-\L	.	.	.	.	.	.	.	.	.	.	.	.	.
8AA-\J	.	.	.	.	.	.	.	.	.	.	.	.	.	.	.
.	.	16A-\Jk	.	.	.	.	.	.	.	.	.	.	.	.	.
=5	=5	=5	=5	=5	=5	=5	=5	=5	=5	=5	=5	=5	=5	=5	=5
!=p:global	!LO:DY:a	!=:global	!LO:DY:a	!	!	!	!	!=:global	!	!	!	!	!	!	!
(1GG/	p	1B-/	p	[1e-/	p	(<4e-/	p	[1ee-\	p	1ee-\_	.	1ee-\]	.	(4ee-\	.
.	.	.	.	.	.	4g/	.	.	.	.	.	.	.	4gg\	.
.	.	.	.	.	.	4b-\	.	.	.	.	.	.	.	4bb-\	.
!	!	!	!	!LO:TX:b:t=rinf.	!	!	!	!	!	!	!	!	!	!	!
.	.	.	.	.	.	4ee-\)	.	.	.	.	.	.	.	4eee-\)	.
=6	=6	=6	=6	=6	=6	=6	=6	=6	=6	=6	=6	=6	=6	=6	=6
!	!	!	!	!LO:TX:b:t=rinf.	!	!LO:TX:t=P:problem:mixed beam	!	!	!	!	!	!	!	!	!
(1AA-/)	.	2.c/	.	1e-/]	.	(8ee-\L	.	1ee-\]	.	1ee-\]	.	2.ee-\	.	(8eee-\L	.
.	.	.	.	.	.	8f/J)	.	.	.	.	.	.	.	8ff\J)	.
.	.	.	.	.	.	2f/	.	.	.	.	.	.	.	2ff\	.
!	!	!	!	!	!	!LO:SIC:o:s=:v:problem:8\right:global	!	!	!	!	!	!	!	!	!
.	.	4A-/	.	.	.	(8ee-\L	.	.	.	.	.	(8ccc\L	.	(8eee-\L	.
.	.	.	.	.	.	8cc\J)	.	.	.	.	.	8aa-\J)	.	8ccc\J)	.
=7	=7	=7	=7	=7	=7	=7	=7	=7	=7	=7	=7	=7	=7	=7	=7
!	!	!	!	!	!	!LO:SIC:o:s=:v:problem:4\right:global	!	!LO:SIC:o:s=:v:problem:4\right:global	!	!	!	!	!	!	!
1BB-/)	.	2.B-/	.	4.g/	.	(4.b-\	.	4.gg\	.	4.bb-\	.	4.gg\	.	(4.bb-\	.
.	.	.	.	8a-/	.	8cc\)	.	8ff\	.	8aa-\	.	8aa-\	.	8ccc\)	.
.	.	.	.	8g/L	.	8b-\`L	.	4ee-\	.	4gg\	.	8gg\`L	.	8bb-\`L	.
.	.	.	.	8f/	.	8a-/`	.	.	.	.	.	8ff\`	.	8aa-\`	.
.	.	4A-/	.	8e-/	.	8g/`	.	8.b-/L	.	8.ff\L	.	8ee-\`	.	8gg\`	.
.	.	.	.	8d/J	.	8f/`J	.	.	.	.	.	8dd\`J	.	8ff\`J	.
.	.	.	.	.	.	.	.	16b-/Jk	.	16ff\Jk	.	.	.	.	.
!	!	!	!	!	!	!	!	!LO:LB:g=original	!	!LO:LB:g=original	!	!	!	!LO:LB:g=original	!
=8	=8	=8	=8	=8	=8	=8	=8	=8	=8	=8	=8	=8	=8	=8	=8
!=for:global	!LO:DY:a	!	!	!	!	!=for:global	!LO:DY:a:t=for	!	!	!	!	!LO:SIC:o:s=:v:ligatura tylko przy drugiej nucie	!	!	!
4E-\	f	4G/ 4e-/	f	1G/ 1e-/	.	1G/ 1e-/	f	1g/	f	[1ee-\	f	[1ee-\	.	1ee-\	f
4D\	.	4d\	.	.	.	.	.	.	.	.	.	.	.	.	.
4C\	.	4c\	.	.	.	.	.	.	.	.	.	.	.	.	.
8BB-/L	.	8.B-\L	.	.	.	.	.	.	.	.	.	.	.	.	.
8AA-/J	.	.	.	.	.	.	.	.	.	.	.	.	.	.	.
.	.	16A-\Jk	.	.	.	.	.	.	.	.	.	.	.	.	.
!	!	!LO:LB:g=original	!	!	!	!LO:LB:g=original	!	!	!	!	!	!LO:LB:g=original	!	!	!
=9	=9	=9	=9	=9	=9	=9	=9	=9	=9	=9	=9	=9	=9	=9	=9
!	!LO:DY:a	!	!	!	!	!	!	!	!	!	!	!	!	!	!
(1GG/	p	1B-/	p	[1e-/	p	(<4e-/	p	1ee-\	p	1ee-\_	p	1ee-\]	.	(4ee-\	p
.	.	.	.	.	.	4g/	.	.	.	.	.	.	.	4gg\	.
.	.	.	.	.	.	4b-\	.	.	.	.	.	.	.	4bb-\	.
!	!	!	!	!LO:TX:b:t=rinf.	!	!	!	!	!	!	!	!	!	!	!
.	.	.	.	.	.	4ee-\)	.	.	.	.	.	.	.	4eee-\)	.
!	!	!	!	!LO:LB:g=original	!	!	!	!	!	!	!	!	!	!	!
=10	=10	=10	=10	=10	=10	=10	=10	=10	=10	=10	=10	=10	=10	=10	=10
!	!	!	!	!LO:TX:b:t=rinf.	!	!LO:TX:t=P:problem:mixed beam	!	!	!	!	!	!	!	!	!
1AA-/	.	2.c\	.	1e-/]	.	(8ee-\L	.	1ee-\	.	1ee-\]	.	2.ee-\	.	(8eee-\L	.
.	.	.	.	.	.	8f/J)	.	.	.	.	.	.	.	8ff\J)	.
.	.	.	.	.	.	2f/	.	.	.	.	.	.	.	2ff\	.
.	.	4A-/	.	.	.	(8ee-\L	.	.	.	.	.	(8ccc\L	.	(8eee-\L	.
.	.	.	.	.	.	8cc\J)	.	.	.	.	.	8aa-\J)	.	8ccc\J)	.
=11	=11	=11	=11	=11	=11	=11	=11	=11	=11	=11	=11	=11	=11	=11	=11
1BB-/)	.	2.B-/	p	4.g/	.	4.b-\	.	4.gg\	.	4.bb-\	.	4.gg\	.	(4.bb-\	.
.	.	.	.	8a-/	.	8cc\	.	8ff\	.	8aa-\	.	8aa-\	.	8ccc\)	.
.	.	.	.	8g/`L	p	8b-\`L	.	4ee-\	.	4gg\	.	8gg\`L	.	8bb-\`L	.
.	.	.	.	8f/`	.	8a-/`	.	.	.	.	.	8ff\`	.	8aa-\`	.
.	.	4A-/	.	8e-/`	.	8g/`	.	8.b-/L	.	8.ff\L	.	8ee-\`	.	8gg\`	.
.	.	.	.	8d/`J	.	8f/`J	.	.	.	.	.	8dd\`J	.	8ff\`J	.
.	.	.	.	.	.	.	.	16b-/Jk	.	16ff\Jk	.	.	.	.	.
!LO:LB:g=original	!	!	!	!	!	!	!	!	!	!	!	!	!	!	!
=12	=12	=12	=12	=12	=12	=12	=12	=12	=12	=12	=12	=12	=12	=12	=12
*	*	*	*	*tremolo	*	*tremolo	*	*	*	*	*	*	*	*	*
4E-\	.	4G/ 4e-/	.	16e-/LL	.	16e-/LL	.	(2gg\	p	(2bb-\	p	4ee-\	.	4ee-\	.
.	.	.	.	16e-/	.	16e-/	.	.	.	.	.	.	.	.	.
.	.	.	.	16e-/	.	16e-/	.	.	.	.	.	.	.	.	.
.	.	.	.	16e-/JJ	.	16e-/JJ	.	.	.	.	.	.	.	.	.
4G\	.	4g\	.	16g/LL	.	16g/LL	.	.	.	.	.	4r	.	4r	.
.	.	.	.	16g/	.	16g/	.	.	.	.	.	.	.	.	.
.	.	.	.	16g/	.	16g/	.	.	.	.	.	.	.	.	.
.	.	.	.	16g/JJ	.	16g/JJ	.	.	.	.	.	.	.	.	.
4B-\	.	4b-\	.	16b-/LL	.	16b-/LL	.	4ee-\)	.	4gg\)	.	2r	.	2r	.
.	.	.	.	16b-/	.	16b-/	.	.	.	.	.	.	.	.	.
.	.	.	.	16b-/	.	16b-/	.	.	.	.	.	.	.	.	.
.	.	.	.	16b-/JJ	.	16b-/JJ	.	.	.	.	.	.	.	.	.
4G\	.	4g\	.	16g/LL	.	16g/LL	.	4r	.	4r	.	.	.	.	.
.	.	.	.	16g/	.	16g/	.	.	.	.	.	.	.	.	.
.	.	.	.	16g/	.	16g/	.	.	.	.	.	.	.	.	.
.	.	.	.	16g/JJ	.	16g/JJ	.	.	.	.	.	.	.	.	.
=13	=13	=13	=13	=13	=13	=13	=13	=13	=13	=13	=13	=13	=13	=13	=13
!	!	!	!	!	!	!	!LO:DY:t=for	!	!	!	!	!	!	!	!
4E-\	f	4e-\	f	16gg\LL	f	16bb-\LL	f	4ee-\	.	4ee-\	f	(2bb-\	.	(2eee-\	.
.	.	.	.	16gg\	.	16bb-\	.	.	.	.	.	.	.	.	.
.	.	.	.	16gg\	.	16bb-\	.	.	.	.	.	.	.	.	.
.	.	.	.	16gg\	.	16bb-\	.	.	.	.	.	.	.	.	.
4G\	.	4g\	.	16gg\	.	16bb-\	.	4gg\	f	4gg\	.	.	.	.	.
.	.	.	.	16gg\	.	16bb-\	.	.	.	.	.	.	.	.	.
.	.	.	.	16gg\	.	16bb-\	.	.	.	.	.	.	.	.	.
.	.	.	.	16gg\JJ	.	16bb-\JJ	.	.	.	.	.	.	.	.	.
4B-\	.	4b-\	.	16gg\LL	.	16bb-\LL	.	4bb-\	.	4bb-\	.	4gg\)	.	4bb-\)	.
.	.	.	.	16gg\	.	16bb-\	.	.	.	.	.	.	.	.	.
.	.	.	.	16gg\	.	16bb-\	.	.	.	.	.	.	.	.	.
.	.	.	.	16gg\	.	16bb-\	.	.	.	.	.	.	.	.	.
4G\	.	4g\	.	16gg\	.	16bb-\	.	4gg\	.	4gg\	.	4r	.	4r	.
.	.	.	.	16gg\	.	16bb-\	.	.	.	.	.	.	.	.	.
.	.	.	.	16gg\	.	16bb-\	.	.	.	.	.	.	.	.	.
.	.	.	.	16gg\JJ	.	16bb-\JJ	.	.	.	.	.	.	.	.	.
=14	=14	=14	=14	=14	=14	=14	=14	=14	=14	=14	=14	=14	=14	=14	=14
4E-\	p	4e-\	p	16e-/LL	p	16e-/LL	.	(2aa-\	p	2ccc\	p	1r	.	1r	.
.	.	.	.	16e-/	.	16e-/	.	.	.	.	.	.	.	.	.
.	.	.	.	16e-/	.	16e-/	.	.	.	.	.	.	.	.	.
.	.	.	.	16e-/JJ	.	16e-/JJ	.	.	.	.	.	.	.	.	.
4A-\	.	4b-\	.	16a-/LL	.	16a-/LL	p	.	.	.	.	.	.	.	.
.	.	.	.	16a-/	.	16a-/	.	.	.	.	.	.	.	.	.
.	.	.	.	16a-/	.	16a-/	.	.	.	.	.	.	.	.	.
.	.	.	.	16a-/JJ	.	16a-/JJ	.	.	.	.	.	.	.	.	.
4c\	.	4cc\	.	16cc/LL	.	16cc/LL	.	4ee-\)	.	4aa-\	.	.	.	.	.
.	.	.	.	16cc/	.	16cc/	.	.	.	.	.	.	.	.	.
.	.	.	.	16cc/	.	16cc/	.	.	.	.	.	.	.	.	.
.	.	.	.	16cc/JJ	.	16cc/JJ	.	.	.	.	.	.	.	.	.
4A-\	.	4a-\	.	16a-/LL	.	16a-/LL	.	4r	.	4r	.	.	.	.	.
.	.	.	.	16a-/	.	16a-/	.	.	.	.	.	.	.	.	.
.	.	.	.	16a-/	.	16a-/	.	.	.	.	.	.	.	.	.
.	.	.	.	16a-/JJ	.	16a-/JJ	.	.	.	.	.	.	.	.	.
=15	=15	=15	=15	=15	=15	=15	=15	=15	=15	=15	=15	=15	=15	=15	=15
4E-\	f	4e-\	f	16aa-\LL	f	16aa-\LL	f	4ee-\	.	4ee-\	f	(2ccc\	.	(2eee-\	.
.	.	.	.	16aa-\	.	16aa-\	.	.	.	.	.	.	.	.	.
.	.	.	.	16aa-\	.	16aa-\	.	.	.	.	.	.	.	.	.
.	.	.	.	16aa-\	.	16aa-\	.	.	.	.	.	.	.	.	.
4A-\	.	4a-\	.	16aa-\	.	16aa-\	.	4aa-\	f	4aa-\	.	.	.	.	.
.	.	.	.	16aa-\	.	16aa-\	.	.	.	.	.	.	.	.	.
.	.	.	.	16aa-\	.	16aa-\	.	.	.	.	.	.	.	.	.
.	.	.	.	16aa-\JJ	.	16aa-\JJ	.	.	.	.	.	.	.	.	.
4c\	.	4cc\	.	16aa-\LL	.	16aa-\LL	.	4ccc\	.	4ccc\	.	4aa-\)	.	4ccc\)	.
.	.	.	.	16aa-\	.	16aa-\	.	.	.	.	.	.	.	.	.
.	.	.	.	16aa-\	.	16aa-\	.	.	.	.	.	.	.	.	.
.	.	.	.	16aa-\	.	16aa-\	.	.	.	.	.	.	.	.	.
4A-\	.	4a-\	.	16aa-\	.	16aa-\	.	4aa-\	.	4aa-\	.	4r	.	4r	.
.	.	.	.	16aa-\	.	16aa-\	.	.	.	.	.	.	.	.	.
.	.	.	.	16aa-\	.	16aa-\	.	.	.	.	.	.	.	.	.
.	.	.	.	16aa-\JJ	.	16aa-\JJ	.	.	.	.	.	.	.	.	.
!	!	!	!	!	!	!	!	!	!	!	!	!	!	!LO:LB:g=original	!
=16	=16	=16	=16	=16	=16	=16	=16	=16	=16	=16	=16	=16	=16	=16	=16
4E-\	p	4e-\	p	16e-/LL	p	16e-/LL	p	(2gg\	p	2bb-\	p	1r	.	1r	.
.	.	.	.	16e-/	.	16e-/	.	.	.	.	.	.	.	.	.
.	.	.	.	16e-/	.	16e-/	.	.	.	.	.	.	.	.	.
.	.	.	.	16e-/JJ	.	16e-/JJ	.	.	.	.	.	.	.	.	.
4G\	.	4g\	.	16g/LL	.	16g/LL	.	.	.	.	.	.	.	.	.
.	.	.	.	16g/	.	16g/	.	.	.	.	.	.	.	.	.
.	.	.	.	16g/	.	16g/	.	.	.	.	.	.	.	.	.
.	.	.	.	16g/JJ	.	16g/JJ	.	.	.	.	.	.	.	.	.
4B-\	.	4b-\	.	16b-/LL	.	16b-/LL	.	4ee-\)	.	4gg\	.	.	.	.	.
.	.	.	.	16b-/	.	16b-/	.	.	.	.	.	.	.	.	.
.	.	.	.	16b-/	.	16b-/	.	.	.	.	.	.	.	.	.
.	.	.	.	16b-/JJ	.	16b-/JJ	.	.	.	.	.	.	.	.	.
4G\	.	4g\	.	16g/LL	.	16g/LL	.	4r	.	4r	.	.	.	.	.
.	.	.	.	16g/	.	16g/	.	.	.	.	.	.	.	.	.
.	.	.	.	16g/	.	16g/	.	.	.	.	.	.	.	.	.
.	.	.	.	16g/JJ	.	16g/JJ	.	.	.	.	.	.	.	.	.
!	!	!	!	!	!	!LO:LB:g=original	!	!LO:LB:g=original	!	!	!	!	!	!	!
=17	=17	=17	=17	=17	=17	=17	=17	=17	=17	=17	=17	=17	=17	=17	=17
!	!	!	!	!	!	!	!LO:DY:t=for	!	!	!	!	!	!	!	!
4E-\	f	4e-\	f	16gg\LL	f	16bb-\LL	f	4ee-\	.	4ee-\	.	(2bb-\	.	(2eee-\	.
.	.	.	.	16gg\	.	16bb-\	.	.	.	.	.	.	.	.	.
.	.	.	.	16gg\	.	16bb-\	.	.	.	.	.	.	.	.	.
.	.	.	.	16gg\	.	16bb-\	.	.	.	.	.	.	.	.	.
4G\	.	4g\	.	16gg\	.	16bb-\	.	4gg\	.	4gg\	f	.	.	.	.
.	.	.	.	16gg\	.	16bb-\	.	.	.	.	.	.	.	.	.
.	.	.	.	16gg\	.	16bb-\	.	.	.	.	.	.	.	.	.
.	.	.	.	16gg\JJ	.	16bb-\JJ	.	.	.	.	.	.	.	.	.
4B-\	.	4b-\	.	16gg\LL	.	16bb-\LL	.	4bb-\	.	4bb-\	.	4gg\)	.	4bb-\)	.
.	.	.	.	16gg\	.	16bb-\	.	.	.	.	.	.	.	.	.
.	.	.	.	16gg\	.	16bb-\	.	.	.	.	.	.	.	.	.
.	.	.	.	16gg\	.	16bb-\	.	.	.	.	.	.	.	.	.
8.G\L	.	8.g\L	.	16gg\	.	16bb-\	.	8.gg\L	.	8.gg\L	.	4r	.	4r	.
.	.	.	.	16gg\	.	16bb-\	.	.	.	.	.	.	.	.	.
.	.	.	.	16gg\	.	16bb-\	.	.	.	.	.	.	.	.	.
!	!	!	!	!	!	!	!	!LO:SIC:o:s=:v:problem:16\right:global	!	!	!	!	!	!	!
16E-\Jk	.	16e-\Jk	.	16gg\JJ	.	16bb-\JJ	.	16ee-\Jk	.	16ee-\Jk	.	.	.	.	.
!	!	!LO:LB:g=original	!	!	!	!	!	!	!	!LO:LB:g=original	!	!LO:LB:g=original	!	!	!
=18	=18	=18	=18	=18	=18	=18	=18	=18	=18	=18	=18	=18	=18	=18	=18
[1BB-/	.	[1B-/	p	16ff\LL	p	16aa-\LL	p	1b-/	p	1b-/	.	(4ff\	.	(4aa-\	.
.	.	.	.	16ff\	.	16aa-\	.	.	.	.	.	.	.	.	.
.	.	.	.	16ff\	.	16aa-\	.	.	.	.	.	.	.	.	.
.	.	.	.	16ff\JJ	.	16aa-\JJ	.	.	.	.	.	.	.	.	.
.	.	.	.	16ee-\LL	.	16gg\LL	.	.	.	.	.	4ee-\	.	4gg\	p
.	.	.	.	16ee-\	.	16gg\	.	.	.	.	.	.	.	.	.
.	.	.	.	16ee-\	.	16gg\	.	.	.	.	.	.	.	.	.
.	.	.	.	16ee-\JJ	.	16gg\JJ	.	.	.	.	.	.	.	.	.
.	.	.	.	16dd\LL	.	16ff\LL	.	.	.	.	.	4dd\	.	4ff\	.
.	.	.	.	16dd\	.	16ff\	.	.	.	.	.	.	.	.	.
.	.	.	.	16dd\	.	16ff\	.	.	.	.	.	.	.	.	.
.	.	.	.	16dd\JJ	.	16ff\JJ	.	.	.	.	.	.	.	.	.
.	.	.	.	16cc\LL	.	16ee-\LL	.	.	.	.	.	4cc\)	.	4ee-\)	.
.	.	.	.	16cc\	.	16ee-\	.	.	.	.	.	.	.	.	.
.	.	.	.	16cc\	.	16ee-\	.	.	.	.	.	.	.	.	.
.	.	.	.	16cc\JJ	.	16ee-\JJ	.	.	.	.	.	.	.	.	.
=19	=19	=19	=19	=19	=19	=19	=19	=19	=19	=19	=19	=19	=19	=19	=19
1BB-/]	f	1B-/]	.	16b-/LL	.	16dd\LL	.	1b-/	.	1b-/	p	4b-\	.	4dd\	.
.	.	.	.	16b-/	.	16dd\	.	.	.	.	.	.	.	.	.
.	.	.	.	16b-/	.	16dd\	.	.	.	.	.	.	.	.	.
.	.	.	.	16b-/JJ	.	16dd\JJ	.	.	.	.	.	.	.	.	.
.	.	.	.	16a-/LL	.	16cc\LL	.	.	.	.	.	(4aa-\	.	(4ccc\	.
.	.	.	.	16a-/	.	16cc\	.	.	.	.	.	.	.	.	.
.	.	.	.	16a-/	.	16cc\	.	.	.	.	.	.	.	.	.
.	.	.	.	16a-/JJ	.	16cc\JJ	.	.	.	.	.	.	.	.	.
!	!	!	!	!LO:LB:g=original	!	!	!	!	!	!	!	!	!	!	!
.	.	.	.	16g/LL	.	16b-\LL	.	.	.	.	.	4gg\	.	4bb-\	.
.	.	.	.	16g/	.	16b-\	.	.	.	.	.	.	.	.	.
.	.	.	.	16g/	.	16b-\	.	.	.	.	.	.	.	.	.
.	.	.	.	16g/JJ	.	16b-\JJ	.	.	.	.	.	.	.	.	.
.	.	.	.	16f/LL	.	16a-\LL	.	.	.	.	.	4ff\)	.	4aa-\)	.
.	.	.	.	16f/	.	16a-\	.	.	.	.	.	.	.	.	.
.	.	.	.	16f/	.	16a-\	.	.	.	.	.	.	.	.	.
.	.	.	.	16f/JJ	.	16a-\JJ	.	.	.	.	.	.	.	.	.
*	*	*	*	*Xtremolo	*	*	*	*	*	*	*	*	*	*	*
=20	=20	=20	=20	=20	=20	=20	=20	=20	=20	=20	=20	=20	=20	=20	=20
.	.	.	.	.	.	8qa-/	f	.	.	.	.	.	.	.	.
8E-\L	.	16e-\LL	f	8g/L	f	8g/L	.	4g/	.	4ee-\	f	4ee-\	.	[1gg\	.
.	.	16b-\	.	.	.	.	.	.	.	.	.	.	.	.	.
8G\	.	16b-\	.	8e-/	.	16f/L	.	.	.	.	.	.	.	.	.
.	.	16b-\JJ	.	.	.	16g/JJ	.	.	.	.	.	.	.	.	.
*	*	*tremolo	*	*	*	*	*	*	*	*	*	*	*	*	*
8B-\	.	16b-\LL	.	8g/	.	4f/	.	8.g/L	f	8.ee-\L	.	2.bb-\	.	.	.
.	.	16b-\	.	.	.	.	.	.	.	.	.	.	.	.	.
8G\J	.	16b-\	.	8e-/J	.	.	.	.	.	.	.	.	.	.	.
.	.	16b-\JJ	.	.	.	.	.	16g/Jk	.	16ee-\Jk	.	.	.	.	.
.	.	.	.	.	.	8qaa-/	.	.	.	.	.	.	.	.	.
8E-\L	.	16b-\LL	.	8g/L	.	8gg\L	.	4g/	.	4ee-\	.	.	.	.	.
.	.	16b-\	.	.	.	.	.	.	.	.	.	.	.	.	.
!	!	!	!	!	!	!LO:SIC:o:s=:v:problem:16\right:global	!	!	!	!	!	!	!	!	!
8G\	.	16b-\	.	8e-/	.	16ff\L	.	.	.	.	.	.	.	.	.
.	.	16b-\	.	.	.	16gg\JJ	.	.	.	.	.	.	.	.	.
8B-\	.	16b-\	.	8g/	.	4ee-\	.	4g/	.	4ee-\	.	.	.	.	.
.	.	16b-\	.	.	.	.	.	.	.	.	.	.	.	.	.
8G\J	.	16b-\	.	8e-/J	.	.	.	.	.	.	.	.	.	.	.
.	.	16b-\JJ	.	.	.	.	.	.	.	.	.	.	.	.	.
=21	=21	=21	=21	=21	=21	=21	=21	=21	=21	=21	=21	=21	=21	=21	=21
*	*	*	*	*tremolo	*	*	*	*	*	*	*	*	*	*	*
8E-\L	.	16b-\LL	.	8e-/ 8g/L	.	8bb-\L	.	1g/	.	1ee-\	.	[1bb-\	.	1gg\]	.
.	.	16b-\	.	.	.	.	.	.	.	.	.	.	.	.	.
8G\	.	16b-\	.	8e-/ 8g/	.	8ccc\	.	.	.	.	.	.	.	.	.
.	.	16b-\	.	.	.	.	.	.	.	.	.	.	.	.	.
8B-\	.	16b-\	.	8e-/ 8g/	.	8bb-\'	.	.	.	.	.	.	.	.	.
.	.	16b-\	.	.	.	.	.	.	.	.	.	.	.	.	.
8G\J	.	16b-\	.	8e-/ 8g/J	.	8bb-\'J	.	.	.	.	.	.	.	.	.
.	.	16b-\JJ	.	.	.	.	.	.	.	.	.	.	.	.	.
8E-\L	.	16b-\LL	.	8e-/ 8g/L	.	4bb-\	.	.	.	.	.	.	.	.	.
.	.	16b-\	.	.	.	.	.	.	.	.	.	.	.	.	.
8G\	.	16b-\	.	8e-/ 8g/	.	.	.	.	.	.	.	.	.	.	.
.	.	16b-\	.	.	.	.	.	.	.	.	.	.	.	.	.
8B-\	.	16b-\	.	8e-/ 8g/	.	4r	.	.	.	.	.	.	.	.	.
.	.	16b-\	.	.	.	.	.	.	.	.	.	.	.	.	.
8G\J	.	16b-\	.	8e-/ 8g/J	.	.	.	.	.	.	.	.	.	.	.
.	.	16b-\JJ	.	.	.	.	.	.	.	.	.	.	.	.	.
=22	=22	=22	=22	=22	=22	=22	=22	=22	=22	=22	=22	=22	=22	=22	=22
.	.	.	.	.	.	8qg/	.	.	.	.	.	.	.	.	.
8D\L	.	16b-\LL	.	8d/ 8f/L	.	(8f/L	.	1b-/	.	[1b-/	.	1bb-\_	.	[1ff\	.
.	.	16b-\	.	.	.	.	.	.	.	.	.	.	.	.	.
8F\	.	16b-\	.	8d/ 8f/	.	16e-/L	.	.	.	.	.	.	.	.	.
.	.	16b-\	.	.	.	16f/JJ	.	.	.	.	.	.	.	.	.
8B-\	.	16b-\	.	8d/ 8f/	.	4d/)	.	.	.	.	.	.	.	.	.
.	.	16b-\	.	.	.	.	.	.	.	.	.	.	.	.	.
8F\J	.	16b-\	.	8d/ 8f/J	.	.	.	.	.	.	.	.	.	.	.
.	.	16b-\JJ	.	.	.	.	.	.	.	.	.	.	.	.	.
!	!	!	!	!	!	!LO:SIC:o:s=:v:nieczytelna wysokość przednutki	!	!	!	!	!	!	!	!	!
.	.	.	.	.	.	8qqaa-/	.	.	.	.	.	.	.	.	.
!LO:LB:g=original	!	!	!	!	!	!	!	!	!	!	!	!	!	!	!
8D\L	.	16b-\LL	.	8d/ 8f/L	.	8ff\L	.	.	.	.	.	.	.	.	.
.	.	16b-\	.	.	.	.	.	.	.	.	.	.	.	.	.
8F\	.	16b-\	.	8d/ 8f/	.	(16ee-\L	.	.	.	.	.	.	.	.	.
.	.	16b-\	.	.	.	16ff\JJ)	.	.	.	.	.	.	.	.	.
8B-\	.	16b-\	.	8d/ 8f/	.	4dd\	.	.	.	.	.	.	.	.	.
.	.	16b-\	.	.	.	.	.	.	.	.	.	.	.	.	.
8F\J	.	16b-\	.	8d/ 8f/J	.	.	.	.	.	.	.	.	.	.	.
.	.	16b-\JJ	.	.	.	.	.	.	.	.	.	.	.	.	.
=23	=23	=23	=23	=23	=23	=23	=23	=23	=23	=23	=23	=23	=23	=23	=23
8D\L	.	16b-\LL	.	8d/ 8f/L	.	(8bb-\L	.	1b-/	.	1b-/]	.	1bb-\]	.	1ff\]	.
.	.	16b-\	.	.	.	.	.	.	.	.	.	.	.	.	.
8F\	.	16b-\	.	8d/ 8f/	.	8ddd\)	.	.	.	.	.	.	.	.	.
.	.	16b-\	.	.	.	.	.	.	.	.	.	.	.	.	.
8B-\	.	16b-\	.	8d/ 8f/	.	8bb-\`	.	.	.	.	.	.	.	.	.
.	.	16b-\	.	.	.	.	.	.	.	.	.	.	.	.	.
8F\J	.	16b-\	.	8d/ 8f/J	.	8bb-\`J	.	.	.	.	.	.	.	.	.
.	.	16b-\JJ	.	.	.	.	.	.	.	.	.	.	.	.	.
8D\L	.	16b-\LL	.	8d/ 8f/L	.	4bb-\	.	.	.	.	.	.	.	.	.
.	.	16b-\	.	.	.	.	.	.	.	.	.	.	.	.	.
8F\	.	16b-\	.	8d/ 8f/	.	.	.	.	.	.	.	.	.	.	.
.	.	16b-\	.	.	.	.	.	.	.	.	.	.	.	.	.
8B-\	.	16b-\	.	8d/ 8f/	.	4r	.	.	.	.	.	.	.	.	.
.	.	16b-\	.	.	.	.	.	.	.	.	.	.	.	.	.
8F\J	.	16b-\	.	8d/ 8f/J	.	.	.	.	.	.	.	.	.	.	.
.	.	16b-\JJ	.	.	.	.	.	.	.	.	.	.	.	.	.
!	!	!	!	!	!	!LO:LB:g=original	!	!	!	!	!	!	!	!	!
=24	=24	=24	=24	=24	=24	=24	=24	=24	=24	=24	=24	=24	=24	=24	=24
!	!	!	!	!	!	!	!	!LO:TX:a:t=2	!	!LO:TX:a:t=2	!	!	!	!	!
8C\L	.	16ee-\LL	.	8c/ 8e-/L	.	(16aan\LL	.	0r	.	0r	.	1aan\	.	[1ee-\	.
.	.	16ee-\	.	.	.	16bb-\	.	.	.	.	.	.	.	.	.
8E-\	.	16ee-\	.	8c/ 8e-/	.	16ccc\	.	.	.	.	.	.	.	.	.
.	.	16ee-\JJ	.	.	.	16bb-\JJ	.	.	.	.	.	.	.	.	.
8An\	.	16cc\LL	.	8c/ 8e-/	.	4aa\)	.	.	.	.	.	.	.	.	.
.	.	16cc\	.	.	.	.	.	.	.	.	.	.	.	.	.
8E-\J	.	16cc\	.	8c/ 8e-/J	.	.	.	.	.	.	.	.	.	.	.
.	.	16cc\JJ	.	.	.	.	.	.	.	.	.	.	.	.	.
8C\L	.	16an\LL	.	8c/ 8e-/L	.	8r	.	.	.	.	.	.	.	.	.
.	.	16an\	.	.	.	.	.	.	.	.	.	.	.	.	.
8E-\	.	16an\	.	8c/ 8e-/	.	8ccc\'L	.	.	.	.	.	.	.	.	.
.	.	16an\	.	.	.	.	.	.	.	.	.	.	.	.	.
8A\	.	16an\	.	8c/ 8e-/	.	8aa\'	.	.	.	.	.	.	.	.	.
.	.	16an\	.	.	.	.	.	.	.	.	.	.	.	.	.
8E-\J	.	16an\	.	8c/ 8e-/J	.	8ff\'J	.	.	.	.	.	.	.	.	.
.	.	16an\JJ	.	.	.	.	.	.	.	.	.	.	.	.	.
=25	=25	=25	=25	=25	=25	=25	=25	=25	=25	=25	=25	=25	=25	=25	=25
!	!	!LO:SIC:s=:v:2an	!	!	!	!	!	!	!	!	!	!	!	!	!
.	.	.	.	.	.	8qqff/	.	.	.	.	.	.	.	.	.
8C\L	.	16a-\LL	.	8c/ 8e-/L	.	4.ee-\T	.	.	.	.	.	1aan\	.	1ee-\]	.
.	.	16a-\	.	.	.	.	.	.	.	.	.	.	.	.	.
8E-\	.	16a-\	.	8c/ 8e-/	.	.	.	.	.	.	.	.	.	.	.
.	.	16a-\	.	.	.	.	.	.	.	.	.	.	.	.	.
!LO:SIC:s=:v:8An	!	!	!	!	!	!	!	!	!	!	!	!	!	!	!
8A-\	.	16a-\	.	8c/ 8e-/	.	.	.	.	.	.	.	.	.	.	.
.	.	16a-\	.	.	.	.	.	.	.	.	.	.	.	.	.
8E-\J	.	16a-\	.	8c/ 8e-/J	.	16dd\LL	.	.	.	.	.	.	.	.	.
.	.	16a-\JJ	.	.	.	16ee-\JJ	.	.	.	.	.	.	.	.	.
!	!	!LO:SIC:s=:v:2an	!	!	!	!	!	!	!	!	!	!	!	!	!
8C\L	.	16a-\LL	.	8c/ 8e-/L	.	4ff\	.	.	.	.	.	.	.	.	.
.	.	16a-\	.	.	.	.	.	.	.	.	.	.	.	.	.
8E-\	.	16a-\	.	8c/ 8e-/	.	.	.	.	.	.	.	.	.	.	.
.	.	16a-\	.	.	.	.	.	.	.	.	.	.	.	.	.
!LO:SIC:s=:v:8An	!	!	!	!	!	!	!	!	!	!	!	!	!	!	!
8A-\	.	16a-\	.	8c/ 8e-/	.	4ee-\	.	.	.	.	.	.	.	.	.
.	.	16a-\	.	.	.	.	.	.	.	.	.	.	.	.	.
8E-\J	.	16a-\	.	8c/ 8e-/J	.	.	.	.	.	.	.	.	.	.	.
.	.	16a-\JJ	.	.	.	.	.	.	.	.	.	.	.	.	.
*	*	*	*	*Xtremolo	*	*	*	*	*	*	*	*	*	*	*
=26	=26	=26	=26	=26	=26	=26	=26	=26	=26	=26	=26	=26	=26	=26	=26
.	.	.	.	.	.	8qee-/	.	.	.	.	.	.	.	.	.
8BB-\L	.	16b-\LL	.	8d/L	.	8.dd\L	.	1b-/	.	1bb-\	f	4bb-\	.	4dd\	.
.	.	16b-\	.	.	.	.	.	.	.	.	.	.	.	.	.
8D\	.	16b-\	.	8B-/	.	.	.	.	.	.	.	.	.	.	.
.	.	16b-\	.	.	.	(32cc\LL	.	.	.	.	.	.	.	.	.
.	.	.	.	.	.	32dd\JJJ	.	.	.	.	.	.	.	.	.
8F\	.	16b-\	.	8d/	.	4b-\)	.	.	.	.	.	4b-\	.	4bn\	.
.	.	16b-\	.	.	.	.	.	.	.	.	.	.	.	.	.
8D\J	.	16b-\	.	8B-/J	.	.	.	.	.	.	.	.	.	.	.
.	.	16b-\JJ	.	.	.	.	.	.	.	.	.	.	.	.	.
*	*	*Xtremolo	*	*	*	*	*	*	*	*	*	*	*	*	*
8BB-\L	.	16B-\LL	.	16B-/LL	.	4bb-\	.	.	.	.	.	4bb-\	.	4bb-\	.
.	.	16B-\	.	16B-/	.	.	.	.	.	.	.	.	.	.	.
8C\	.	16c\	.	16c/	.	.	.	.	.	.	.	.	.	.	.
.	.	16c\JJ	.	16c/JJ	.	.	.	.	.	.	.	.	.	.	.
8D\	.	16d\LL	.	16d/LL	.	4en/	.	.	.	.	.	4een\	.	4een\	.
.	.	16d\	.	16d/	.	.	.	.	.	.	.	.	.	.	.
8En\J	.	16en\	.	16en/	.	.	.	.	.	.	.	.	.	.	.
.	.	16e\JJ	.	16e/JJ	.	.	.	.	.	.	.	.	.	.	.
!	!	!LO:LB:g=original	!	!	!	!	!	!	!	!	!	!	!	!LO:LB:g=original	!
=27	=27	=27	=27	=27	=27	=27	=27	=27	=27	=27	=27	=27	=27	=27	=27
*	*	*	*	*tremolo	*	*	*	*	*	*	*	*	*	*	*
2F\	.	2f\	.	16f/LL	p	2f/	.	2ff\	.	2ff\	.	2ff\	.	2ff\	.
.	.	.	.	16f/	.	.	.	.	.	.	.	.	.	.	.
.	.	.	.	16f/	.	.	.	.	.	.	.	.	.	.	.
.	.	.	.	16f/	.	.	.	.	.	.	.	.	.	.	.
.	.	.	.	16f/	.	.	.	.	.	.	.	.	.	.	.
.	.	.	.	16f/	.	.	.	.	.	.	.	.	.	.	.
.	.	.	.	16f/	.	.	.	.	.	.	.	.	.	.	.
.	.	.	.	16f/JJ	.	.	.	.	.	.	.	.	.	.	.
2r	.	2r	.	16f/LL	.	2r	.	2r	.	2r	.	2r	.	2r	.
.	.	.	.	16f/	.	.	.	.	.	.	.	.	.	.	.
.	.	.	.	16f/	.	.	.	.	.	.	.	.	.	.	.
.	.	.	.	16f/	.	.	.	.	.	.	.	.	.	.	.
.	.	.	.	16f/	.	.	.	.	.	.	.	.	.	.	.
.	.	.	.	16f/	.	.	.	.	.	.	.	.	.	.	.
.	.	.	.	16f/	.	.	.	.	.	.	.	.	.	.	.
.	.	.	.	16f/JJ	.	.	.	.	.	.	.	.	.	.	.
!	!	!	!	!LO:LB:g=original	!	!	!	!	!	!	!	!LO:LB:g=original	!	!	!
=28	=28	=28	=28	=28	=28	=28	=28	=28	=28	=28	=28	=28	=28	=28	=28
!	!	!LO:TX:a:t=2	!	!	!	!	!	!LO:TX:a:t=2	!	!LO:TX:a:t=2	!	!	!	!	!
8F\`L	p	0r	.	16f/LL	.	8an/`L	p	0r	.	0r	.	1r	.	1r	.
.	.	.	.	16f/	.	.	.	.	.	.	.	.	.	.	.
8G\`	.	.	.	16f/	.	8b-\`	.	.	.	.	.	.	.	.	.
.	.	.	.	16f/	.	.	.	.	.	.	.	.	.	.	.
8An\`	.	.	.	16f/	.	8cc\`	.	.	.	.	.	.	.	.	.
.	.	.	.	16f/	.	.	.	.	.	.	.	.	.	.	.
8B-\`J	.	.	.	16f/	.	8dd\`J	.	.	.	.	.	.	.	.	.
.	.	.	.	16f/JJ	.	.	.	.	.	.	.	.	.	.	.
4c\	.	.	.	16f/LL	.	4ee-\	.	.	.	.	.	.	.	.	.
.	.	.	.	16f/	.	.	.	.	.	.	.	.	.	.	.
.	.	.	.	16f/	.	.	.	.	.	.	.	.	.	.	.
.	.	.	.	16f/	.	.	.	.	.	.	.	.	.	.	.
4r	.	.	.	16f/	.	4r	.	.	.	.	.	.	.	.	.
.	.	.	.	16f/	.	.	.	.	.	.	.	.	.	.	.
.	.	.	.	16f/	.	.	.	.	.	.	.	.	.	.	.
.	.	.	.	16f/JJ	.	.	.	.	.	.	.	.	.	.	.
!	!	!	!	!	!	!LO:LB:g=original	!	!	!	!	!	!	!	!	!
=29	=29	=29	=29	=29	=29	=29	=29	=29	=29	=29	=29	=29	=29	=29	=29
!LO:TX:a:t=3	!	!	!	!	!	!LO:TX:a:t=3	!	!	!	!	!	!	!	!	!
0r	.	.	.	16f/LL	.	0r	.	.	.	.	.	8ff\`L	.	8aan\`L	.
.	.	.	.	16f/	.	.	.	.	.	.	.	.	.	.	.
.	.	.	.	16f/	.	.	.	.	.	.	.	8gg\`	.	8bb-\`	.
.	.	.	.	16f/	.	.	.	.	.	.	.	.	.	.	.
.	.	.	.	16f/	.	.	.	.	.	.	.	8aan\`	.	8ccc\`	.
.	.	.	.	16f/	.	.	.	.	.	.	.	.	.	.	.
.	.	.	.	16f/	.	.	.	.	.	.	.	8bb-\`J	.	8eee-\`J	.
.	.	.	.	16f/JJ	.	.	.	.	.	.	.	.	.	.	.
.	.	.	.	16f/LL	.	.	.	.	.	.	.	4ccc\`	.	4eee-\	.
.	.	.	.	16f/	.	.	.	.	.	.	.	.	.	.	.
.	.	.	.	16f/	.	.	.	.	.	.	.	.	.	.	.
.	.	.	.	16f/	.	.	.	.	.	.	.	.	.	.	.
.	.	.	.	16f/	.	.	.	.	.	.	.	4r	.	4r	.
.	.	.	.	16f/	.	.	.	.	.	.	.	.	.	.	.
.	.	.	.	16f/	.	.	.	.	.	.	.	.	.	.	.
.	.	.	.	16f/JJ	.	.	.	.	.	.	.	.	.	.	.
=30	=30	=30	=30	=30	=30	=30	=30	=30	=30	=30	=30	=30	=30	=30	=30
.	.	2r	.	16f/LL	.	.	.	1ff\	.	1ff\	p	0r	.	0r	.
.	.	.	.	16f/	.	.	.	.	.	.	.	.	.	.	.
.	.	.	.	16f/	.	.	.	.	.	.	.	.	.	.	.
.	.	.	.	16f/	.	.	.	.	.	.	.	.	.	.	.
.	.	.	.	16f/	.	.	.	.	.	.	.	.	.	.	.
.	.	.	.	16f/	.	.	.	.	.	.	.	.	.	.	.
.	.	.	.	16f/	.	.	.	.	.	.	.	.	.	.	.
.	.	.	.	16f/JJ	.	.	.	.	.	.	.	.	.	.	.
.	.	8B-\`L	.	16f/LL	.	.	.	.	.	.	.	.	.	.	.
.	.	.	.	16f/	.	.	.	.	.	.	.	.	.	.	.
.	.	8c\`	p	16f/	.	.	.	.	.	.	.	.	.	.	.
.	.	.	.	16f/	.	.	.	.	.	.	.	.	.	.	.
.	.	8d\`	.	16f/	.	.	.	.	.	.	.	.	.	.	.
.	.	.	.	16f/	.	.	.	.	.	.	.	.	.	.	.
.	.	8e-\`J	.	16f/	.	.	.	.	.	.	.	.	.	.	.
.	.	.	.	16f/JJ	.	.	.	.	.	.	.	.	.	.	.
!	!	!	!	!	!	!	!	!LO:LB:g=original	!	!	!	!	!	!	!
=31	=31	=31	=31	=31	=31	=31	=31	=31	=31	=31	=31	=31	=31	=31	=31
!	!	!LO:TX:t=P:problem:mixed beam	!	!	!	!	!	!	!	!	!	!	!	!	!
1r	.	8f\L	.	16f/LL	.	1r	.	4ff\	.	4ff\	.	.	.	.	.
.	.	.	.	16f/	.	.	.	.	.	.	.	.	.	.	.
.	.	8F/	.	16f/	.	.	.	.	.	.	.	.	.	.	.
.	.	.	.	16f/	.	.	.	.	.	.	.	.	.	.	.
.	.	8f\	.	16f/	.	.	.	8.ff\L	.	8.ff\L	.	.	.	.	.
.	.	.	.	16f/	.	.	.	.	.	.	.	.	.	.	.
.	.	8F/J	.	16f/	.	.	.	.	.	.	.	.	.	.	.
.	.	.	.	16f/JJ	.	.	.	16ff\Jk	.	16ff\Jk	.	.	.	.	.
.	.	4f\`	.	16f/LL	.	.	.	4ff\	.	4ff\	.	.	.	.	.
.	.	.	.	16f/	.	.	.	.	.	.	.	.	.	.	.
.	.	.	.	16f/	.	.	.	.	.	.	.	.	.	.	.
.	.	.	.	16f/	.	.	.	.	.	.	.	.	.	.	.
.	.	4r	.	16f/	.	.	.	4r	.	4r	.	.	.	.	.
.	.	.	.	16f/	.	.	.	.	.	.	.	.	.	.	.
.	.	.	.	16f/	.	.	.	.	.	.	.	.	.	.	.
.	.	.	.	16f/JJ	.	.	.	.	.	.	.	.	.	.	.
=32	=32	=32	=32	=32	=32	=32	=32	=32	=32	=32	=32	=32	=32	=32	=32
!	!	!LO:TX:a:t=2	!	!	!	!	!	!	!	!LO:TX:a:t=2	!	!	!	!	!
8F\`L	p	0r	.	16f/LL	.	8an/`L	p	0r	.	0r	.	1r	.	1r	.
.	.	.	.	16f/	.	.	.	.	.	.	.	.	.	.	.
8G\`	.	.	.	16f/	.	8b-\`	.	.	.	.	.	.	.	.	.
.	.	.	.	16f/	.	.	.	.	.	.	.	.	.	.	.
!LO:SIC:s=:v:8An	!	!	!	!	!	!	!	!	!	!	!	!	!	!	!
8A-\`	.	.	.	16f/	.	8cc\`	.	.	.	.	.	.	.	.	.
.	.	.	.	16f/	.	.	.	.	.	.	.	.	.	.	.
8B-\`J	.	.	.	16f/	.	8dd\`J	.	.	.	.	.	.	.	.	.
.	.	.	.	16f/JJ	.	.	.	.	.	.	.	.	.	.	.
4c\	.	.	.	16f/LL	.	4ee-\	.	.	.	.	.	.	.	.	.
.	.	.	.	16f/	.	.	.	.	.	.	.	.	.	.	.
.	.	.	.	16f/	.	.	.	.	.	.	.	.	.	.	.
.	.	.	.	16f/	.	.	.	.	.	.	.	.	.	.	.
4r	.	.	.	16f/	.	4r	.	.	.	.	.	.	.	.	.
.	.	.	.	16f/	.	.	.	.	.	.	.	.	.	.	.
.	.	.	.	16f/	.	.	.	.	.	.	.	.	.	.	.
.	.	.	.	16f/JJ	.	.	.	.	.	.	.	.	.	.	.
=33	=33	=33	=33	=33	=33	=33	=33	=33	=33	=33	=33	=33	=33	=33	=33
!LO:TX:a:t=3	!	!	!	!	!	!LO:TX:a:t=3	!	!	!	!	!	!	!	!	!
0r	.	.	.	16f/LL	.	0r	.	.	.	.	.	8ff\`L	.	8aan\`L	.
.	.	.	.	16f/	.	.	.	.	.	.	.	.	.	.	.
.	.	.	.	16f/	.	.	.	.	.	.	.	8gg\`	.	8bb-\`	.
.	.	.	.	16f/	.	.	.	.	.	.	.	.	.	.	.
.	.	.	.	16f/	.	.	.	.	.	.	.	8aan\`	.	8ccc\`	.
.	.	.	.	16f/	.	.	.	.	.	.	.	.	.	.	.
.	.	.	.	16f/	.	.	.	.	.	.	.	8bb-\`J	.	8ddd\`J	.
.	.	.	.	16f/JJ	.	.	.	.	.	.	.	.	.	.	.
.	.	.	.	16f/LL	.	.	.	.	.	.	.	4ccc\	.	4eee-\	.
.	.	.	.	16f/	.	.	.	.	.	.	.	.	.	.	.
.	.	.	.	16f/	.	.	.	.	.	.	.	.	.	.	.
.	.	.	.	16f/	.	.	.	.	.	.	.	.	.	.	.
.	.	.	.	16f/	.	.	.	.	.	.	.	4r	.	4r	.
.	.	.	.	16f/	.	.	.	.	.	.	.	.	.	.	.
.	.	.	.	16f/	.	.	.	.	.	.	.	.	.	.	.
.	.	.	.	16f/JJ	.	.	.	.	.	.	.	.	.	.	.
=34	=34	=34	=34	=34	=34	=34	=34	=34	=34	=34	=34	=34	=34	=34	=34
.	.	2r	.	16f/LL	.	.	.	1ff\	p	1ff\	p	0r	.	0r	.
.	.	.	.	16f/	.	.	.	.	.	.	.	.	.	.	.
.	.	.	.	16f/	.	.	.	.	.	.	.	.	.	.	.
.	.	.	.	16f/	.	.	.	.	.	.	.	.	.	.	.
.	.	.	.	16f/	.	.	.	.	.	.	.	.	.	.	.
.	.	.	.	16f/	.	.	.	.	.	.	.	.	.	.	.
.	.	.	.	16f/	.	.	.	.	.	.	.	.	.	.	.
.	.	.	.	16f/JJ	.	.	.	.	.	.	.	.	.	.	.
.	.	8B-\`L	.	16f/LL	.	.	.	.	.	.	.	.	.	.	.
.	.	.	.	16f/	.	.	.	.	.	.	.	.	.	.	.
.	.	8c\`	p	16f/	.	.	.	.	.	.	.	.	.	.	.
.	.	.	.	16f/	.	.	.	.	.	.	.	.	.	.	.
.	.	8d\`	.	16f/	.	.	.	.	.	.	.	.	.	.	.
.	.	.	.	16f/	.	.	.	.	.	.	.	.	.	.	.
.	.	8e-\`J	.	16f/	.	.	.	.	.	.	.	.	.	.	.
.	.	.	.	16f/JJ	.	.	.	.	.	.	.	.	.	.	.
!	!	!	!	!	!	!	!	!	!	!LO:LB:g=original	!	!	!	!	!
=35	=35	=35	=35	=35	=35	=35	=35	=35	=35	=35	=35	=35	=35	=35	=35
!	!	!LO:TX:t=P:problem:mixed beam	!	!	!	!	!	!	!	!	!	!	!	!	!
1r	.	8f\L	.	16f/LL	.	1r	.	4ff\	.	4ff\	.	.	.	.	.
.	.	.	.	16f/	.	.	.	.	.	.	.	.	.	.	.
.	.	8F/	.	16f/	.	.	.	.	.	.	.	.	.	.	.
.	.	.	.	16f/	.	.	.	.	.	.	.	.	.	.	.
.	.	8f\	.	16f/	.	.	.	8.ff\L	.	8.ff\L	.	.	.	.	.
.	.	.	.	16f/	.	.	.	.	.	.	.	.	.	.	.
.	.	8F/J	.	16f/	.	.	.	.	.	.	.	.	.	.	.
.	.	.	.	16f/JJ	.	.	.	16ff\Jk	.	16ff\Jk	.	.	.	.	.
.	.	4f\	.	16f/LL	.	.	.	4ff\	.	4ff\	.	.	.	.	.
.	.	.	.	16f/	.	.	.	.	.	.	.	.	.	.	.
.	.	.	.	16f/	.	.	.	.	.	.	.	.	.	.	.
.	.	.	.	16f/	.	.	.	.	.	.	.	.	.	.	.
.	.	4r	.	16f/	.	.	.	4r	.	4r	.	.	.	.	.
.	.	.	.	16f/	.	.	.	.	.	.	.	.	.	.	.
.	.	.	.	16f/	.	.	.	.	.	.	.	.	.	.	.
.	.	.	.	16f/JJ	.	.	.	.	.	.	.	.	.	.	.
=36	=36	=36	=36	=36	=36	=36	=36	=36	=36	=36	=36	=36	=36	=36	=36
!	!	!LO:TX:a:t=2	!	!	!	!	!	!	!	!	!	!	!	!	!
8F\`L	p	0r	.	16f/LL	.	8an/`L	.	1ff\	p	[1ff\	.	2r	.	2r	.
.	.	.	.	16f/	.	.	.	.	.	.	.	.	.	.	.
8G\`	.	.	.	16f/	.	8b-\`	.	.	.	.	.	.	.	.	.
.	.	.	.	16f/	.	.	.	.	.	.	.	.	.	.	.
8An\`	.	.	.	16f/	.	8cc\`	.	.	.	.	.	.	.	.	.
.	.	.	.	16f/	.	.	.	.	.	.	.	.	.	.	.
8B-\`J	.	.	.	16f/	.	8dd\`J	.	.	.	.	.	.	.	.	.
.	.	.	.	16f/JJ	.	.	.	.	.	.	.	.	.	.	.
!	!	!	!	!	!	!LO:TX:t=P:problem:mixed beam	!	!	!	!	!	!	!	!	!
4c\	.	.	.	16f/LL	.	16ee-\LL	.	.	.	.	.	8ff\`L	.	8aan\`L	.
.	.	.	.	16f/	.	16f/	.	.	.	.	.	.	.	.	.
.	.	.	.	16f/	.	16f/	.	.	.	.	.	8gg\`	.	8bb-\`	.
.	.	.	.	16f/	.	16f/JJ	.	.	.	.	.	.	.	.	.
4r	.	.	.	16f/	.	16f/LL	.	.	.	.	.	8aan\`	.	8ccc\`	.
.	.	.	.	16f/	.	16f/	.	.	.	.	.	.	.	.	.
.	.	.	.	16f/	.	16f/	.	.	.	.	.	8bb-\`J	.	8ddd\`J	.
.	.	.	.	16f/JJ	.	16f/JJ	.	.	.	.	.	.	.	.	.
=37	=37	=37	=37	=37	=37	=37	=37	=37	=37	=37	=37	=37	=37	=37	=37
!	!	!	!	!	!	!	!	!	!	!	!LO:DY:t=pia.	!	!	!	!
8F\`L	.	.	.	16f/LL	.	8an/`L	.	[1ff\	.	1ff\_	p	4ccc\	.	4eee-\	.
.	.	.	.	16f/	.	.	.	.	.	.	.	.	.	.	.
8G\`	.	.	.	16f/	.	8b-\`	.	.	.	.	.	.	.	.	.
.	.	.	.	16f/	.	.	.	.	.	.	.	.	.	.	.
8An\`	.	.	.	16f/	.	8cc\`	.	.	.	.	.	4r	.	4r	.
.	.	.	.	16f/	.	.	.	.	.	.	.	.	.	.	.
8B-\`J	.	.	.	16f/	.	8dd\`J	.	.	.	.	.	.	.	.	.
.	.	.	.	16f/JJ	.	.	.	.	.	.	.	.	.	.	.
!	!	!	!	!	!	!LO:TX:t=P:problem:mixed beam	!	!	!	!	!	!	!	!	!
4c\	.	.	.	16f/LL	.	16ee-\LL	.	.	.	.	.	8ff\`L	.	8aan\`L	.
.	.	.	.	16f/	.	16f/	.	.	.	.	.	.	.	.	.
.	.	.	.	16f/	.	16f/	.	.	.	.	.	8gg\`	.	8bb-\`	.
.	.	.	.	16f/	.	16f/JJ	.	.	.	.	.	.	.	.	.
4r	.	.	.	16f/	.	16f/LL	.	.	.	.	.	8aan\`	.	8ccc\`	.
.	.	.	.	16f/	.	16f/	.	.	.	.	.	.	.	.	.
.	.	.	.	16f/	.	16f/	.	.	.	.	.	8bb-\`J	.	8ddd\`J	.
.	.	.	.	16f/JJ	.	16f/JJ	.	.	.	.	.	.	.	.	.
!	!	!	!	!	!	!	!	!	!	!	!	!	!	!LO:LB:g=original	!
=38	=38	=38	=38	=38	=38	=38	=38	=38	=38	=38	=38	=38	=38	=38	=38
8F\L	.	8F/`L	<	16f/LL	<	8an\`L	<	1ff\]	.	1ff\]	.	4ccc\	.	4eee-\`	.
.	.	.	.	16f/	.	.	.	.	.	.	.	.	.	.	.
8G\	<	8G/`	.	16f/	.	8b-\`	.	.	.	.	.	.	.	.	.
.	.	.	.	16f/	.	.	.	.	.	.	.	.	.	.	.
8An\'	.	8An/`	.	16f/	.	8cc\`	.	.	.	.	.	4r	.	4r	.
.	.	.	.	16f/	.	.	.	.	.	.	.	.	.	.	.
8B-\J	.	8B-/`J	.	16f/	.	8dd\`J	.	.	.	.	.	.	.	.	.
.	.	.	.	16f/JJ	.	.	.	.	.	.	.	.	.	.	.
!	!	!	!	!	!	!	!	!	!	!	!	!LO:LB:g=original	!	!	!
8c\'L	.	8c\L	.	16f/LL	.	8ee-\L	.	.	.	.	.	8ee-\`L	.	8ee-\`L	.
.	.	.	.	16f/	.	.	.	.	.	.	.	.	.	.	.
8d\'	.	8d\	.	16f/	.	8ff\	.	.	.	.	.	8ff\`	.	8ff\`	.
.	.	.	.	16f/	.	.	.	.	.	.	.	.	.	.	.
8e-\'	.	8e-\	.	16f/	.	8gg\	.	.	.	.	.	8gg\`	.	8gg\`	.
.	.	.	.	16f/	.	.	.	.	.	.	.	.	.	.	.
8c\'J	.	8c\J	.	16f/	.	8aan\J	[[	.	.	.	.	8aan\`J	.	8aan\`J	.
.	.	.	.	16f/JJ	.	.	.	.	.	.	.	.	.	.	.
!	!	!LO:LB:g=original	!	!LO:LB:g=original	!	!	!	!	!	!	!	!	!	!	!
=39	=39	=39	=39	=39	=39	=39	=39	=39	=39	=39	=39	=39	=39	=39	=39
*	*	*	*	*Xtremolo	*	*	*	*	*	*	*	*	*	*	*
!LO:TX:t=P:problem:mixed beam	!	!	!	!	!	!	!	!	!	!	!	!	!	!	!
8B-\L	f	8d\L	.	16d/LL	.	4bb-\	f	4b-/	.	4ff\	.	4bb-\	.	4bb-\	.
.	.	.	.	16b-\	.	.	.	.	.	.	.	.	.	.	.
8BB-/	.	8B-\	f	16d/	.	.	.	.	.	.	.	.	.	.	.
.	.	.	.	16b-\JJ	.	.	.	.	.	.	.	.	.	.	.
.	.	.	.	.	.	8qqcc/	.	.	.	.	.	.	.	.	.
8D/	.	8d\	.	16d/LL	.	(16b-\LL	.	8.b-/L	.	8.ff\L	.	4r	.	4r	.
.	.	.	.	16b-\	.	16an\	.	.	.	.	.	.	.	.	.
8F/J	.	8f\J	.	16d/	.	16b-\	.	.	.	.	.	.	.	.	.
.	.	.	.	16b-\JJ	.	16cc\JJ	.	16b-/Jk	.	16ff\Jk	.	.	.	.	.
*	*	*	*	*tremolo	*	*	*	*	*	*	*	*	*	*	*
8B-\L	.	8b-\L	.	16d/ 16b-/LL	.	4b-\)	.	4b-/	.	4ff\	.	[>2b-/	.	2ff\	.
.	.	.	.	16d/ 16b-/	.	.	.	.	.	.	.	.	.	.	.
8F\	.	8f\	.	16d/ 16b-/	.	.	.	.	.	.	.	.	.	.	.
.	.	.	.	16d/ 16b-/	.	.	.	.	.	.	.	.	.	.	.
8D\	.	8d\	.	16d/ 16b-/	.	4r	.	4r	.	4r	.	.	.	.	.
.	.	.	.	16d/ 16b-/	.	.	.	.	.	.	.	.	.	.	.
8BB-\J	.	8B-\J	.	16d/ 16b-/	.	.	.	.	.	.	.	.	.	.	.
.	.	.	.	16d/ 16b-/JJ	.	.	.	.	.	.	.	.	.	.	.
!	!	!	!	!	!	!LO:LB:g=original	!	!	!	!	!	!	!	!	!
=40	=40	=40	=40	=40	=40	=40	=40	=40	=40	=40	=40	=40	=40	=40	=40
!	!	!LO:TX:t=P:problem:mixed beam	!	!LO:TX:b:t=Segue	!	!	!	!	!	!	!	!	!	!	!
8E-\L	.	8e-\L	.	16e-/ 16b-/LL	.	4d/ 4b-/ 4gg/	.	2g/	.	2ee-\	.	4b-/]	.	4gg\	.
.	.	.	.	16e-/ 16b-/	.	.	.	.	.	.	.	.	.	.	.
8E-\	.	8E-/	.	16e-/ 16b-/	.	.	.	.	.	.	.	.	.	.	.
.	.	.	.	16e-/ 16b-/	.	.	.	.	.	.	.	.	.	.	.
!	!	!	!	!	!	!LO:SIC:o:s=:v:nieczytelna wysokość przednutki	!	!	!	!	!	!	!	!	!
.	.	.	.	.	.	8qqaa-/	.	.	.	.	.	.	.	.	.
8G\	.	8G/	.	16e-/ 16b-/	.	16gg\LL	.	.	.	.	.	4r	.	4r	.
.	.	.	.	16e-/ 16b-/	.	16ff\	.	.	.	.	.	.	.	.	.
8B-\J	.	8B-/J	.	16e-/ 16b-/	.	16gg\	.	.	.	.	.	.	.	.	.
.	.	.	.	16e-/ 16b-/JJ	.	16aan\JJ	.	.	.	.	.	.	.	.	.
8e-\L	p	8e-\L	.	16e-/ 16b-/LL	.	4bb-\	.	2r	.	2r	.	2gg\	.	2eee-\	f
.	.	.	.	16e-/ 16b-/	.	.	.	.	.	.	.	.	.	.	.
8B-\	.	8B-/	.	16e-/ 16b-/	.	.	.	.	.	.	.	.	.	.	.
.	.	.	.	16e-/ 16b-/	.	.	.	.	.	.	.	.	.	.	.
8G\	.	8G/	.	16e-/ 16b-/	.	4r	.	.	.	.	.	.	.	.	.
.	.	.	.	16e-/ 16b-/	.	.	.	.	.	.	.	.	.	.	.
8E-\J	.	8E-/J	.	16e-/ 16b-/	.	.	.	.	.	.	.	.	.	.	.
.	.	.	.	16e-/ 16b-/JJ	.	.	.	.	.	.	.	.	.	.	.
!LO:LB:g=original	!	!	!	!	!	!	!	!LO:LB:g=original	!	!	!	!	!	!	!
=41	=41	=41	=41	=41	=41	=41	=41	=41	=41	=41	=41	=41	=41	=41	=41
!.	!	!LO:TX:t=P:problem:rozmazany tusz	!	!	!	!	!	!	!	!	!	!	!	!	!
4BB-/	p	4B-yy/	p	4B-/	.	4B-/	p	1ff\	fp	[1ff\	fp	0r	.	0r	.
!	!	!LO:TX:t=P:problem:rozmazany tusz	!	!	!	!	!	!	!	!	!	!	!	!	!
4D/	.	4dyy\	.	4d/	.	4d/	.	.	.	.	.	.	.	.	.
2F\	.	2f\	.	2f/	.	2f/	.	.	.	.	.	.	.	.	.
=42	=42	=42	=42	=42	=42	=42	=42	=42	=42	=42	=42	=42	=42	=42	=42
!	!	!LO:TX:t=P:problem:rozmazany tusz	!	!	!	!	!	!	!	!	!	!	!	!	!
4BB-/	.	4B-yy/	.	4B-/	.	4B-/	.	1ff\	fp	1ff\_	fp	.	.	.	.
!	!	!LO:TX:t=P:problem:rozmazany tusz	!	!	!	!	!	!	!	!	!	!	!	!	!
4D/	.	4dyy\	.	4d/	.	4d/	.	.	.	.	.	.	.	.	.
2F\	.	2f\	.	2f/	.	2f/	.	.	.	.	.	.	.	.	.
=43	=43	=43	=43	=43	=43	=43	=43	=43	=43	=43	=43	=43	=43	=43	=43
!	!	!	!	!	!	!LO:TX:t=P:problem:rozmazany tusz	!	!	!	!	!	!	!	!	!
4BB-/	.	4B-/	.	4B-/	.	4B-yy/	.	1ff\	fp	1ff\]	fp	1r	.	1r	.
!	!	!	!	!	!	!LO:TX:t=P:problem:rozmazany tusz	!	!	!	!	!	!	!	!	!
4D/	.	4d/	.	4d/	.	4dyy/	.	.	.	.	.	.	.	.	.
!	!	!	!	!	!	!LO:TX:t=P:problem:rozmazany tusz	!	!	!	!	!	!	!	!	!
2F\	.	2f\	.	2f/	.	2fyy/	.	.	.	.	.	.	.	.	.
=44	=44	=44	=44	=44	=44	=44	=44	=44	=44	=44	=44	=44	=44	=44	=44
*tremolo	*	*tremolo	*	*	*	*	*	*	*	*	*	*	*	*	*
8BB-/L	.	8B-/L	p	16b-/LL	.	16b-\LL	.	1b-/	.	[1bb-\	<[	1bb-\	.	[1bb-\	.
.	.	.	.	16b-/	.	16b-\	.	.	.	.	.	.	.	.	.
8BB-/	.	8B-/	.	16b-/	.	16b-\	.	.	.	.	.	.	.	.	.
.	.	.	.	16b-/JJ	.	16b-\JJ	.	.	.	.	.	.	.	.	.
8BB-/	.	8B-/	.	16an/LL	.	16cc\LL	.	.	.	.	.	.	.	.	.
.	.	.	.	16an/	.	16cc\	.	.	.	.	.	.	.	.	.
8BB-/J	.	8B-/J	.	16an/	.	16cc\	.	.	.	.	.	.	.	.	.
.	.	.	.	16an/JJ	.	16cc\JJ	.	.	.	.	.	.	.	.	.
8BB-/L	.	8B-/L	.	16b-/LL	.	16dd\LL	.	.	.	.	.	.	.	.	.
.	.	.	.	16b-/	.	16dd\	.	.	.	.	.	.	.	.	.
8BB-/	.	8B-/	.	16b-/	.	16dd\	.	.	.	.	.	.	.	.	.
.	.	.	.	16b-/JJ	.	16dd\JJ	.	.	.	.	.	.	.	.	.
8BB-/	.	8B-/	.	16cc\LL	.	16ee-\LL	.	.	.	.	.	.	.	.	.
.	.	.	.	16cc\	.	16ee-\	.	.	.	.	.	.	.	.	.
8BB-/J	.	8B-/J	.	16cc\	.	16ee-\	.	.	.	.	.	.	.	.	.
.	.	.	.	16cc\JJ	.	16ee-\JJ	.	.	.	.	.	.	.	.	.
=45	=45	=45	=45	=45	=45	=45	=45	=45	=45	=45	=45	=45	=45	=45	=45
8BB-/L	<	8B-/L	<	16b-\LL	.	16dd\LL	<	1b-/	.	1bb-\_	f	1bb-\	.	1bb-\_	.
.	.	.	.	16b-\	.	16dd\	.	.	.	.	.	.	.	.	.
8BB-/	.	8B-/	.	16b-\	.	16dd\	.	.	.	.	.	.	.	.	.
.	.	.	.	16b-\JJ	.	16dd\JJ	.	.	.	.	.	.	.	.	.
8BB-/	.	8B-/	.	16cc\LL	.	16ee-\LL	.	.	.	.	.	.	.	.	.
.	.	.	.	16cc\	.	16ee-\	.	.	.	.	.	.	.	.	.
8BB-/J	.	8B-/J	.	16cc\	.	16ee-\	.	.	.	.	.	.	.	.	.
.	.	.	.	16cc\JJ	.	16ee-\JJ	.	.	.	.	.	.	.	.	.
8BB-/L	.	8B-/L	.	16dd\LL	<	16ff\LL	.	.	.	.	.	.	.	.	.
.	.	.	.	16dd\	.	16ff\	.	.	.	.	.	.	.	.	.
8BB-/	.	8B-/	.	16dd\	.	16ff\	.	.	.	.	.	.	.	.	.
.	.	.	.	16dd\JJ	.	16ff\JJ	.	.	.	.	.	.	.	.	.
8BB-/	.	8B-/	.	16ee-\LL	[[	16gg\LL	.	.	.	.	.	.	.	.	.
.	.	.	.	16ee-\	.	16gg\	.	.	.	.	.	.	.	.	.
8BB-/J	.	8B-/J	.	16ee-\	.	16gg\	.	.	.	.	.	.	.	.	.
.	.	.	.	16ee-\JJ	.	16gg\JJ	.	.	.	.	.	.	.	.	.
=46	=46	=46	=46	=46	=46	=46	=46	=46	=46	=46	=46	=46	=46	=46	=46
8BB-/L	.	8B-/L	.	16dd\LL	.	16ff\LL	.	1b-/	.	1bb-\_	.	1bb-\	.	1bb-\]	.
.	.	.	.	16dd\	.	16ff\	.	.	.	.	.	.	.	.	.
8BB-/	.	8B-/	.	16dd\	.	16ff\	.	.	.	.	.	.	.	.	.
.	.	.	.	16dd\	.	16ff\	.	.	.	.	.	.	.	.	.
8BB-/	.	8B-/	.	16dd\	.	16ff\	.	.	.	.	.	.	.	.	.
.	.	.	.	16dd\	.	16ff\	.	.	.	.	.	.	.	.	.
8BB-/J	.	8B-/J	.	16dd\	.	16ff\	.	.	.	.	.	.	.	.	.
.	.	.	.	16dd\JJ	.	16ff\JJ	.	.	.	.	.	.	.	.	.
8BB-/L	.	8B-/L	.	16ee-\LL	.	16gg\LL	.	.	.	.	.	.	.	.	.
.	.	.	.	16ee-\	.	16gg\	.	.	.	.	.	.	.	.	.
8BB-/	.	8B-/	.	16ee-\	.	16gg\	.	.	.	.	.	.	.	.	.
.	.	.	.	16ee-\JJ	.	16gg\JJ	.	.	.	.	.	.	.	.	.
*	*	*	*	*Xtremolo	*	*	*	*	*	*	*	*	*	*	*
!	!	!	!	!LO:SIC:o:s=:v:problem:16\right:global	!	!	!	!	!	!	!	!	!	!	!
8BB-/	.	8B-/	.	16cc\LL	.	16aan\LL	.	.	.	.	.	.	.	.	.
.	.	.	.	16cc\	.	16aan\	.	.	.	.	.	.	.	.	.
8BB-/J	.	8B-/J	.	16aan\	.	16aan\	.	.	.	.	.	.	.	.	.
.	.	.	.	16aa\JJ	.	16aan\JJ	.	.	.	.	.	.	.	.	.
!	!	!	!	!LO:LB:g=original	!	!	!	!	!	!	!	!	!	!	!
=47	=47	=47	=47	=47	=47	=47	=47	=47	=47	=47	=47	=47	=47	=47	=47
!	!LO:DY:t=for	!	!	!	!	!	!	!	!	!	!	!	!	!	!
8BB-/L	f	8B-\L	f	(16bb-\LL	.	(16bb-\LL	f	1b-/	.	1bb-\]	.	(16bb-\LL	.	(16bb-\LL	.
.	.	.	.	16ccc\	.	16ccc\	.	.	.	.	.	16ccc\	.	16ccc\	.
8D\	.	8f\	.	16ddd\	.	16ddd\	.	.	.	.	.	16ddd\	.	16ddd\	.
.	.	.	.	16ccc\JJ)	.	16ccc\JJ	.	.	.	.	.	16ccc\JJ)	.	16ccc\JJ)	.
!LO:TX:a:t=d	!	!	!	!LO:SIC:o:s=:v:problem:4\right:global	!	!	!	!	!	!	!	!	!	!	!
8D\	.	8f\	.	4bb-\	.	4bb-\)	.	.	.	.	.	4bb-\	.	4bb-\	.
8D\J	.	8f\J	.	.	.	.	.	.	.	.	.	.	.	.	.
!	!	!LO:LB:g=original	!	!	!	!LO:LB:g=original	!	!	!	!	!	!	!	!	!
8D/L	.	8f\L	.	8r	.	8r	.	.	.	.	.	8r	.	8r	.
!	!	!	!	!	!	!LO:SIC:o:s=:v:nieczytelna wysokość przednutki	!	!	!	!	!	!	!	!	!
.	.	.	.	8qqccc/	.	8qaa-/	.	.	.	.	.	.	.	8qqaa-/	.
8D/	.	8f\	.	16bb-\LL	.	(16bb-\LL	.	.	.	.	.	(16bb-\LL	.	(16bb-\LL	.
.	.	.	.	16aan\JJ	.	16aan\JJ)	.	.	.	.	.	16aan\J)	.	16aan\J)	.
8D/	.	8f\	.	8bb-\L	.	8bb-\`L	.	.	.	.	.	8bb-\`	.	8bb-\`	.
8D/J	.	8f\J	.	8ddd\J	.	8ddd\`J	.	.	.	.	.	8ddd\`J	.	8ddd\`J	.
!	!	!	!	!	!	!	!	!	!	!LO:LB:g=original	!	!	!	!LO:LB:g=original	!
=48	=48	=48	=48	=48	=48	=48	=48	=48	=48	=48	=48	=48	=48	=48	=48
8E-\L	.	8g\L	.	8ff#X\L	.	(8ff#X\L	.	[1ee-\	.	[1ee-\	.	8ff#X\L	.	(8ff#X\L	.
8E-\	.	8g\	.	8gg\J	.	8gg\J)	.	.	.	.	.	8gg\J	.	8gg\J)	.
!	!	!	!	!	!	!	!	!	!	!	!	!LO:LB:g=original	!	!	!
8E-\	.	8g\	.	4gg\	.	4gg\	.	.	.	.	.	4gg\	.	4gg\	.
8E-\J	.	8g\J	.	.	.	.	.	.	.	.	.	.	.	.	.
8E-\L	.	8g\L	.	8r	.	8r	.	.	.	.	.	8r	.	8r	.
!	!	!	!	!	!	!LO:SIC:o:s=:v:nieczytelna wysokość przednutki	!	!	!	!	!	!	!	!	!
.	.	.	.	8qqaa-/	.	8qqaa-/	.	.	.	.	.	8qqaa-/	.	8qqaa-/	.
8E-\	.	8g\	.	16gg\LL	.	(16gg\LL	.	.	.	.	.	(16gg\LL	.	(16gg\LL	.
.	.	.	.	16ff#X\JJ	.	16ff#\JJ)	.	.	.	.	.	16ff#\J)	.	16ff#\J	.
8E-\	.	8g\	.	8gg\`L	.	8gg\'L	.	.	.	.	.	8gg\`	.	8gg\)	.
8E-\J	.	8g\J	.	8bb-\`J	.	8bb-\'J	.	.	.	.	.	8bb-\`J	.	8bb-\J	.
=49	=49	=49	=49	=49	=49	=49	=49	=49	=49	=49	=49	=49	=49	=49	=49
8E-\L	.	8g\L	.	8bn\L	.	(8bn\L	.	2ee-\]	.	2ee-\]	.	(8bn\L	.	(8bn\L	.
8E-\	.	8g\	.	8cc\J	.	8cc\J	.	.	.	.	.	8cc\J	.	8cc\J)	.
8E-\	.	8g\	.	4cc\	.	4cc\)	.	.	.	.	.	4cc\)	.	4cc\	.
8E-\J	.	8g\J	.	.	.	.	.	.	.	.	.	.	.	.	.
4E-\	.	4g\	.	2r	.	8r	.	2r	.	2r	.	2r	.	2r	.
.	.	.	.	.	.	8qdd/	p	.	.	.	.	.	.	.	.
.	.	.	.	.	.	(16cc\LL	.	.	.	.	.	.	.	.	.
.	.	.	.	.	.	16b\JJ)	.	.	.	.	.	.	.	.	.
4r	.	4r	.	.	.	8cc\`L	.	.	.	.	.	.	.	.	.
.	.	.	.	.	.	8ee-\`J	.	.	.	.	.	.	.	.	.
!LO:LB:g=original	!	!	!	!	!	!	!	!	!	!	!	!	!	!	!
=50	=50	=50	=50	=50	=50	=50	=50	=50	=50	=50	=50	=50	=50	=50	=50
*clefC4	*	*	*	*	*	*	*	*	*	*	*	*	*	*	*
!	!	!	!	!	!	!	!	!	!	!LO:TX:a:t=2	!	!	!	!	!
(8f\`L	.	8f\`L	.	8g/L	.	(8bn\L	p	0r	.	0r	.	0r	.	0r	.
!	!	!	!LO:DY:t=pia	!	!LO:DY:t=pianis	!	!	!	!	!	!	!	!	!	!
8e-\`J)	.	8e-\`J	p	8g/J	pp	8cc\J)	.	.	.	.	.	.	.	.	.
8e-\	.	8e-\`	.	8g/	.	8r	.	.	.	.	.	.	.	.	.
8r	.	8r	.	8r	.	8ee-\	.	.	.	.	.	.	.	.	.
8f\`L	.	8f\`L	.	8g/`L	.	(8b\L	.	.	.	.	.	.	.	.	.
8e-\`J	.	8e-\`J	.	8g/`J	.	8cc\J)	.	.	.	.	.	.	.	.	.
8e-\	.	8e-\`	.	8g/`	.	8r	.	.	.	.	.	.	.	.	.
8r	.	8r	.	8r	.	8ee-\	.	.	.	.	.	.	.	.	.
=51	=51	=51	=51	=51	=51	=51	=51	=51	=51	=51	=51	=51	=51	=51	=51
8f\`L	.	8f\`L	.	8g/L	.	(8bn\L	.	.	.	.	.	.	.	.	.
8e-\`J	.	8e-\`J	.	8g/J	.	8cc\J)	.	.	.	.	.	.	.	.	.
8e-\`	.	8e-\`	.	8g/	.	8r	.	.	.	.	.	.	.	.	.
8r	.	8r	.	8r	.	8ee-\	.	.	.	.	.	.	.	.	.
!	!	!	!	!	!	!LO:LB:g=original	!	!	!	!	!	!	!	!	!
8f\`L	.	8f\`L	.	8g/L	.	(8b\L	.	.	.	.	.	.	.	.	.
8e-\`J	.	8e-\`J	.	8g/J	.	8cc\J)	.	.	.	.	.	.	.	.	.
8e-\`	.	8e-\`	.	8g/	.	8r	.	.	.	.	.	.	.	.	.
8r	.	8r	.	8r	.	8ee-\	.	.	.	.	.	.	.	.	.
=52	=52	=52	=52	=52	=52	=52	=52	=52	=52	=52	=52	=52	=52	=52	=52
*clefF4	*	*tremolo	*	*tremolo	*	*	*	*	*	*	*	*	*	*	*
8F\L	f	8f\L	f	16b-/LL	f	8.dd\L	.	2b-/	.	4bb-\	.	2dd\	.	4bb-\	.
.	.	.	.	16b-/	.	.	.	.	.	.	.	.	.	.	.
8F\	.	8f\	.	16b-/	.	.	.	.	.	.	.	.	.	.	.
.	.	.	.	16b-/	.	16ff\Jk	f	.	.	.	.	.	.	.	.
8F\	.	8f\	.	16b-/	.	8.bb-\L	.	.	.	2bb-\	.	.	.	2bb-\	.
.	.	.	.	16b-/	.	.	.	.	.	.	.	.	.	.	.
8F\J	.	8f\J	.	16b-/	.	.	.	.	.	.	.	.	.	.	.
.	.	.	.	16b-/JJ	.	16b-\Jk	.	.	.	.	.	.	.	.	.
8FF/L	.	8f\L	.	16b-/LL	.	4f/	.	4ff\	.	.	.	2cc\	.	.	.
.	.	.	.	16b-/	.	.	.	.	.	.	.	.	.	.	.
8FF/	.	8f\	.	16b-/	.	.	.	.	.	.	.	.	.	.	.
.	.	.	.	16b-/JJ	.	.	.	.	.	.	.	.	.	.	.
!	!	!	!	!	!	!	!	!	!	!LO:SIC:o:s=:v:aan?	!	!	!	!LO:TX:t=t	!
8FF/	.	8f\	.	16an/LL	.	4cc\T	.	8.ff\L	.	8.aa-X\L	.	.	.	4aan\t	.
.	.	.	.	16an/	.	.	.	.	.	.	.	.	.	.	.
8FF/J	.	8fJ\	.	16an/	.	.	.	.	.	.	.	.	.	.	.
!	!	!	!	!	!	!	!	!	!	!LO:SIC:o:s=:v:aan?	!	!	!	!	!
.	.	.	.	16an/JJ	.	.	.	16ff\Jk	.	16aa-\Jk	.	.	.	.	.
*	*	*Xtremolo	*	*Xtremolo	*	*	*	*	*	*	*	*	*	*	*
!	!	!	!	!LO:LB:g=original	!	!	!	!	!	!	!	!	!	!	!
=53	=53	=53	=53	=53	=53	=53	=53	=53	=53	=53	=53	=53	=53	=53	=53
8BB-/L	p	8f\`L	.	8b-\`L	.	4b-\	.	1b-/	.	[1bb-\	.	4b-/	.	4bb-\	.
8BB-/	.	(8d\	.	(8f/	.	.	.	.	.	.	.	.	.	.	.
8BB-/	.	8e-\	.	8g/	.	4r	.	.	.	.	.	4r	.	4r	.
8BB-/J	.	8d\J)	.	8f/J)	.	.	.	.	.	.	.	.	.	.	.
8BB-/L	.	(8.e-\L	.	(8.g/L	.	(4ee-\	p	.	.	.	.	4eee-\	.	4eee-\	p
8BB-/	.	.	.	.	.	.	.	.	.	.	.	.	.	.	.
.	.	16d\K	.	16f/K)	.	.	.	.	.	.	.	.	.	.	.
8BB-/	.	8e-\	.	8.g/`	.	8.cc\L)	.	.	.	.	.	(8.ccc\L	.	8.ccc\L	.
8BB-/J	.	8c\`J)	.	.	.	.	.	.	.	.	.	.	.	.	.
.	.	.	.	16e-/`Jk	.	16an/Jk	.	.	.	.	.	16aan\Jk)	.	16aan\Jk	.
!	!	!LO:LB:g=original	!	!	!	!	!	!	!	!	!	!	!	!	!
=54	=54	=54	=54	=54	=54	=54	=54	=54	=54	=54	=54	=54	=54	=54	=54
!	!	!	!	!	!	!LO:TX:t=P:problem:rozmazany tusz	!	!	!	!	!	!	!	!	!
8BB-/L	.	8B-\L	.	8d/`L	.	4b-yy\	.	1b-/	.	1bb-\_	.	4bb-\	.	4bb-\	.
8BB-/	.	(8d\	.	(8f/	.	.	.	.	.	.	.	.	.	.	.
8BB-/	.	8f\	.	8g/	.	4r	.	.	.	.	.	4r	.	4r	.
8BB-/J	.	8d\J)	.	8f/J)	.	.	.	.	.	.	.	.	.	.	.
!	!	!	!	!	!	!LO:TX:t=P:problem:rozmazany tusz	!	!	!	!	!	!	!	!	!
8BB-/L	.	(8.f\L	.	(8.g/L	.	(4ee-yy\	.	.	.	.	.	4eee-\	.	4eee-\	.
8BB-/	.	.	.	.	.	.	.	.	.	.	.	.	.	.	.
.	.	16d\K	.	16f/K)	.	.	.	.	.	.	.	.	.	.	.
8BB-/	.	8e-\)	.	8g/`	.	8.cc\L)	.	.	.	.	.	8.ccc\L	.	(8.ccc\L	.
8BB-/J	.	8c\J	.	8e-/`J	.	.	.	.	.	.	.	.	.	.	.
.	.	.	.	.	.	16an/Jk	.	.	.	.	.	16aan\Jk	.	16aan\Jk)	.
!	!	!	!	!	!	!	!	!LO:LB:g=original	!	!	!	!LO:LB:g=original	!	!LO:LB:g=original	!
=55	=55	=55	=55	=55	=55	=55	=55	=55	=55	=55	=55	=55	=55	=55	=55
!	!	!	!	!	!	!LO:TX:t=P:problem:rozmazany tusz	!	!	!	!	!	!	!	!	!
8BB-/L	.	8B-\`L	.	8d/L	.	4b-yy\	.	2b-/	.	2bb-\]	.	4bb-\	.	4bb-\	.
8BB-/	.	(8d\	.	8f/	.	.	.	.	.	.	.	.	.	.	.
8BB-/	.	8f\	.	8g/	.	4r	.	.	.	.	.	4r	.	4r	.
8BB-/J	.	8c\J)	.	8an/J	.	.	.	.	.	.	.	.	.	.	.
!	!LO:DY:t=for	!	!	!	!	!	!	!	!	!	!	!	!	!	!
4B-\	f	4B-/	f	4b-\	f	4bb-\	.	4bb-\	.	4bb-\	.	4bb-\	.	4bb-\	.
8.G\L	.	8g\L	.	8.g/L	.	8.gg\L	.	8.gg\L	.	8.gg\L	f	8.gg\L	.	8.gg\L	f
!	!	!LO:TX:t=P:problem:rozmazany tusz	!	!	!	!	!	!	!	!	!	!	!	!	!
.	.	8e-\Jyy	.	.	.	.	.	.	.	.	.	.	.	.	.
16E-\Jk	.	.	.	16e-/Jk	.	16ee-\Jk	.	16ee-\Jk	.	16ee-\Jk	.	16ee-\Jk	.	16ee-\Jk	.
!LO:LB:g=original	!	!	!	!	!	!	!	!	!	!	!	!	!	!	!
=56	=56	=56	=56	=56	=56	=56	=56	=56	=56	=56	=56	=56	=56	=56	=56
4F\	.	4f\	.	4f/	.	4ff\	.	4ff\	.	4ff\	.	4ff\	.	4ff\	.
4FF/	.	4F/	.	4f/	.	4f/	.	4ff\	.	4ff\	.	4ff\	.	4ff\	.
4BB-/	.	4B-/	.	4B-/ 4f/ 4b-/	.	4d/ 4b-/	.	4b-/	.	4bb-\	.	4b-\	.	4b-\	.
4BB-/	.	4B-/	.	4B-/ 4f/ 4b-/	.	4B-/ 4f/ 4b-/	.	4b-/	.	4bb-\	.	4b-\	.	4b-\	.
=57	=57	=57	=57	=57	=57	=57	=57	=57	=57	=57	=57	=57	=57	=57	=57
2BB-/	.	2B-/	.	2B-/ 2f/ 2b-/	.	2B-/ 2f/ 2b-/	.	2b-/	.	2bb-\	.	2b-\	.	2b-\	.
2r	.	2r	.	2r	.	2r	.	2r	.	2r	.	2r	.	2r	.
!	!	!	!	!	!	!LO:LB:g=original	!	!	!	!	!	!	!	!	!
=58:||:	=58:||:	=58:||:	=58:||:	=58:||:	=58:||:	=58	=58	=58:||:	=58:||:	=58:||:	=58:||:	=58:||:	=58:||:	=58:||:	=58:||:
1BB-/	.	1B-/	.	1d/ 1b-/	.	1d/ 1b-/	.	1b-/	.	1b-/	.	1b-\	.	1b-\	.
=59	=59	=59	=59	=59	=59	=59	=59	=59	=59	=59	=59	=59	=59	=59	=59
2B-\	.	2b-\	.	2bb-\	.	2bb-\	.	2b-/	.	2bb-\	.	2bb-\	.	2bb-\	.
4.D\	.	4.d\	.	4.dd\	.	4.dd\	.	4.b-/	.	4.bb-\	.	4.dd\	.	4.dd\	.
8F\	.	8f\	.	8ff\	.	8ff\	.	8b-/	.	8bb-\	.	8ff\	.	8ff\	.
!	!	!	!	!LO:LB:g=original	!	!	!	!	!	!LO:LB:g=original	!	!	!	!	!
=60	=60	=60	=60	=60	=60	=60	=60	=60	=60	=60	=60	=60	=60	=60	=60
4BB-/	.	4B-/	.	4d/ 4b-/	.	4d/ 4b-/	.	4b-/	.	4bb-\	.	4b-\	.	4b-\	.
8.BB-/L	.	8.B-/L	.	8d/L 8b-/	.	8.d/L 8.b-/	.	8.b-/L	.	8.bb-\L	.	8.b-\L	.	8.b-\L	.
.	.	.	.	8d/J 8b-/	.	.	.	.	.	.	.	.	.	.	.
16BB-/Jk	.	16B-/Jk	.	.	.	16d/Jk 16b-/	.	16b-/Jk	.	16bb-\Jk	.	16b-\Jk	.	16b-\Jk	.
4BB-/	.	4B-/	.	4d/ 4b-/	.	4d/ 4b-/	.	4b-/	.	4bb-\	.	4b-\	.	4b-\	.
4BB-/	.	4B-/	.	4d/ 4b-/	.	4d/ 4b-/	.	4b-/	.	4bb-\	.	4b-\	.	4b-\	.
=61	=61	=61	=61	=61	=61	=61	=61	=61	=61	=61	=61	=61	=61	=61	=61
!LO:TX:t=P:problem:4 takty zapisane repetycją	!	!	!	!	!	!	!	!	!	!	!	!	!	!	!
4B-\	f	4b-\	.	1d/ 1b-/	.	1d/ 1b-/	.	1b-/	.	1bb-\	.	1b-\	.	1b-\	.
4An\	.	4an\	.	.	.	.	.	.	.	.	.	.	.	.	.
!	!	!LO:LB:g=original	!	!	!	!	!	!	!	!	!	!	!	!	!
4G\	.	4g\	.	.	.	.	.	.	.	.	.	.	.	.	.
8.F\L	.	8.f\L	.	.	.	.	.	.	.	.	.	.	.	.	.
16E-\Jk	.	16e-\Jk	.	.	.	.	.	.	.	.	.	.	.	.	.
=62	=62	=62	=62	=62	=62	=62	=62	=62	=62	=62	=62	=62	=62	=62	=62
(1D\	p	1f\	p	1d/ 1b-/	.	(4b-\	p	1b-/	p	[1bb-\	p	1b-\	.	(4b-\	.
.	.	.	.	.	.	4dd\	.	.	.	.	.	.	.	4dd\	.
.	.	.	.	.	p	4ff\	.	.	.	.	.	.	.	4ff\	.
.	.	.	.	.	.	4bb-\)	.	.	.	.	.	.	.	4bb-\)	.
!	!	!	!	!	!	!	!	!LO:LB:g=original	!	!	!	!LO:LB:g=original	!	!LO:LB:g=original	!
=63	=63	=63	=63	=63	=63	=63	=63	=63	=63	=63	=63	=63	=63	=63	=63
!	!	!LO:TX:b:t=rinf	!	!LO:TX:b:t=rinf.	!	!	!	!	!	!	!	!	!	!	!
!	!	!	!	!LO:TX:b:t=rinf	!	!	!	!	!	!	!	!	!	!	!
1E-\	.	2.g\	.	1b-\	.	(8bb-\L	.	1b-/	.	1bb-\]	.	2.b-\	.	(8bb-\L	.
.	.	.	.	.	.	8cc\J)	.	.	.	.	.	.	.	8b-\J)	.
.	.	.	.	.	.	2cc\	.	.	.	.	.	.	.	2cc\	.
.	.	4e-\	.	.	.	(8bb-\L	.	.	.	.	.	(8gg\L	.	8bb-\L	.
.	.	.	.	.	.	8gg\J)	.	.	.	.	.	8ee-\J)	.	8gg\J	.
=64	=64	=64	=64	=64	=64	=64	=64	=64	=64	=64	=64	=64	=64	=64	=64
1F\)	.	2.f\	p	(4.dd\	p	(4.ff\	.	2b-/	.	2bb-\	.	4.dd\	.	4.ff\	.
.	.	.	.	8ee-\)	.	8gg\)	.	.	.	.	.	8ee-\	.	8gg\	.
.	.	.	.	8dd\`L	.	8ff\'L	.	4.ff\	.	4.ff\	.	8dd\`L	.	8ff\L	.
.	.	.	.	8cc\`	.	8ee-\`	.	.	.	.	.	8cc\`	.	8ee-\	.
.	.	4e-\	.	8b-\`	.	8dd\`	.	.	.	.	.	8b-\`	.	8dd\	.
!	!	!	!	!LO:SIC:s=:v:8an	!	!	!	!	!	!	!	!	!	!	!
.	.	.	.	8a-\`J	f	8cc\`J	.	8ff\	.	8ff\	.	8an\`J	.	8cc\J	.
!LO:LB:g=original	!	!	!	!	!	!LO:LB:g=original	!	!	!	!	!	!	!	!	!
=65	=65	=65	=65	=65	=65	=65	=65	=65	=65	=65	=65	=65	=65	=65	=65
4B-\yy	f	4d\ 4b-\	.	1d/ 1b-/	.	1d/ 1b-/	f	1b-/	f	1bb-\	f	1b-\	.	1b-\	f
4An\yy	.	4an\	.	.	.	.	.	.	.	.	.	.	.	.	.
4G\yy	.	4g\	.	.	.	.	.	.	.	.	.	.	.	.	.
8.F\Lyy	.	8.f\L	.	.	.	.	.	.	.	.	.	.	.	.	.
16E-\Jkyy	.	16e-\Jk	.	.	.	.	.	.	.	.	.	.	.	.	.
=66	=66	=66	=66	=66	=66	=66	=66	=66	=66	=66	=66	=66	=66	=66	=66
!	!	!	!	!LO:TX:b:t=rinf.	!	!	!	!	!	!	!	!	!	!	!
(1D\yy	p	2f\	.	1B-/	.	(4B-/	.	[1b-/	.	[1bb-\	p	[1b-\	.	(4b-\	p
.	.	.	.	.	.	4d/	.	.	.	.	.	.	.	4dd\	.
.	.	2F/	p	.	.	4f/	.	.	.	.	.	.	.	4ff\	.
.	.	.	.	.	.	4b-/)	.	.	.	.	.	.	.	4bb-\)	.
=67	=67	=67	=67	=67	=67	=67	=67	=67	=67	=67	=67	=67	=67	=67	=67
!	!	!LO:TX:b:t=rinf	!	!	!	!	!	!	!	!	!	!	!	!	!
1E-\yy	.	2.G/	.	1B-/	.	(8b-\L	.	1b-/]	.	1bb-\]	.	2.b-\]	.	(8bb-\L	.
.	.	.	.	.	.	8c/J)	.	.	.	.	.	.	.	8cc\J)	.
.	.	.	.	.	.	2c/	.	.	.	.	.	.	.	2cc\	.
.	.	4E-/	.	.	.	(8b-\L	.	.	.	.	.	(8gg\L	.	(8bb-\L	.
.	.	.	.	.	.	8g/J)	.	.	.	.	.	8ee-\J)	.	8gg\J)	.
=68	=68	=68	=68	=68	=68	=68	=68	=68	=68	=68	=68	=68	=68	=68	=68
1F\)yy	.	2F/	p	4.d/	p	(4.f/	.	2b-/	.	2bb-\	.	4.dd\	.	4.ff\	.
.	.	.	.	8e-/	.	8g/)	.	.	.	.	.	8ee-\	.	8gg\	.
.	.	4f\	.	8d/'L	.	8f/`L	.	4.ff\	.	4.ff\	.	8dd\L	.	(8ff\L	.
.	.	.	.	8c/'	.	8e-/`	.	.	.	.	.	8cc\	.	8ee-\	.
.	.	4e-\	.	8B-/'	.	8d/`	.	.	.	.	.	8b-\	.	8dd\	.
.	.	.	.	8An/'J	.	8c/`J	.	8ff\	.	8ff\	.	8an\J	.	8cc\J)	.
=69	=69	=69	=69	=69	=69	=69	=69	=69	=69	=69	=69	=69	=69	=69	=69
*	*	*	*	*tremolo	*	*	*	*	*	*	*	*	*	*	*
4BB-/	p	4d\	p	16B-/LL	p	16B-/LL	.	1b-/	p	1ff\	p	4b-\	.	4b-/	.
.	.	.	.	16B-/	.	16B-/	.	.	.	.	.	.	.	.	.
.	.	.	.	16B-/	.	16B-/	.	.	.	.	.	.	.	.	.
.	.	.	.	16B-/JJ	.	16B-/JJ	.	.	.	.	.	.	.	.	.
4D/	.	4d\	.	16d/LL	.	16d/LL	.	.	.	.	.	4r	.	4r	.
.	.	.	.	16d/	.	16d/	.	.	.	.	.	.	.	.	.
.	.	.	.	16d/	.	16d/	.	.	.	.	.	.	.	.	.
.	.	.	.	16d/JJ	.	16d/JJ	.	.	.	.	.	.	.	.	.
4F/	.	4f\	.	16f/LL	.	16f/LL	.	.	.	.	.	2r	.	2r	.
.	.	.	.	16f/	.	16f/	.	.	.	.	.	.	.	.	.
.	.	.	.	16f/	.	16f/	.	.	.	.	.	.	.	.	.
.	.	.	.	16f/JJ	.	16f/JJ	.	.	.	.	.	.	.	.	.
4D/	.	4d\	.	16d/LL	.	16d/LL	.	.	.	.	.	.	.	.	.
.	.	.	.	16d/	.	16d/	.	.	.	.	.	.	.	.	.
.	.	.	.	16d/	.	16d/	.	.	.	.	.	.	.	.	.
.	.	.	.	16d/JJ	.	16d/JJ	.	.	.	.	.	.	.	.	.
!	!	!	!	!	!	!	!	!	!	!	!	!	!	!LO:LB:g=original	!
=70	=70	=70	=70	=70	=70	=70	=70	=70	=70	=70	=70	=70	=70	=70	=70
4BB-/	f	4B-/	f	16dd\LL	f	16ff\LL	f	4b-/	.	4ff\	f	2ff\	.	(2bb-\	.
.	.	.	.	16dd\	.	16ff\	.	.	.	.	.	.	.	.	.
.	.	.	.	16dd\	.	16ff\	.	.	.	.	.	.	.	.	.
.	.	.	.	16dd\	.	16ff\	.	.	.	.	.	.	.	.	.
4D/	.	4d\	.	16dd\	.	16ff\	.	8.b-/L	f	8.ff\L	.	.	.	.	.
.	.	.	.	16dd\	.	16ff\	.	.	.	.	.	.	.	.	.
.	.	.	.	16dd\	.	16ff\	.	.	.	.	.	.	.	.	.
.	.	.	.	16dd\JJ	.	16ff\JJ	.	16b-/Jk	.	16ff\Jk	.	.	.	.	.
!	!	!LO:TX:a:t=f	!	!	!	!	!	!	!	!	!	!	!	!	!
4F/	.	4f\	.	16dd\LL	.	16ff\LL	.	4b-/	.	4ff\	.	4dd\	.	4ff\)	.
.	.	.	.	16dd\	.	16ff\	.	.	.	.	.	.	.	.	.
.	.	.	.	16dd\	.	16ff\	.	.	.	.	.	.	.	.	.
.	.	.	.	16dd\	.	16ff\	.	.	.	.	.	.	.	.	.
4D/	.	4d\	.	16dd\	.	16ff\	.	4b-/	.	4ff\	.	4r	.	4r	.
.	.	.	.	16dd\	.	16ff\	.	.	.	.	.	.	.	.	.
.	.	.	.	16dd\	.	16ff\	.	.	.	.	.	.	.	.	.
.	.	.	.	16dd\JJ	.	16ff\JJ	.	.	.	.	.	.	.	.	.
!	!	!	!	!LO:LB:g=original	!	!	!	!	!	!	!	!LO:LB:g=original	!	!	!
=71	=71	=71	=71	=71	=71	=71	=71	=71	=71	=71	=71	=71	=71	=71	=71
!	!	!	!	!	!	!	!LO:DY:a	!	!	!	!	!	!	!	!
4BB-/	p	4B-/	p	16B-/LL	.	16B-/LL	p	1ee-\	p	1gg\	.	1r	.	1r	.
.	.	.	.	16B-/	.	16B-/	.	.	.	.	.	.	.	.	.
.	.	.	.	16B-/	.	16B-/	.	.	.	.	.	.	.	.	.
.	.	.	.	16B-/JJ	.	16B-/JJ	.	.	.	.	.	.	.	.	.
4E-/	.	4e-\	.	16e-/LL	.	16e-/LL	.	.	.	.	.	.	.	.	.
.	.	.	.	16e-/	.	16e-/	.	.	.	.	.	.	.	.	.
.	.	.	.	16e-/	.	16e-/	.	.	.	.	.	.	.	.	.
.	.	.	.	16e-/JJ	.	16e-/JJ	.	.	.	.	.	.	.	.	.
4G/	.	4g\	.	16g/LL	.	16g/LL	.	.	.	.	.	.	.	.	.
.	.	.	.	16g/	.	16g/	.	.	.	.	.	.	.	.	.
.	.	.	.	16g/	.	16g/	.	.	.	.	.	.	.	.	.
.	.	.	.	16g/JJ	.	16g/JJ	.	.	.	.	.	.	.	.	.
4E-/	.	4e-\	.	16e-/LL	.	16e-/LL	.	.	.	.	.	.	.	.	.
.	.	.	.	16e-/	.	16e-/	.	.	.	.	.	.	.	.	.
.	.	.	.	16e-/	.	16e-/	.	.	.	.	.	.	.	.	.
.	.	.	.	16e-/JJ	.	16e-/JJ	.	.	.	.	.	.	.	.	.
!	!	!LO:LB:g=original	!	!	!	!	!	!	!	!LO:LB:g=original	!	!	!	!	!
=72	=72	=72	=72	=72	=72	=72	=72	=72	=72	=72	=72	=72	=72	=72	=72
4BB-/	f	4B-/	.	16ee-\LL	f	16gg\LL	f	4ee-\	f	4gg\	.	(2gg\	.	(2bb-\	.
.	.	.	.	16ee-\	.	16gg\	.	.	.	.	.	.	.	.	.
.	.	.	.	16ee-\	.	16gg\	.	.	.	.	.	.	.	.	.
.	.	.	.	16ee-\	.	16gg\	.	.	.	.	.	.	.	.	.
4E-\	.	4e-\	f	16ee-\	.	16gg\	.	8.ee-\L	.	8.gg\L	f	.	.	.	.
.	.	.	.	16ee-\	.	16gg\	.	.	.	.	.	.	.	.	.
.	.	.	.	16ee-\	.	16gg\	.	.	.	.	.	.	.	.	.
.	.	.	.	16ee-\JJ	.	16gg\JJ	.	16ee-\Jk	.	16gg\Jk	.	.	.	.	.
4G\	.	4g\	.	16ee-\LL	.	16gg\LL	.	4ee-\	.	4gg\	.	4ee-\)	.	4gg\)	.
.	.	.	.	16ee-\	.	16gg\	.	.	.	.	.	.	.	.	.
.	.	.	.	16ee-\	.	16gg\	.	.	.	.	.	.	.	.	.
.	.	.	.	16ee-\	.	16gg\	.	.	.	.	.	.	.	.	.
4E-\	.	4e-\	.	16ee-\	.	16gg\	.	4ee-\	.	4gg\	.	4r	.	4r	.
.	.	.	.	16ee-\	.	16gg\	.	.	.	.	.	.	.	.	.
.	.	.	.	16ee-\	.	16gg\	.	.	.	.	.	.	.	.	.
.	.	.	.	16ee-\JJ	.	16gg\JJ	.	.	.	.	.	.	.	.	.
!	!	!	!	!	!	!LO:LB:g=original	!	!LO:LB:g=original	!	!	!	!	!	!	!
=73	=73	=73	=73	=73	=73	=73	=73	=73	=73	=73	=73	=73	=73	=73	=73
!	!LO:DY:t=po.	!	!	!	!	!	!	!	!	!	!	!	!	!	!
4BB-/	p	4B-/	p	16B-/LL	p	16B-/LL	.	1ff\	.	1aa-\	p	1r	.	1r	.
.	.	.	.	16B-/	.	16B-/	.	.	.	.	.	.	.	.	.
.	.	.	.	16B-/	.	16B-/	.	.	.	.	.	.	.	.	.
.	.	.	.	16B-/JJ	.	16B-/JJ	.	.	.	.	.	.	.	.	.
4F\	.	4f\	.	16f/LL	.	16f/LL	p	.	.	.	.	.	.	.	.
.	.	.	.	16f/	.	16f/	.	.	.	.	.	.	.	.	.
.	.	.	.	16f/	.	16f/	.	.	.	.	.	.	.	.	.
.	.	.	.	16f/JJ	.	16f/JJ	.	.	.	.	.	.	.	.	.
4A-\	.	4a-\	.	16a-/LL	.	16a-/LL	.	.	.	.	.	.	.	.	.
.	.	.	.	16a-/	.	16a-/	.	.	.	.	.	.	.	.	.
.	.	.	.	16a-/	.	16a-/	.	.	.	.	.	.	.	.	.
.	.	.	.	16a-/JJ	.	16a-/JJ	.	.	.	.	.	.	.	.	.
4F\	.	4f\	.	16f/LL	.	16f/LL	.	.	.	.	.	.	.	.	.
.	.	.	.	16f/	.	16f/	.	.	.	.	.	.	.	.	.
.	.	.	.	16f/	.	16f/	.	.	.	.	.	.	.	.	.
.	.	.	.	16f/JJ	.	16f/JJ	.	.	.	.	.	.	.	.	.
=74	=74	=74	=74	=74	=74	=74	=74	=74	=74	=74	=74	=74	=74	=74	=74
4BB-/	f	4B-/	f	16ff\LL	f	16aa-\LL	f	4ff\	f	4aa-\	.	(2aa-\	.	2fff\	.
.	.	.	.	16ff\	.	16aa-\	.	.	.	.	.	.	.	.	.
.	.	.	.	16ff\	.	16aa-\	.	.	.	.	.	.	.	.	.
.	.	.	.	16ff\	.	16aa-\	.	.	.	.	.	.	.	.	.
4F\	.	4f\	.	16ff\	.	16aa-\	.	8.ff\L	.	8.aa-\L	f	.	.	.	.
.	.	.	.	16ff\	.	16aa-\	.	.	.	.	.	.	.	.	.
.	.	.	.	16ff\	.	16aa-\	.	.	.	.	.	.	.	.	.
.	.	.	.	16ff\JJ	.	16aa-\JJ	.	16ff\Jk	.	16aa-\Jk	.	.	.	.	.
4A-\	.	4a-\	.	16ff\LL	.	16aa-\LL	.	4ff\	.	4aa-\	.	4ff\)	.	4ddd\	.
.	.	.	.	16ff\	.	16aa-\	.	.	.	.	.	.	.	.	.
.	.	.	.	16ff\	.	16aa-\	.	.	.	.	.	.	.	.	.
.	.	.	.	16ff\	.	16aa-\	.	.	.	.	.	.	.	.	.
4F\	.	4f\	.	16ff\	.	16aa-\	.	4ff\	.	4aa-\	.	4r	.	4r	.
.	.	.	.	16ff\	.	16aa-\	.	.	.	.	.	.	.	.	.
.	.	.	.	16ff\	.	16aa-\	.	.	.	.	.	.	.	.	.
.	.	.	.	16ff\JJ	.	16aa-\JJ	.	.	.	.	.	.	.	.	.
*	*	*	*	*	*	*Xtremolo	*	*	*	*	*	*	*	*	*
=75	=75	=75	=75	=75	=75	=75	=75	=75	=75	=75	=75	=75	=75	=75	=75
4E-\	f	4e-\	f	4gg\	.	4gg\	.	4ee-\	.	4gg\	f	4gg\	.	4eee-\	.
8.E-\L	.	8.e-\L	.	8.G/L 8.e-/	.	8.G/L 8.e-/	.	8.g/L	f	8.ee-\L	.	8.ee-\L	.	8.ee-\L	.
16E-\Jk	.	16e-\Jk	.	16G/Jk 16e-/	.	16G/Jk 16e-/	.	16g/Jk	.	16ee-\Jk	.	16ee-\Jk	.	16ee-\Jk	.
4E-\	.	4e-\	.	4G/ 4e-/	.	4G/ 4e-/	.	4g/	.	4ee-\	.	4ee-\	.	4ee-\	.
4E-\	.	4e-\	.	4G/ 4e-/	.	4G/ 4e-/	.	4g/	.	4ee-\	.	4ee-\	.	4ee-\	.
=76	=76	=76	=76	=76	=76	=76	=76	=76	=76	=76	=76	=76	=76	=76	=76
8E-\L	.	8e-\L	.	1G/ 1e-/	.	1G/ 1e-/	.	1g/	.	1ee-\	.	1ee-\	.	1ee-\	.
8e-\	.	8ee-\	.	.	.	.	.	.	.	.	.	.	.	.	.
8d\	.	8dd\	.	.	.	.	.	.	.	.	.	.	.	.	.
8c\J	.	8cc\J	.	.	.	.	.	.	.	.	.	.	.	.	.
8B-\L	.	8b-\L	.	.	.	.	.	.	.	.	.	.	.	.	.
8A-\	.	8a-\	.	.	.	.	.	.	.	.	.	.	.	.	.
8G\	.	8g\	.	.	.	.	.	.	.	.	.	.	.	.	.
8F\J	.	8f\J	.	.	.	.	.	.	.	.	.	.	.	.	.
!LO:LB:g=original	!	!	!	!	!	!	!	!	!	!	!	!	!	!	!
=77	=77	=77	=77	=77	=77	=77	=77	=77	=77	=77	=77	=77	=77	=77	=77
!	!	!	!	!	!	!	!	!	!	!LO:TX:a:t=16	!	!	!	!	!
(4E-\	p	4e-\	p	[1ee-\	p	4e-/	p	00r	.	00r	.	00r	.	00r	.
4G\	.	(4G/	.	.	.	(4B-/	.	.	.	.	.	.	.	.	.
4A-\	.	4A-/	.	.	.	4c/	.	.	.	.	.	.	.	.	.
4B-\)	.	4B-/)	.	.	.	4d-X/)	.	.	.	.	.	.	.	.	.
=78	=78	=78	=78	=78	=78	=78	=78	=78	=78	=78	=78	=78	=78	=78	=78
(2.A-\	.	(2.A-/	.	4ee-\]	.	(2.c/	.	.	.	.	.	.	.	.	.
.	.	.	.	(4ccc\	.	.	.	.	.	.	.	.	.	.	.
.	.	.	.	4aa-\	.	.	.	.	.	.	.	.	.	.	.
4G\)	.	4G/)	.	4een\)	.	4B-/)	.	.	.	.	.	.	.	.	.
=79	=79	=79	=79	=79	=79	=79	=79	=79	=79	=79	=79	=79	=79	=79	=79
(4F\	.	(4F/	.	[1ff\	.	(4An/	.	.	.	.	.	.	.	.	.
4An\	.	4An/	.	.	.	4c/	.	.	.	.	.	.	.	.	.
4B-\	.	4B-/	.	.	.	4d/	.	.	.	.	.	.	.	.	.
4c\)	.	4c/)	.	.	.	4e-/)	.	.	.	.	.	.	.	.	.
!	!	!LO:LB:g=original	!	!	!	!	!	!	!	!	!	!	!	!	!
=80	=80	=80	=80	=80	=80	=80	=80	=80	=80	=80	=80	=80	=80	=80	=80
!	!	!	!	!	!	!LO:TX:t=P:problem:rozmazany tusz	!	!	!	!	!	!	!	!	!
(2.B-\	.	2.B-/	.	4ff\]	.	2.dyy/	.	.	.	.	.	.	.	.	.
.	.	.	.	(4ddd\	.	.	.	.	.	.	.	.	.	.	.
.	.	.	.	4bb-\	.	.	.	.	.	.	.	.	.	.	.
4An\)	.	4An/	.	4ff#X\)	.	4c/	.	.	.	.	.	.	.	.	.
!	!	!	!	!LO:LB:g=original	!	!	!	!	!	!	!	!	!	!	!
=81	=81	=81	=81	=81	=81	=81	=81	=81	=81	=81	=81	=81	=81	=81	=81
!LO:TX:t=P:problem:rozmazany tusz	!	!	!	!	!	!	!	!	!	!	!	!	!	!	!
4Gyy\	.	(4G/	.	[1gg\	.	(4B-/	.	00r	.	00r	.	00r	.	00r	.
(4Bn\	.	4Bn/	.	.	.	4d/	.	.	.	.	.	.	.	.	.
4c\	.	4c/	.	.	.	4e-/	.	.	.	.	.	.	.	.	.
!LO:TX:t=P:problem:rozmazany tusz	!	!	!	!	!	!	!	!	!	!	!	!	!	!	!
4d\)yy	.	4d/)	.	.	.	4f/)	.	.	.	.	.	.	.	.	.
!	!	!	!	!	!	!LO:LB:g=original	!	!	!	!	!	!	!	!	!
=82	=82	=82	=82	=82	=82	=82	=82	=82	=82	=82	=82	=82	=82	=82	=82
!LO:TX:t=P:problem:rozmazany tusz	!	!	!	!	!	!	!	!	!	!	!	!	!	!	!
4cyy\	.	4c\	.	4gg\]	.	4e-/	.	.	.	.	.	.	.	.	.
4r	.	4r	.	4r	.	4gg\	.	.	.	.	.	.	.	.	.
2r	.	2r	.	2r	.	(4ee-\	.	.	.	.	.	.	.	.	.
.	.	.	.	.	.	4cc\)	.	.	.	.	.	.	.	.	.
=83	=83	=83	=83	=83	=83	=83	=83	=83	=83	=83	=83	=83	=83	=83	=83
0r	.	4r	.	4r	.	(1bn\	.	.	.	.	.	.	.	.	.
.	.	(4a-\	.	(4f/	.	.	.	.	.	.	.	.	.	.	.
.	.	4g\	.	4g/	.	.	.	.	.	.	.	.	.	.	.
.	.	4f\)	.	4a-/)	.	.	.	.	.	.	.	.	.	.	.
=84	=84	=84	=84	=84	=84	=84	=84	=84	=84	=84	=84	=84	=84	=84	=84
.	.	4e-\	.	4g/	.	4cc\)	.	.	.	.	.	.	.	.	.
.	.	4r	.	4r	.	(4gg\	.	.	.	.	.	.	.	.	.
.	.	2r	.	2r	.	4ee-\	.	.	.	.	.	.	.	.	.
.	.	.	.	.	.	4cc\)	.	.	.	.	.	.	.	.	.
=85	=85	=85	=85	=85	=85	=85	=85	=85	=85	=85	=85	=85	=85	=85	=85
1r	.	4r	.	4r	.	1bn\	.	00r	.	00r	.	00r	.	00r	.
.	.	4a-\	.	(4f/	.	.	.	.	.	.	.	.	.	.	.
.	.	4g\	.	4g/	.	.	.	.	.	.	.	.	.	.	.
.	.	4f\	.	4a-/)	.	.	.	.	.	.	.	.	.	.	.
=86	=86	=86	=86	=86	=86	=86	=86	=86	=86	=86	=86	=86	=86	=86	=86
!	!	!LO:SIC:o:s=:v:prawdopodobnie fortis	!LO:DY:t=Sortis	!	!	!	!	!	!	!	!	!	!	!	!
8E-\L	f	8e-\L	ff	16g/LL	.	8cc\L	.	.	.	.	.	.	.	.	.
!	!	!	!	!	!LO:DY:t=for	!	!	!	!	!	!	!	!	!	!
.	.	.	.	16cc\	f	.	.	.	.	.	.	.	.	.	.
!	!	!	!	!	!	!LO:SIC:o:s=:v:nieczytelna wysokość przednutki	!	!	!	!	!	!	!	!	!
.	.	.	.	.	.	8qqgg/	f	.	.	.	.	.	.	.	.
8C\	.	8c\	.	16cc\	.	16gg\L	.	.	.	.	.	.	.	.	.
.	.	.	.	16cc\JJ	.	16ff#X\JJ	.	.	.	.	.	.	.	.	.
8E-\	.	8e-\	.	16cc\LL	.	8gg\'L	.	.	.	.	.	.	.	.	.
.	.	.	.	16cc\	.	.	.	.	.	.	.	.	.	.	.
8G\J	.	8g\J	.	16cc\	.	8gg\'J	.	.	.	.	.	.	.	.	.
.	.	.	.	16cc\JJ	.	.	.	.	.	.	.	.	.	.	.
8C\L	.	8c\L	.	16cc\LL	.	(4gg\	.	.	.	.	.	.	.	.	.
.	.	.	.	16cc\	.	.	.	.	.	.	.	.	.	.	.
8E-\	.	8e-\	.	16cc\	.	.	.	.	.	.	.	.	.	.	.
.	.	.	.	16cc\	.	.	.	.	.	.	.	.	.	.	.
8G\	.	8g\	.	16cc\	.	4cc\)	.	.	.	.	.	.	.	.	.
.	.	.	.	16cc\	.	.	.	.	.	.	.	.	.	.	.
8C\J	.	8c\J	.	16cc\	.	.	.	.	.	.	.	.	.	.	.
.	.	.	.	16cc\JJ	.	.	.	.	.	.	.	.	.	.	.
=87	=87	=87	=87	=87	=87	=87	=87	=87	=87	=87	=87	=87	=87	=87	=87
8C\L	.	8c\L	.	16cc\LL	.	8r	.	.	.	.	.	.	.	.	.
.	.	.	.	16cc\	.	.	.	.	.	.	.	.	.	.	.
.	.	.	.	.	.	8qqaa-/	.	.	.	.	.	.	.	.	.
8En\	.	8en\	.	16cc\	.	(16gg\LL	.	.	.	.	.	.	.	.	.
.	.	.	.	16cc\	.	16ff#X\JJ)	.	.	.	.	.	.	.	.	.
8G\	.	8g\	.	16cc\	.	8gg\L	.	.	.	.	.	.	.	.	.
.	.	.	.	16cc\	.	.	.	.	.	.	.	.	.	.	.
8E\J	.	8e\J	.	16cc\	.	8ccc\J	.	.	.	.	.	.	.	.	.
.	.	.	.	16cc\JJ	.	.	.	.	.	.	.	.	.	.	.
!LO:LB:g=original	!	!	!	!	!	!	!	!	!	!	!	!	!	!	!
8C\L	.	8c\L	.	16cc\LL	.	8r	.	.	.	.	.	.	.	.	.
.	.	.	.	16cc\	.	.	.	.	.	.	.	.	.	.	.
.	.	.	.	.	.	8qaa-/	.	.	.	.	.	.	.	.	.
8En\	.	8en\	.	16cc\	.	(16gg\LL	.	.	.	.	.	.	.	.	.
.	.	.	.	16cc\	.	16ff#X\JJ)	.	.	.	.	.	.	.	.	.
8G\	.	8g\	.	16cc\	.	8gg\`L	.	.	.	.	.	.	.	.	.
.	.	.	.	16cc\	.	.	.	.	.	.	.	.	.	.	.
8C\J	.	8e\J	.	16cc\	.	8ccc\`J	.	.	.	.	.	.	.	.	.
.	.	.	.	16cc\JJ	.	.	.	.	.	.	.	.	.	.	.
!	!	!LO:LB:g=original	!	!	!	!LO:LB:g=original	!	!	!	!	!	!	!	!	!
=88	=88	=88	=88	=88	=88	=88	=88	=88	=88	=88	=88	=88	=88	=88	=88
*	*	*	*	*	*	*tremolo	*	*	*	*	*	*	*	*	*
8F\L	.	8f\L	.	16cc\LL	.	16aa-\LL	.	.	.	.	.	.	.	.	.
.	.	.	.	16cc\	.	16aa-\	.	.	.	.	.	.	.	.	.
8A-\	.	8a-\	.	16cc\	.	16aa-\	.	.	.	.	.	.	.	.	.
.	.	.	.	16cc\	.	16aa-\	.	.	.	.	.	.	.	.	.
8c\	.	8cc\	.	16cc\	.	16aa-\	.	.	.	.	.	.	.	.	.
.	.	.	.	16cc\	.	16aa-\	.	.	.	.	.	.	.	.	.
8F\J	.	8f\J	.	16cc\	.	16aa-\	.	.	.	.	.	.	.	.	.
.	.	.	.	16cc\JJ	.	16aa-\JJ	.	.	.	.	.	.	.	.	.
8E-\L	.	8e-\L	.	16cc\LL	.	16gg\LL	.	.	.	.	.	.	.	.	.
.	.	.	.	16cc\	.	16gg\	.	.	.	.	.	.	.	.	.
8G\	.	8g\	.	16cc\	.	16gg\	.	.	.	.	.	.	.	.	.
.	.	.	.	16cc\	.	16gg\	.	.	.	.	.	.	.	.	.
8c\	.	8cc\	.	16cc\	.	16gg\	.	.	.	.	.	.	.	.	.
.	.	.	.	16cc\	.	16gg\	.	.	.	.	.	.	.	.	.
8E-\J	.	8e-\J	.	16cc\	.	16gg\	.	.	.	.	.	.	.	.	.
.	.	.	.	16cc\JJ	.	16gg\JJ	.	.	.	.	.	.	.	.	.
*	*	*	*	*Xtremolo	*	*Xtremolo	*	*	*	*	*	*	*	*	*
=89	=89	=89	=89	=89	=89	=89	=89	=89	=89	=89	=89	=89	=89	=89	=89
8D\L	p	8d\L	.	1cc\	p	8ff#X\L	p	00r	.	00r	.	00r	.	00r	.
.	.	.	.	.	.	8qgg/	.	.	.	.	.	.	.	.	.
8D\	.	8d\	p	.	.	16ff#\L	.	.	.	.	.	.	.	.	.
.	.	.	.	.	.	16ee-\JJ	.	.	.	.	.	.	.	.	.
8F#X\	.	8f#X\	.	.	.	8ff#X\'L	.	.	.	.	.	.	.	.	.
8An\J	.	8an\J	.	.	.	8ff#\'J	.	.	.	.	.	.	.	.	.
8D\L	.	8d\L	.	.	.	8r	.	.	.	.	.	.	.	.	.
.	.	.	.	.	.	8qgg/	.	.	.	.	.	.	.	.	.
8F#\	.	8f#X\	.	.	.	(16ff#X\LL	.	.	.	.	.	.	.	.	.
.	.	.	.	.	.	16ee-\JJ)	.	.	.	.	.	.	.	.	.
8An\	.	8an\	.	.	.	8ff#\'L	.	.	.	.	.	.	.	.	.
8D\J	.	8d\J	.	.	.	8ff#\'J	.	.	.	.	.	.	.	.	.
=90	=90	=90	=90	=90	=90	=90	=90	=90	=90	=90	=90	=90	=90	=90	=90
!	!	!LO:TX:t=P:problem:mixed beam	!	!	!	!	!	!	!	!	!	!	!	!	!
8GG/L	f	8G/L	f	8bn\L	f	1ffn\	f	.	.	.	.	.	.	.	.
!LO:TX:t=P:problem:mixed beam	!	!	!	!	!	!	!	!	!	!	!	!	!	!	!
.	.	.	.	8qqcc/	.	.	.	.	.	.	.	.	.	.	.
8G\	.	8g\	.	16b\L	.	.	.	.	.	.	.	.	.	.	.
.	.	.	.	16a-/JJ	.	.	.	.	.	.	.	.	.	.	.
!	!	!	!	!LO:LB:g=original	!	!	!	!	!	!	!	!	!	!	!
8Bn\	.	8bn\	.	8b/L	.	.	.	.	.	.	.	.	.	.	.
8d\J	.	8dd\J	.	8b/J	.	.	.	.	.	.	.	.	.	.	.
8G\L	.	8g\L	.	8r	p	.	.	.	.	.	.	.	.	.	.
.	.	.	.	8qcc/	.	.	.	.	.	.	.	.	.	.	.
8Bn\	.	8b\	.	(16bn\LL	.	.	.	.	.	.	.	.	.	.	.
.	.	.	.	16a-/JJ)	.	.	.	.	.	.	.	.	.	.	.
8d\	.	8dd\	.	8b/`L	.	.	.	.	.	.	.	.	.	.	.
8G\J	.	8b\J	.	8b/`J	.	.	.	.	.	.	.	.	.	.	.
=91	=91	=91	=91	=91	=91	=91	=91	=91	=91	=91	=91	=91	=91	=91	=91
8C\L	.	8c\L	p	1b-X\	.	8een\L	p	.	.	.	.	.	.	.	.
.	.	.	.	.	.	8qqee/	.	.	.	.	.	.	.	.	.
8C\	.	8c\	.	.	.	16ee\L	.	.	.	.	.	.	.	.	.
.	.	.	.	.	.	16dd\JJ	.	.	.	.	.	.	.	.	.
8En\	.	8en\	.	.	.	8een\`L	.	.	.	.	.	.	.	.	.
8G\J	.	8g\J	.	.	.	8ee\`J	.	.	.	.	.	.	.	.	.
8C\L	.	8c\L	.	.	.	8r	.	.	.	.	.	.	.	.	.
8En\	.	8en\	.	.	.	(16een\LL	.	.	.	.	.	.	.	.	.
.	.	.	.	.	.	16dd\JJ)	.	.	.	.	.	.	.	.	.
8G\	.	8g\	.	.	.	8ee\`L	.	.	.	.	.	.	.	.	.
8C\J	.	8c\J	.	.	.	8ee\`J	.	.	.	.	.	.	.	.	.
!LO:LB:g=original	!	!	!	!	!	!	!	!	!	!	!	!	!	!	!
=92	=92	=92	=92	=92	=92	=92	=92	=92	=92	=92	=92	=92	=92	=92	=92
!	!	!LO:TX:t=P:problem:mixed beam	!	!	!	!	!	!	!	!	!	!	!	!	!
8FF/L	.	8F/L	.	8an/L	f	1ee-X\	f	.	.	.	.	.	.	.	.
!LO:TX:t=P:problem:mixed beam	!	!	!	!	!	!	!	!	!	!	!	!	!	!	!
.	.	.	.	8qqb-/	.	.	.	.	.	.	.	.	.	.	.
8F\	.	8f\	f	16a/L	.	.	.	.	.	.	.	.	.	.	.
.	.	.	.	16g/JJ	.	.	.	.	.	.	.	.	.	.	.
!	!LO:DY:t=for	!	!	!	!	!	!	!	!	!	!	!	!	!	!
8An\	f	8an\	.	8a/L	.	.	.	.	.	.	.	.	.	.	.
8c\J	.	8cc\J	.	8a/J	.	.	.	.	.	.	.	.	.	.	.
8F\L	.	8f\L	.	8r	.	.	.	.	.	.	.	.	.	.	.
.	.	.	.	8qqb-/	p	.	.	.	.	.	.	.	.	.	.
8An\	.	8a\	.	(16an/LL	.	.	.	.	.	.	.	.	.	.	.
.	.	.	.	16g/JJ)	.	.	.	.	.	.	.	.	.	.	.
8c\	.	8cc\	.	8a/L	.	.	.	.	.	.	.	.	.	.	.
8F\J	.	8f\J	.	8a/J	.	.	.	.	.	.	.	.	.	.	.
!	!	!LO:LB:g=original	!	!	!	!	!	!	!	!	!	!	!	!	!
=93	=93	=93	=93	=93	=93	=93	=93	=93	=93	=93	=93	=93	=93	=93	=93
1BB-/	.	1B-/	f	8a-X\L	.	8dd\L	.	1b-/	.	1ff\	.	1aa-X\	.	1aa-X\	.
.	.	.	.	8qqee-/	.	8qqgg/	.	.	.	.	.	.	.	.	.
.	.	.	.	16dd\L	.	16ff\L	.	.	.	.	.	.	.	.	.
.	.	.	.	16cc\JJ	.	16ee-\JJ	.	.	.	.	.	.	.	.	.
.	.	.	.	8dd\`L	.	8ff\`L	.	.	.	.	.	.	.	.	.
.	.	.	.	8ee-\`J	.	8gg\`J	.	.	.	.	.	.	.	.	.
.	.	.	.	8ff\L	.	8aa-X\L	.	.	.	.	.	.	.	.	.
.	.	.	.	8dd\J	.	8ff\	.	.	.	.	.	.	.	.	.
.	.	.	.	8a-X/L	.	8dd\	.	.	.	.	.	.	.	.	.
.	.	.	.	8f/J	.	8a-\J	.	.	.	.	.	.	.	.	.
!	!	!	!	!	!	!LO:LB:g=original	!	!	!	!	!	!	!	!LO:LB:g=original	!
=94	=94	=94	=94	=94	=94	=94	=94	=94	=94	=94	=94	=94	=94	=94	=94
4E-\	.	4e-\	.	4g/	.	4g/	.	4g/	f	4ee-\	f	4gg\	.	4gg\	.
8.E-\L	.	8.e-\L	.	8G/L 8e-/	.	8.G/L 8.e-/	.	8.g/L	.	8.ee-\L	.	4r	.	4r	.
.	.	.	.	8G/J 8e-/	.	.	.	.	.	.	.	.	.	.	.
16E-\Jk	.	16e-\Jk	.	.	.	16G/Jk 16e-/	.	16g/Jk	.	16ee-\Jk	.	.	.	.	.
4E-\	.	4e-\	.	4G/ 4e-/	.	4G/ 4e-/	.	4g/	.	4ee-\	.	2r	.	2r	.
4E-\	.	4e-\	.	4G/ 4e-/	.	4G/ 4e-/	.	4g/	.	4ee-\	.	.	.	.	.
=95	=95	=95	=95	=95	=95	=95	=95	=95	=95	=95	=95	=95	=95	=95	=95
!.	!	!	!LO:DY:t=pianis	!	!	!	!	!	!	!	!	!	!	!	!
4E-\	p	4e-\	pp	4e-/	p	4e-/	p	4.g/	.	4.ee-\	.	1r	.	1r	.
8.G\L	.	8.g\L	.	8.g/L	.	8.g/L	.	.	.	.	.	.	.	.	.
!	!	!	!	!	!	!	!	!	!	!LO:TX:b:t=Solo	!	!	!	!	!
.	.	.	.	.	.	.	.	8ee-\	.	8gg\	.	.	.	.	.
16E-\Jk	.	16e-\Jk	.	16e-/Jk	.	16e-/Jk	.	.	.	.	.	.	.	.	.
!	!	!	!	!LO:LB:g=original	!	!	!	!	!	!LO:LB:g=original	!	!	!	!	!
4B-\	.	4b-\	.	4b-/	.	4b-\	.	(8gg\L	.	8bb-\L	.	.	.	.	.
.	.	.	.	.	.	.	.	8ff\)	.	(8aa-\	.	.	.	.	.
4BB-/	.	4B-/	.	4B-/	.	4B-/	.	(8ee-\	.	8gg\	.	.	.	.	.
.	.	.	.	.	.	.	.	8b-\J)	.	8ff\J)	.	.	.	.	.
!	!	!	!	!	!	!	!	!LO:LB:g=original	!	!	!	!LO:LB:g=original	!	!	!
=96	=96	=96	=96	=96	=96	=96	=96	=96	=96	=96	=96	=96	=96	=96	=96
[1E-\	.	[1e-\	.	[1e-/	.	[1e-/	.	1e-/	.	[1ee-\	p	4r	.	4r	.
.	.	.	.	.	.	.	.	.	.	.	.	8.gg\L	.	(4eee-\	.
.	.	.	.	.	.	.	.	.	.	.	.	16bb-\Jk	.	.	.
.	.	.	.	.	.	.	.	.	.	.	.	4gg\	.	4bb-\)	.
.	.	.	.	.	.	.	.	.	.	.	.	8.gg\L	.	8.bb-\L	.
.	.	.	.	.	.	.	.	.	.	.	.	16gg\Jk	.	16bb-\Jk	.
=97	=97	=97	=97	=97	=97	=97	=97	=97	=97	=97	=97	=97	=97	=97	=97
1E-\]	.	1e-\]	.	1e-/]	.	1e-/]	.	1e-/	.	1ee-\]	.	4gg\	.	4bb-\	.
.	.	.	.	.	.	.	.	.	.	.	.	(8ccc\L	.	(8eee-\L	.
.	.	.	.	.	.	.	.	.	.	.	.	8aa-\J)	.	8ccc\J)	.
.	.	.	.	.	.	.	.	.	.	.	.	4gg\	.	4bb-\	.
.	.	.	.	.	.	.	.	.	.	.	.	(8aa-\L	.	(8ccc\L	.
.	.	.	.	.	.	.	.	.	.	.	.	8ff\J)	.	8aa-\J)	.
=98	=98	=98	=98	=98	=98	=98	=98	=98	=98	=98	=98	=98	=98	=98	=98
4E-\	.	4e-\	.	4e-/	.	4e-/	.	4.g/	f	4.ee-\	.	4ee-\	.	4gg\	.
8.G\L	.	8.g\L	.	8.g/L	.	8.g/L	.	.	.	.	.	4r	.	4r	.
.	.	.	.	.	.	.	.	8ee-\	.	8gg\	.	.	.	.	.
16E-\Jk	.	16e-\Jk	.	16e-/Jk	.	16e-/Jk	.	.	.	.	.	.	.	.	.
4B-\	.	4b-\	.	4b-/	.	4b-\	.	(8gg\L	.	(8bb-\L	.	2r	.	2r	.
.	.	.	.	.	.	.	.	8ff\	.	8aa-\)	.	.	.	.	.
4BB-/	.	4B-/	.	4d/	.	4B-/	.	8ee-\	.	(8gg\	.	.	.	.	.
.	.	.	.	.	.	.	.	8b-\J)	.	8ff\J)	.	.	.	.	.
=99	=99	=99	=99	=99	=99	=99	=99	=99	=99	=99	=99	=99	=99	=99	=99
!	!	!	!	!	!	!	!	!	!	!	!LO:DY:t=pianis	!	!	!	!
[1E-\	.	[1e-\	.	1e-/	.	[1e-/	.	1e-/	p	1ee-\	pp	4r	.	4r	.
.	.	.	.	.	.	.	.	.	.	.	.	(8.gg\L	.	(4eee-\	.
.	.	.	.	.	.	.	.	.	.	.	.	16bb-\Jk)	.	.	.
.	.	.	.	.	.	.	.	.	.	.	.	4gg\	.	4bb-\)	.
.	.	.	.	.	.	.	.	.	.	.	.	8.gg\L	.	8.bb-\L	.
.	.	.	.	.	.	.	.	.	.	.	.	16gg\Jk	.	16bb-\Jk	.
!LO:LB:g=original	!	!	!	!	!	!	!	!	!	!	!	!	!	!	!
=100	=100	=100	=100	=100	=100	=100	=100	=100	=100	=100	=100	=100	=100	=100	=100
!LO:TX:t=P:problem:ligatura nie zaznaczona w kolejnym systemie	!	!	!	!	!	!	!	!	!	!	!	!	!	!	!
1E-\]	.	1e-\_	.	1e-/	.	1e-/]	.	1e-/	.	1ee-\	.	4gg\	.	4bb-\	.
.	.	.	.	.	.	.	.	.	.	.	.	(8ccc\L	.	(8eee-\L	.
.	.	.	.	.	.	.	.	.	.	.	.	8aa-\J)	.	8ccc\J)	.
!	!	!	!	!	!	!	!	!	!	!	!	!	!	!LO:LB:g=original	!
.	.	.	.	.	.	.	.	.	.	.	.	4gg\	.	4bb-\	.
.	.	.	.	.	.	.	.	.	.	.	.	(8aa-\L	.	(8ccc\L	.
.	.	.	.	.	.	.	.	.	.	.	.	8ff\J)	.	8aa-\J)	.
!	!	!	!	!	!	!	!	!	!	!	!	!LO:LB:g=original	!	!	!
=101	=101	=101	=101	=101	=101	=101	=101	=101	=101	=101	=101	=101	=101	=101	=101
4E-\	.	4e-\]	.	4e-/	.	4e-/	.	4e-/	.	4ee-\	.	4ee-\	.	4gg\	p
!	!	!	!	!	!	!	!	!	!	!	!	!	!	!LO:SIC:o:s=:v:fala nad dźwiękami	!
4r	.	4r	.	4r	.	4r	.	4r	.	4r	.	4gg\	.	4eee-\	.
2r	.	2r	.	2r	.	2r	.	2r	.	2r	.	4gg\	.	4eee-\	.
.	.	.	.	.	.	.	.	.	.	.	.	4gg\	.	4eee-\	.
=102	=102	=102	=102	=102	=102	=102	=102	=102	=102	=102	=102	=102	=102	=102	=102
*	*	*	*	*tremolo	*	*tremolo	*	*	*	*	*	*	*	*	*
!	!	!	!	!	!	!	!	!	!	!	!	!LO:TX:t=P:problem:ligatury nad dźwiękami a nie pomiędzy	!	!	!
4GG/	p	4G/	.	16G/LL	.	16G/LL	p	1ee-\	p	[1gg\	.	[1gg\	.	[1eee-\	.
.	.	.	.	16G/	.	16G/	.	.	.	.	.	.	.	.	.
.	.	.	.	16G/	.	16G/	.	.	.	.	.	.	.	.	.
.	.	.	.	16G/JJ	.	16G/JJ	.	.	.	.	.	.	.	.	.
!LO:TX:t=P:problem:rozmazany tusz	!	!	!	!	!	!	!	!	!	!	!	!	!	!	!
4E-yy\	.	4e-\	.	16e-/LL	.	16e-/LL	.	.	.	.	.	.	.	.	.
.	.	.	.	16e-/	.	16e-/	.	.	.	.	.	.	.	.	.
.	.	.	.	16e-/	.	16e-/	.	.	.	.	.	.	.	.	.
.	.	.	.	16e-/JJ	.	16e-/JJ	.	.	.	.	.	.	.	.	.
!LO:TX:t=P:problem:rozmazany tusz	!	!	!	!	!	!	!	!	!	!	!	!	!	!	!
4AA-yy/	.	4A-/	.	16A-/LL	.	16A-/LL	.	.	.	.	.	.	.	.	.
.	.	.	.	16A-/	.	16A-/	.	.	.	.	.	.	.	.	.
.	.	.	.	16A-/	.	16A-/	.	.	.	.	.	.	.	.	.
.	.	.	.	16A-/JJ	.	16A-/JJ	.	.	.	.	.	.	.	.	.
4E-/	.	4e-\	.	16e-/LL	.	16e-/LL	.	.	.	.	.	.	.	.	.
.	.	.	.	16e-/	.	16e-/	.	.	.	.	.	.	.	.	.
.	.	.	.	16e-/	.	16e-/	.	.	.	.	.	.	.	.	.
.	.	.	.	16e-/JJ	.	16e-/JJ	.	.	.	.	.	.	.	.	.
!	!	!LO:LB:g=original	!	!	!	!	!	!	!	!	!	!	!	!	!
=103	=103	=103	=103	=103	=103	=103	=103	=103	=103	=103	=103	=103	=103	=103	=103
4BB-/	.	4B-\	.	16B-/LL	.	16B-/LL	.	1ee-\	.	1gg\_	.	1gg\_	.	1eee-\]	.
.	.	.	.	16B-/	.	16B-/	.	.	.	.	.	.	.	.	.
.	.	.	.	16B-/	.	16B-/	.	.	.	.	.	.	.	.	.
.	.	.	.	16B-/JJ	.	16B-/JJ	.	.	.	.	.	.	.	.	.
4E-/	.	4e-\	.	16e-/LL	.	16e-/LL	.	.	.	.	.	.	.	.	.
.	.	.	.	16e-/	.	16e-/	.	.	.	.	.	.	.	.	.
.	.	.	.	16e-/	.	16e-/	.	.	.	.	.	.	.	.	.
.	.	.	.	16e-/JJ	.	16e-/JJ	.	.	.	.	.	.	.	.	.
4C/	.	4c\	.	16c/LL	.	16c/LL	.	.	.	.	.	.	.	.	.
.	.	.	.	16c/	.	16c/	.	.	.	.	.	.	.	.	.
.	.	.	.	16c/	.	16c/	.	.	.	.	.	.	.	.	.
.	.	.	.	16c/JJ	.	16c/JJ	.	.	.	.	.	.	.	.	.
4E-/	.	4e-\	.	16e-/LL	.	16e-/LL	.	.	.	.	.	.	.	.	.
.	.	.	.	16e-/	.	16e-/	.	.	.	.	.	.	.	.	.
.	.	.	.	16e-/	.	16e-/	.	.	.	.	.	.	.	.	.
.	.	.	.	16e-/JJ	.	16e-/JJ	.	.	.	.	.	.	.	.	.
!	!	!	!	!	!	!LO:PB:g=original	!	!	!	!	!	!	!	!	!
=104	=104	=104	=104	=104	=104	=104	=104	=104	=104	=104	=104	=104	=104	=104	=104
4GG/	.	4G/	.	16G/LL	.	16G/LL	.	1ee-\	.	1gg\_	.	1gg\_	.	[1eee-\	.
.	.	.	.	16G/	.	16G/	.	.	.	.	.	.	.	.	.
.	.	.	.	16G/	.	16G/	.	.	.	.	.	.	.	.	.
.	.	.	.	16G/JJ	.	16G/JJ	.	.	.	.	.	.	.	.	.
4E-/	.	4e-\	.	16e-/LL	<	16e-/LL	.	.	.	.	.	.	.	.	.
.	.	.	.	16e-/	.	16e-/	.	.	.	.	.	.	.	.	.
.	.	.	.	16e-/	.	16e-/	.	.	.	.	.	.	.	.	.
.	.	.	.	16e-/JJ	.	16e-/JJ	.	.	.	.	.	.	.	.	.
4AA-/	.	4A-/	.	16A-/LL	.	16A-/LL	.	.	.	.	.	.	.	.	.
.	.	.	.	16A-/	.	16A-/	.	.	.	.	.	.	.	.	.
.	.	.	.	16A-/	.	16A-/	.	.	.	.	.	.	.	.	.
.	.	.	.	16A-/JJ	.	16A-/JJ	.	.	.	.	.	.	.	.	.
4E-/	.	4e-\	.	16e-/LL	.	16e-/LL	.	.	.	.	.	.	.	.	.
.	.	.	.	16e-/	.	16e-/	.	.	.	.	.	.	.	.	.
.	.	.	.	16e-/	.	16e-/	.	.	.	.	.	.	.	.	.
.	.	.	.	16e-/JJ	.	16e-/JJ	.	.	.	.	.	.	.	.	.
!	!	!	!	!LO:LB:g=original	!	!	!	!	!	!	!	!	!	!	!
=105	=105	=105	=105	=105	=105	=105	=105	=105	=105	=105	=105	=105	=105	=105	=105
4BB-/	.	4B-/	<	16B-/LL	.	16B-/LL	.	1ee-\	<	1gg\_	.	1gg\_	.	1eee-\]	.
.	.	.	.	16B-/	.	16B-/	.	.	.	.	.	.	.	.	.
.	.	.	.	16B-/	.	16B-/	.	.	.	.	.	.	.	.	.
.	.	.	.	16B-/JJ	.	16B-/JJ	.	.	.	.	.	.	.	.	.
4E-/	.	4e-\	.	16e-/LL	.	16e-/LL	.	.	.	.	.	.	.	.	.
.	.	.	.	16e-/	.	16e-/	.	.	.	.	.	.	.	.	.
.	.	.	.	16e-/	.	16e-/	.	.	.	.	.	.	.	.	.
.	.	.	.	16e-/JJ	.	16e-/JJ	.	.	.	.	.	.	.	.	.
4C/	<	4c\	.	16c/LL	.	16c/LL	.	.	.	.	.	.	.	.	.
.	.	.	.	16c/	.	16c/	.	.	.	.	.	.	.	.	.
.	.	.	.	16c/	.	16c/	.	.	.	.	.	.	.	.	.
.	.	.	.	16c/JJ	.	16c/JJ	.	.	.	.	.	.	.	.	.
4E-/	.	4e-\	.	16e-/LL	.	16e-/LL	.	.	.	.	.	.	.	.	.
.	.	.	.	16e-/	.	16e-/	.	.	.	.	.	.	.	.	.
.	.	.	.	16e-/	.	16e-/	.	.	.	.	.	.	.	.	.
.	.	.	.	16e-/JJ	.	16e-/JJ	.	.	.	.	.	.	.	.	.
=106	=106	=106	=106	=106	=106	=106	=106	=106	=106	=106	=106	=106	=106	=106	=106
4GG/	.	4G/	.	16G/LL	.	16G/LL	.	1ee-\	.	1gg\_	.	1gg\_	.	1eee-\	.
.	.	.	.	16G/	.	16G/	.	.	.	.	.	.	.	.	.
.	.	.	.	16G/	.	16G/	.	.	.	.	.	.	.	.	.
.	.	.	.	16G/JJ	.	16G/JJ	.	.	.	.	.	.	.	.	.
4E-/	.	4e-\	.	16e-/LL	.	16e-/LL	.	.	.	.	.	.	.	.	.
.	.	.	.	16e-/	.	16e-/	.	.	.	.	.	.	.	.	.
.	.	.	.	16e-/	.	16e-/	.	.	.	.	.	.	.	.	.
.	.	.	.	16e-/JJ	.	16e-/JJ	.	.	.	.	.	.	.	.	.
4AA-/	.	4A-/	.	16A-/LL	.	16A-/LL	.	.	.	.	.	.	.	.	.
.	.	.	.	16A-/	.	16A-/	.	.	.	.	.	.	.	.	.
.	.	.	.	16A-/	.	16A-/	.	.	.	.	.	.	.	.	.
.	.	.	.	16A-/JJ	.	16A-/JJ	.	.	.	.	.	.	.	.	.
4E-/	.	4e-\	.	16e-/LL	.	16e-/LL	.	.	.	.	.	.	.	.	.
.	.	.	.	16e-/	.	16e-/	.	.	.	.	.	.	.	.	.
.	.	.	.	16e-/	.	16e-/	.	.	.	.	.	.	.	.	.
.	.	.	.	16e-/JJ	.	16e-/JJ	.	.	.	.	.	.	.	.	.
!	!	!	!	!	!	!	!	!	!	!LO:LB:g=original	!	!	!	!	!
=107	=107	=107	=107	=107	=107	=107	=107	=107	=107	=107	=107	=107	=107	=107	=107
!	!LO:DY:t=for	!	!	!	!	!	!	!	!	!	!	!	!	!	!
4BB-/	f	4B-/	f	16B-/LL	.	16B-/LL	.	1ee-\	f	1gg\]	.	2.gg\]	.	2.eee-\	.
.	.	.	.	16B-/	.	16B-/	.	.	.	.	.	.	.	.	.
.	.	.	.	16B-/	.	16B-/	.	.	.	.	.	.	.	.	.
.	.	.	.	16B-/JJ	.	16B-/JJ	.	.	.	.	.	.	.	.	.
!LO:TX:t=P:problem:rozmazany tusz	!	!	!	!	!	!	!LO:DY:a	!	!	!	!	!	!	!	!
4E-yy\	.	4e-/	.	16e-/LL	f	16e-/LL	f	.	.	.	.	.	.	.	.
.	.	.	.	16e-/	.	16e-/	.	.	.	.	.	.	.	.	.
.	.	.	.	16e-/	.	16e-/	.	.	.	.	.	.	.	.	.
.	.	.	.	16e-/JJ	.	16e-/JJ	.	.	.	.	.	.	.	.	.
!LO:TX:t=P:problem:rozmazany tusz	!	!	!	!	!	!	!	!	!	!	!	!	!	!	!
4Cyy/	.	4c/	.	16c/LL	.	16c/LL	.	.	.	.	.	.	.	.	.
.	.	.	.	16c/	.	16c/	.	.	.	.	.	.	.	.	.
.	.	.	.	16c/	.	16c/	.	.	.	.	.	.	.	.	.
.	.	.	.	16c/JJ	.	16c/JJ	.	.	.	.	.	.	.	.	.
4AAn/	.	4An/	.	16An/LL	.	16An/LL	.	.	.	.	.	4aan\	.	4aan\	.
.	.	.	.	16An/	.	16An/	.	.	.	.	.	.	.	.	.
.	.	.	.	16An/	.	16An/	.	.	.	.	.	.	.	.	.
.	.	.	.	16An/JJ	.	16An/JJ	.	.	.	.	.	.	.	.	.
=108	=108	=108	=108	=108	=108	=108	=108	=108	=108	=108	=108	=108	=108	=108	=108
!	!	!	!	!LO:TX:t=P:problem:mixed beam	!	!	!	!	!	!	!	!	!	!	!
2BB-/	.	2B-/	.	16B-/LL	.	2B-/	.	2b-/	.	2ff\	f	2bb-\	.	2bb-\	.
.	.	.	.	16b-\	.	.	.	.	.	.	.	.	.	.	.
.	.	.	.	16b-\	p	.	.	.	.	.	.	.	.	.	.
.	.	.	.	16b-\JJ	.	.	.	.	.	.	.	.	.	.	.
.	.	.	.	16b-\LL	.	.	.	.	.	.	.	.	.	.	.
.	.	.	.	16b-\	.	.	.	.	.	.	.	.	.	.	.
.	.	.	.	16b-\	.	.	.	.	.	.	.	.	.	.	.
.	.	.	.	16b-\JJ	.	.	.	.	.	.	.	.	.	.	.
2r	.	2r	.	16b-\LL	.	2r	.	2r	.	2r	.	2r	.	2r	.
.	.	.	.	16b-\	.	.	.	.	.	.	.	.	.	.	.
.	.	.	.	16b-\	.	.	.	.	.	.	.	.	.	.	.
.	.	.	.	16b-\	.	.	.	.	.	.	.	.	.	.	.
.	.	.	.	16b-\	.	.	.	.	.	.	.	.	.	.	.
.	.	.	.	16b-\	.	.	.	.	.	.	.	.	.	.	.
.	.	.	.	16b-\	.	.	.	.	.	.	.	.	.	.	.
.	.	.	.	16b-\JJ	.	.	.	.	.	.	.	.	.	.	.
!LO:LB:g=original	!	!	!	!	!	!	!	!LO:LB:g=original	!	!	!	!	!	!	!
=109	=109	=109	=109	=109	=109	=109	=109	=109	=109	=109	=109	=109	=109	=109	=109
!	!	!LO:TX:a:t=2	!	!	!	!	!LO:DY:a	!LO:TX:a:t=2	!	!LO:TX:a:t=2	!	!	!	!	!
8BB-/`L	.	0r	.	16b-\LL	.	8d/`L	p	0r	.	0r	.	1r	.	1r	.
.	.	.	.	16b-\	.	.	.	.	.	.	.	.	.	.	.
8C/`	p	.	.	16b-\	.	8e-/`	.	.	.	.	.	.	.	.	.
.	.	.	.	16b-\	.	.	.	.	.	.	.	.	.	.	.
8D\`	.	.	.	16b-\	.	8f/`	.	.	.	.	.	.	.	.	.
.	.	.	.	16b-\	.	.	.	.	.	.	.	.	.	.	.
8E-\`J	.	.	.	16b-\	.	8g/`J	.	.	.	.	.	.	.	.	.
.	.	.	.	16b-\JJ	.	.	.	.	.	.	.	.	.	.	.
4F\	.	.	.	16b-\LL	.	4a-/	.	.	.	.	.	.	.	.	.
.	.	.	.	16b-\	.	.	.	.	.	.	.	.	.	.	.
.	.	.	.	16b-\	.	.	.	.	.	.	.	.	.	.	.
.	.	.	.	16b-\	.	.	.	.	.	.	.	.	.	.	.
4r	.	.	.	16b-\	.	4r	.	.	.	.	.	.	.	.	.
.	.	.	.	16b-\	.	.	.	.	.	.	.	.	.	.	.
.	.	.	.	16b-\	.	.	.	.	.	.	.	.	.	.	.
.	.	.	.	16b-\JJ	.	.	.	.	.	.	.	.	.	.	.
=110	=110	=110	=110	=110	=110	=110	=110	=110	=110	=110	=110	=110	=110	=110	=110
!	!	!	!	!	!	!LO:TX:a:t=3	!	!	!	!	!	!	!	!	!
0r	.	.	.	16b-\LL	.	0r	.	.	.	.	.	8b-\`L	.	8dd\`L	p
.	.	.	.	16b-\	.	.	.	.	.	.	.	.	.	.	.
.	.	.	.	16b-\	.	.	.	.	.	.	.	8cc\`	.	8ee-\`	.
.	.	.	.	16b-\	.	.	.	.	.	.	.	.	.	.	.
.	.	.	.	16b-\	.	.	.	.	.	.	.	8dd\`	.	8ff\`	.
.	.	.	.	16b-\	.	.	.	.	.	.	.	.	.	.	.
.	.	.	.	16b-\	.	.	.	.	.	.	.	8ee-\`J	.	8gg\`J	.
.	.	.	.	16b-\JJ	.	.	.	.	.	.	.	.	.	.	.
.	.	.	.	16b-\LL	.	.	.	.	.	.	.	4ff\	.	4aa-\`	.
.	.	.	.	16b-\	.	.	.	.	.	.	.	.	.	.	.
.	.	.	.	16b-\	.	.	.	.	.	.	.	.	.	.	.
.	.	.	.	16b-\	.	.	.	.	.	.	.	.	.	.	.
.	.	.	.	16b-\	.	.	.	.	.	.	.	4r	.	4r	.
.	.	.	.	16b-\	.	.	.	.	.	.	.	.	.	.	.
.	.	.	.	16b-\	.	.	.	.	.	.	.	.	.	.	.
.	.	.	.	16b-\JJ	.	.	.	.	.	.	.	.	.	.	.
!	!	!	!	!	!	!	!	!	!	!	!	!	!	!LO:LB:g=original	!
=111	=111	=111	=111	=111	=111	=111	=111	=111	=111	=111	=111	=111	=111	=111	=111
!	!	!	!	!	!	!	!	!	!	!	!	!LO:TX:a:t=3	!	!	!
.	.	2r	.	16b-\LL	.	.	.	2.gg\	.	2.bb-\	p	0r	.	0r	.
.	.	.	.	16b-\	.	.	.	.	.	.	.	.	.	.	.
.	.	.	.	16b-\	.	.	.	.	.	.	.	.	.	.	.
.	.	.	.	16b-\	.	.	.	.	.	.	.	.	.	.	.
.	.	.	.	16b-\	.	.	.	.	.	.	.	.	.	.	.
.	.	.	.	16b-\	.	.	.	.	.	.	.	.	.	.	.
.	.	.	.	16b-\	.	.	.	.	.	.	.	.	.	.	.
.	.	.	.	16b-\JJ	.	.	.	.	.	.	.	.	.	.	.
!	!	!LO:TX:b:i:t=poco	!	!	!	!	!	!	!	!	!	!	!	!	!
.	.	8e-\`L	.	16b-\LL	.	.	.	.	.	.	.	.	.	.	.
.	.	.	.	16b-\	.	.	.	.	.	.	.	.	.	.	.
.	.	8f\`	.	16b-\	.	.	.	.	.	.	.	.	.	.	.
.	.	.	.	16b-\	.	.	.	.	.	.	.	.	.	.	.
.	.	.	.	.	.	.	.	.	.	8qqbb-/	.	.	.	.	.
.	.	8g\`	.	16b-\	.	.	.	8.ff\L	p	8.aa-\L	.	.	.	.	.
.	.	.	.	16b-\	.	.	.	.	.	.	.	.	.	.	.
.	.	8a-\`J	f	16b-\	.	.	.	.	.	.	.	.	.	.	.
.	.	.	.	16b-\JJ	.	.	.	16ee-\Jk	.	16gg\Jk	.	.	.	.	.
!	!	!	!	!LO:LB:g=original	!	!	!	!	!	!	!	!	!	!	!
=112	=112	=112	=112	=112	=112	=112	=112	=112	=112	=112	=112	=112	=112	=112	=112
!	!	!LO:TX:t=P:problem:mixed beam	!	!	!	!	!	!	!	!	!	!	!	!	!
1r	.	8b-\L	.	16b-\LL	.	1r	.	2ee-\	.	(2gg\	.	.	.	.	.
.	.	.	.	16b-\	.	.	.	.	.	.	.	.	.	.	.
!	!	!	!LO:DY:a	!	!	!	!	!	!	!	!	!	!	!	!
.	.	8B-/	p	16b-\	.	.	.	.	.	.	.	.	.	.	.
.	.	.	.	16b-\	.	.	.	.	.	.	.	.	.	.	.
.	.	8b-\	.	16b-\	.	.	.	.	.	.	.	.	.	.	.
.	.	.	.	16b-\	.	.	.	.	.	.	.	.	.	.	.
.	.	8B-/J	.	16b-\	.	.	.	.	.	.	.	.	.	.	.
.	.	.	.	16b-\JJ	.	.	.	.	.	.	.	.	.	.	.
.	.	4b-\	.	16b-\LL	.	.	.	4b-/	.	4ff\)	.	.	.	.	.
.	.	.	.	16b-\	.	.	.	.	.	.	.	.	.	.	.
.	.	.	.	16b-\	.	.	.	.	.	.	.	.	.	.	.
.	.	.	.	16b-\	.	.	.	.	.	.	.	.	.	.	.
.	.	4r	.	16b-\	.	.	.	4r	.	4r	.	.	.	.	.
.	.	.	.	16b-\	.	.	.	.	.	.	.	.	.	.	.
.	.	.	.	16b-\	.	.	.	.	.	.	.	.	.	.	.
.	.	.	.	16b-\JJ	.	.	.	.	.	.	.	.	.	.	.
!	!	!LO:LB:g=original	!	!	!	!	!	!	!	!	!	!	!	!	!
=113	=113	=113	=113	=113	=113	=113	=113	=113	=113	=113	=113	=113	=113	=113	=113
!	!	!LO:TX:a:t=2	!	!	!	!	!	!LO:TX:a:t=2	!	!LO:TX:a:t=2	!	!	!	!	!
8BB-/`L	p	0r	.	16b-\LL	.	8d/`L	.	0r	.	0r	.	1r	.	1r	.
.	.	.	.	16b-\	.	.	.	.	.	.	.	.	.	.	.
8C/`	.	.	.	16b-\	.	8e-/`	.	.	.	.	.	.	.	.	.
.	.	.	.	16b-\	.	.	.	.	.	.	.	.	.	.	.
8D\`	.	.	.	16b-\	.	8f/`	.	.	.	.	.	.	.	.	.
.	.	.	.	16b-\	.	.	.	.	.	.	.	.	.	.	.
8E-\`J	.	.	.	16b-\	.	8g/`J	.	.	.	.	.	.	.	.	.
.	.	.	.	16b-\JJ	.	.	.	.	.	.	.	.	.	.	.
4F\	.	.	.	16b-\LL	.	4a-/	.	.	.	.	.	.	.	.	.
.	.	.	.	16b-\	.	.	.	.	.	.	.	.	.	.	.
.	.	.	.	16b-\	.	.	.	.	.	.	.	.	.	.	.
.	.	.	.	16b-\	.	.	.	.	.	.	.	.	.	.	.
4r	.	.	.	16b-\	.	4r	.	.	.	.	.	.	.	.	.
.	.	.	.	16b-\	.	.	.	.	.	.	.	.	.	.	.
.	.	.	.	16b-\	.	.	.	.	.	.	.	.	.	.	.
.	.	.	.	16b-\JJ	.	.	.	.	.	.	.	.	.	.	.
=114	=114	=114	=114	=114	=114	=114	=114	=114	=114	=114	=114	=114	=114	=114	=114
!LO:TX:a:t=3	!	!	!	!	!	!LO:TX:a:t=3	!	!	!	!	!	!	!	!	!
0r	.	.	.	16b-\LL	.	0r	.	.	.	.	.	8b-\`L	.	8dd\`L	.
.	.	.	.	16b-\	.	.	.	.	.	.	.	.	.	.	.
.	.	.	.	16b-\	.	.	.	.	.	.	.	8cc\`	.	8ee-\`	.
.	.	.	.	16b-\	.	.	.	.	.	.	.	.	.	.	.
.	.	.	.	16b-\	.	.	.	.	.	.	.	8dd\`	.	8ff\`	.
.	.	.	.	16b-\	.	.	.	.	.	.	.	.	.	.	.
.	.	.	.	16b-\	.	.	.	.	.	.	.	8ee-\`J	.	8gg\`J	.
.	.	.	.	16b-\JJ	.	.	.	.	.	.	.	.	.	.	.
.	.	.	.	16b-\LL	.	.	.	.	.	.	.	4ff\	.	4aa-\	.
.	.	.	.	16b-\	.	.	.	.	.	.	.	.	.	.	.
.	.	.	.	16b-\	.	.	.	.	.	.	.	.	.	.	.
.	.	.	.	16b-\	.	.	.	.	.	.	.	.	.	.	.
.	.	.	.	16b-\	.	.	.	.	.	.	.	4r	.	4r	.
.	.	.	.	16b-\	.	.	.	.	.	.	.	.	.	.	.
.	.	.	.	16b-\	.	.	.	.	.	.	.	.	.	.	.
.	.	.	.	16b-\JJ	.	.	.	.	.	.	.	.	.	.	.
!	!	!	!	!	!	!	!	!	!	!	!	!LO:LB:g=original	!	!	!
=115	=115	=115	=115	=115	=115	=115	=115	=115	=115	=115	=115	=115	=115	=115	=115
!	!	!	!	!	!	!	!	!	!	!	!	!LO:TX:a:t=2	!	!	!
.	.	2r	.	16b-\LL	.	.	.	2.gg\	.	2.bb-\	p	0r	.	0r	.
.	.	.	.	16b-\	.	.	.	.	.	.	.	.	.	.	.
.	.	.	.	16b-\	.	.	.	.	.	.	.	.	.	.	.
.	.	.	.	16b-\	.	.	.	.	.	.	.	.	.	.	.
.	.	.	.	16b-\	.	.	.	.	.	.	.	.	.	.	.
.	.	.	.	16b-\	.	.	.	.	.	.	.	.	.	.	.
.	.	.	.	16b-\	.	.	.	.	.	.	.	.	.	.	.
.	.	.	.	16b-\JJ	.	.	.	.	.	.	.	.	.	.	.
!	!	!LO:TX:b:i:t=poco	!	!	!	!	!	!	!	!	!	!	!	!	!
.	.	8e-\`L	.	16b-\LL	.	.	.	.	.	.	.	.	.	.	.
.	.	.	.	16b-\	.	.	.	.	.	.	.	.	.	.	.
.	.	8f\`	.	16b-\	.	.	.	.	.	.	.	.	.	.	.
.	.	.	.	16b-\	.	.	.	.	.	.	.	.	.	.	.
.	.	.	.	.	.	.	.	.	.	8qqbb-/	.	.	.	.	.
.	.	8g\`	.	16b-\	.	.	.	8.ff\L	.	8.aa-\L	.	.	.	.	.
.	.	.	.	16b-\	.	.	.	.	.	.	.	.	.	.	.
.	.	8a-\`J	f	16b-\	.	.	.	.	.	.	.	.	.	.	.
.	.	.	.	16b-\JJ	.	.	.	16ee-\Jk	.	16gg\Jk	.	.	.	.	.
=116	=116	=116	=116	=116	=116	=116	=116	=116	=116	=116	=116	=116	=116	=116	=116
!	!	!LO:TX:t=P:problem:mixed beam	!	!	!	!	!	!	!	!	!	!	!	!	!
1r	.	8b-\L	.	16b-\LL	.	1r	.	2ee-\	.	2gg\	.	.	.	.	.
.	.	.	.	16b-\	.	.	.	.	.	.	.	.	.	.	.
!	!	!	!LO:DY:a	!	!	!	!	!	!	!	!	!	!	!	!
.	.	8B-/	p	16b-\	.	.	.	.	.	.	.	.	.	.	.
.	.	.	.	16b-\	.	.	.	.	.	.	.	.	.	.	.
.	.	8b-\	.	16b-\	.	.	.	.	.	.	.	.	.	.	.
.	.	.	.	16b-\	.	.	.	.	.	.	.	.	.	.	.
.	.	8B-/J	.	16b-\	.	.	.	.	.	.	.	.	.	.	.
.	.	.	.	16b-\JJ	.	.	.	.	.	.	.	.	.	.	.
.	.	4b-\	.	16b-\LL	.	.	.	4b-/	.	4ff\	.	.	.	.	.
.	.	.	.	16b-\	.	.	.	.	.	.	.	.	.	.	.
.	.	.	.	16b-\	.	.	.	.	.	.	.	.	.	.	.
.	.	.	.	16b-\	.	.	.	.	.	.	.	.	.	.	.
.	.	4r	.	16b-\	.	.	.	4r	.	4r	.	.	.	.	.
.	.	.	.	16b-\	.	.	.	.	.	.	.	.	.	.	.
.	.	.	.	16b-\	.	.	.	.	.	.	.	.	.	.	.
.	.	.	.	16b-\JJ	.	.	.	.	.	.	.	.	.	.	.
!	!	!	!	!	!	!LO:LB:g=original	!	!	!	!	!	!	!	!	!
=117	=117	=117	=117	=117	=117	=117	=117	=117	=117	=117	=117	=117	=117	=117	=117
!	!	!LO:TX:a:t=2	!	!	!	!	!	!	!	!	!	!	!	!	!
8BB-/`L	.	0r	.	16b-\LL	.	8d/`L	.	1b-/	p	1bb-\	p	2r	.	2r	.
.	.	.	.	16b-\	.	.	.	.	.	.	.	.	.	.	.
8C/`	.	.	.	16b-\	.	8e-/`	.	.	.	.	.	.	.	.	.
.	.	.	.	16b-\	.	.	.	.	.	.	.	.	.	.	.
8D\`	.	.	.	16b-\	.	8f/`	.	.	.	.	.	.	.	.	.
.	.	.	.	16b-\	.	.	.	.	.	.	.	.	.	.	.
8E-\`J	.	.	.	16b-\	.	8g/`J	.	.	.	.	.	.	.	.	.
.	.	.	.	16b-\JJ	.	.	.	.	.	.	.	.	.	.	.
4F\`	.	.	.	16b-\LL	.	16a-/LL	.	.	.	.	.	8b-\`L	.	8dd\`L	.
.	.	.	.	16b-\	.	16B-/	.	.	.	.	.	.	.	.	.
.	.	.	.	16b-\	.	16B-/	.	.	.	.	.	8cc\`	.	8ee-\`	.
.	.	.	.	16b-\	.	16B-/JJ	.	.	.	.	.	.	.	.	.
4r	.	.	.	16b-\	.	16B-/LL	.	.	.	.	.	8dd\`	.	8ff\`	.
.	.	.	.	16b-\	.	16B-/	.	.	.	.	.	.	.	.	.
.	.	.	.	16b-\	.	16B-/	.	.	.	.	.	8ee-\`J	.	8gg\`J	.
.	.	.	.	16b-\JJ	.	16B-/JJ	.	.	.	.	.	.	.	.	.
=118	=118	=118	=118	=118	=118	=118	=118	=118	=118	=118	=118	=118	=118	=118	=118
8BB-/`L	.	.	.	16b-\LL	.	8d/`L	.	[1b-/	.	1bb-\	.	4ff\	.	4aa-\	.
.	.	.	.	16b-\	.	.	.	.	.	.	.	.	.	.	.
8C/`	.	.	.	16b-\	.	8e-/`	.	.	.	.	.	.	.	.	.
.	.	.	.	16b-\	.	.	.	.	.	.	.	.	.	.	.
8D\`	.	.	.	16b-\	.	8f/`	.	.	.	.	.	4r	.	4r	.
.	.	.	.	16b-\	.	.	.	.	.	.	.	.	.	.	.
8E-\`J	.	.	.	16b-\	.	8g/`J	.	.	.	.	.	.	.	.	.
.	.	.	.	16b-\JJ	.	.	.	.	.	.	.	.	.	.	.
4F\`	.	.	.	16b-\LL	.	16a-/LL	.	.	.	.	.	8b-\`L	.	8dd\`L	.
.	.	.	.	16b-\	.	16B-/	.	.	.	.	.	.	.	.	.
.	.	.	.	16b-\	.	16B-/	.	.	.	.	.	8cc\`	.	8ee-\`	.
.	.	.	.	16b-\	.	16B-/JJ	.	.	.	.	.	.	.	.	.
4r	.	.	.	16b-\	.	16B-/LL	.	.	.	.	.	8dd\`	.	8ff\`	.
.	.	.	.	16b-\	.	16B-/	.	.	.	.	.	.	.	.	.
.	.	.	.	16b-\	.	16B-/	.	.	.	.	.	8ee-\`J	.	8gg\`J	.
.	.	.	.	16b-\JJ	.	16B-/JJ	.	.	.	.	.	.	.	.	.
=119	=119	=119	=119	=119	=119	=119	=119	=119	=119	=119	=119	=119	=119	=119	=119
8BB-/L	<	8B-\`L	<	16b-\LL	.	8dd\'L	<	1b-/]	.	1bb-\	<	4ff\`	.	4aa-\	.
.	.	.	.	16b-\	.	.	.	.	.	.	.	.	.	.	.
8C/~	.	8c\`	.	16b-\	.	8ee-\'	.	.	.	.	.	.	.	.	.
.	.	.	.	16b-\	.	.	.	.	.	.	.	.	.	.	.
8D\~	.	8d\`	.	16b-\	.	8ff\'	.	.	.	.	.	4r	.	4r	.
.	.	.	.	16b-\	.	.	.	.	.	.	.	.	.	.	.
8E-\~J	.	8e-\`J	.	16b-\	.	8gg\'J	.	.	.	.	.	.	.	.	.
.	.	.	.	16b-\JJ	.	.	.	.	.	.	.	.	.	.	.
8F\`L	.	8f\L	.	16b-\LL	.	8aa-\'L	.	.	.	.	.	8aa-\`L	.	8aa-\`L	.
.	.	.	.	16b-\	.	.	.	.	.	.	.	.	.	.	.
8G\`	.	8g\	.	16b-\	.	8bb-\'	.	.	.	.	.	8bb-\`	.	8bb-\`	.
.	.	.	.	16b-\	.	.	.	.	.	.	.	.	.	.	.
8A-\`	.	8a-\	.	16b-\	.	8ccc\'	.	.	.	.	.	8ccc\`	.	8ccc\`	.
.	.	.	.	16b-\	.	.	.	.	.	.	.	.	.	.	.
8F\`J	.	8f\J	.	16b-\	.	8ddd\'J	[[	.	.	.	.	8ddd\`J	.	8ddd\`J	.
.	.	.	.	16b-\JJ	.	.	.	.	.	.	.	.	.	.	.
*	*	*	*	*Xtremolo	*	*	*	*	*	*	*	*	*	*	*
!LO:LB:g=original	!	!	!	!	!	!	!	!	!	!	!	!	!	!	!
=120	=120	=120	=120	=120	=120	=120	=120	=120	=120	=120	=120	=120	=120	=120	=120
!	!	!	!	!LO:TX:t=P:problem:mixed beam	!	!	!	!	!	!	!	!	!	!	!
*	*	*	*	*^	*	*	*	*	*	*	*	*	*	*	*
!	!LO:DY:t=for	!	!	!	!	!	!	!	!	!	!	!	!	!	!	!
8E-\L	f	8f\L	f	16g/LL	2r	.	4eee-\	f	4ee-\	.	4bb-\	f	4ccc\	.	1eee-\	.
.	.	.	.	16ee-\	.	.	.	.	.	.	.	.	.	.	.	.
8D\	.	8e-\	.	16g/	.	f	.	.	.	.	.	.	.	.	.	.
.	.	.	.	16ee-\JJ	.	.	.	.	.	.	.	.	.	.	.	.
!	!	!	!	!LO:TX:t=P:problem:mixed beam	!	!	!	!	!	!	!	!	!	!	!	!
.	.	.	.	.	.	.	8qff/	.	.	.	.	.	.	.	.	.
8G\	.	8g\	.	16g/LL	.	.	(16ee-\LL	.	8.gg\L	f	8.bb-\L	.	2.ee-\	.	.	.
.	.	.	.	16ee-\	.	.	16dd\	.	.	.	.	.	.	.	.	.
8B-\J	.	8b-\J	.	16g/	.	.	16ee-\	.	.	.	.	.	.	.	.	.
.	.	.	.	16ee-\JJ	.	.	16ff\JJ)	.	16gg\Jk	.	16bb-\Jk	.	.	.	.	.
*	*	*	*	*tremolo	*	*	*	*	*	*	*	*	*	*	*	*
!	!	!	!	!LO:TX:b:t=Segue	!	!	!	!	!	!	!	!	!	!	!	!
8e-\L	.	8ee-\L	.	16ee-/LL	16g\LL	.	4ee-\	.	4gg\	.	4bb-\	.	.	.	.	.
.	.	.	.	16ee-/	16g\	.	.	.	.	.	.	.	.	.	.	.
8B-\	.	8b-\	.	16ee-/	16g\	.	.	.	.	.	.	.	.	.	.	.
.	.	.	.	16ee-/	16g\	.	.	.	.	.	.	.	.	.	.	.
8G\	.	8g\	.	16ee-/	16g\	.	4r	.	4gg\	.	4bb-\	.	.	.	.	.
.	.	.	.	16ee-/	16g\	.	.	.	.	.	.	.	.	.	.	.
8E-\J	.	8e-\J	.	16ee-/	16g\	.	.	.	.	.	.	.	.	.	.	.
.	.	.	.	16ee-/JJ	16g\JJ	.	.	.	.	.	.	.	.	.	.	.
!	!	!	!	!LO:PB:g=original	!	!	!	!	!LO:LB:g=original	!	!LO:LB:g=original	!	!	!	!	!
=121	=121	=121	=121	=121	=121	=121	=121	=121	=121	=121	=121	=121	=121	=121	=121	=121
!	!	!LO:TX:t=P:problem:mixed beam	!	!	!	!	!	!	!	!	!	!	!	!	!	!
8A-\L	.	8a-\L	.	16ee-/LL	16a-\LL	.	4a-\ 4ee-\ 4ccc\	.	1aa-\	.	1ccc\	.	1ee-\	.	1eee-\	.
.	.	.	.	16ee-/	16a-\	.	.	.	.	.	.	.	.	.	.	.
!LO:TX:t=P:problem:mixed beam	!	!	!	!	!	!	!	!	!	!	!	!	!	!	!	!
8AA-/	.	8A-/	.	16ee-/	16a-\	.	.	.	.	.	.	.	.	.	.	.
.	.	.	.	16ee-/	16a-\	.	.	.	.	.	.	.	.	.	.	.
8C/	.	8c/	.	16ee-/	16a-\	.	8ccc\L	.	.	.	.	.	.	.	.	.
.	.	.	.	16ee-/	16a-\	.	.	.	.	.	.	.	.	.	.	.
8E-\J	.	8e-/J	.	16ee-/	16a-\	.	16bb-\L	.	.	.	.	.	.	.	.	.
.	.	.	.	16ee-/JJ	16a-\JJ	.	16ccc\JJ	.	.	.	.	.	.	.	.	.
8A-\L	p	8a-\L	.	16ee-/LL	16a-\LL	.	4eee-\	.	.	.	.	.	.	.	.	.
.	.	.	.	16ee-/	16a-\	.	.	.	.	.	.	.	.	.	.	.
8E-\	.	8e-\	.	16ee-/	16a-\	.	.	.	.	.	.	.	.	.	.	.
.	.	.	.	16ee-/	16a-\	.	.	.	.	.	.	.	.	.	.	.
8C\	.	8c\	.	16ee-/	16a-\	.	4r	.	.	.	.	.	.	.	.	.
.	.	.	.	16ee-/	16a-\	.	.	.	.	.	.	.	.	.	.	.
8AA-\J	.	8A-\J	.	16ee-/	16a-\	.	.	.	.	.	.	.	.	.	.	.
.	.	.	.	16ee-/JJ	16a-\JJ	.	.	.	.	.	.	.	.	.	.	.
*	*	*	*	*v	*v	*	*	*	*	*	*	*	*	*	*	*
=122	=122	=122	=122	=122	=122	=122	=122	=122	=122	=122	=122	=122	=122	=122	=122
!.	!	!	!	!	!	!	!	!	!	!	!	!LO:TX:a:t=3	!	!	!
4E-\	p	4e-\	p	4e-/	p	4e-/	p	2gg\	f	2bb-\	f	0r	.	0r	.
4G\	.	4g\	.	4g/	.	4g/	.	.	.	.	.	.	.	.	.
2B-\	.	2b-\	.	2b-/	.	2b-/	.	(8gg\L	p	(8aa-\L	p	.	.	.	.
.	.	.	.	.	.	.	.	8ff\)	.	8gg\)	.	.	.	.	.
.	.	.	.	.	.	.	.	(8ee-\	.	(8ff\	.	.	.	.	.
.	.	.	.	.	.	.	.	8b-\J)	.	8ee-\J)	.	.	.	.	.
!	!	!LO:PB:g=original	!	!	!	!	!	!	!	!	!	!	!	!	!
=123	=123	=123	=123	=123	=123	=123	=123	=123	=123	=123	=123	=123	=123	=123	=123
!	!	!LO:TX:t=P:problem:na drugiej stronie partii a-vla tylko klucz, bez znaków	!	!	!	!	!	!	!	!	!	!	!	!	!
4E-\	.	4e-\	.	4e-/	.	4e-/	.	2gg\	f	2bb-\	f	.	.	.	.
4G\	.	4g\	.	4g/	.	4g/	.	.	.	.	.	.	.	.	.
2B-\	.	2b-\	.	2b-/	.	2b-/	.	(8gg\L	p	(8aa-\L	p	.	.	.	.
.	.	.	.	.	.	.	.	8ff\)	.	8gg\)	.	.	.	.	.
.	.	.	.	.	.	.	.	(8ee-\	.	(8ff\	.	.	.	.	.
.	.	.	.	.	.	.	.	8b-\J)	.	8ee-\J)	.	.	.	.	.
=124	=124	=124	=124	=124	=124	=124	=124	=124	=124	=124	=124	=124	=124	=124	=124
4E-\	.	4e-\	.	4e-/	.	4e-/	.	2gg\	f	2bb-\	f	1r	.	1r	.
!	!	!	!	!LO:TX:t=P:problem:nieczytelny znak	!	!	!	!	!	!	!	!	!	!	!
4G\	.	4g\	.	4g/t	.	4g/	.	.	.	.	.	.	.	.	.
2B-\	.	2b-\	.	2b-/	.	2b-/	.	(8gg\L	p	(8aa-\L	p	.	.	.	.
.	.	.	.	.	.	.	.	8ff\)	.	8gg\)	.	.	.	.	.
.	.	.	.	.	.	.	.	(8ee-\	.	(8ff\	.	.	.	.	.
.	.	.	.	.	.	.	.	8b-\J)	.	8ee-\J)	.	.	.	.	.
!	!	!	!	!	!	!LO:LB:g=original	!	!	!	!	!	!	!	!LO:LB:g=original	!
=125	=125	=125	=125	=125	=125	=125	=125	=125	=125	=125	=125	=125	=125	=125	=125
*	*	*tremolo	*	*	*	*	*	*	*	*	*	*	*	*	*
!.	!	!	!	!	!	!	!	!	!	!	!	!	!	!	!
8E-\L	p	8e-\L	.	16e-/LL	.	16e-/LL	.	[>1e-/	.	[1ee-\	p	(4ee-\	.	(4ee-\	p
.	.	.	.	16e-/	.	16e-/	.	.	.	.	.	.	.	.	.
8E-\	.	8e-\	.	16e-/	.	16e-/	.	.	.	.	.	.	.	.	.
.	.	.	.	16e-/JJ	.	16e-/JJ	.	.	.	.	.	.	.	.	.
8E-\	.	8e-\	.	16d/LL	p	16f/LL	.	.	.	.	.	4dd\	.	4ff\	.
.	.	.	.	16d/	.	16f/	.	.	.	.	.	.	.	.	.
8E-\J	.	8e-\J	.	16d/	.	16f/	.	.	.	.	.	.	.	.	.
.	.	.	.	16d/JJ	.	16f/JJ	.	.	.	.	.	.	.	.	.
8E-\L	.	8e-\L	.	16e-/LL	.	16g/LL	.	.	.	.	.	4ee-\	.	4gg\	.
.	.	.	.	16e-/	.	16g/	.	.	.	.	.	.	.	.	.
8E-\	.	8e-\	.	16e-/	.	16g/	.	.	.	.	.	.	.	.	.
.	.	.	.	16e-/JJ	.	16g/JJ	.	.	.	.	.	.	.	.	.
8E-\	.	8e-\	.	16f/LL	.	16a-/LL	.	.	.	.	.	4ff\)	.	4aa-\)	.
.	.	.	.	16f/	.	16a-/	.	.	.	.	.	.	.	.	.
8E-\J	.	8e-\J	.	16f/	.	16a-/	.	.	.	.	.	.	.	.	.
.	.	.	.	16f/JJ	.	16a-/JJ	.	.	.	.	.	.	.	.	.
=126	=126	=126	=126	=126	=126	=126	=126	=126	=126	=126	=126	=126	=126	=126	=126
!	!	!	!	!	!	!	!	!	!	!	!LO:DY:t=cres.	!	!	!	!
8E-\L	<	8e-\L	<	16e-/LL	.	16g/LL	<	1e-/_>	.	1ee-\_	<	(4ee-\	.	(4gg\	.
.	.	.	.	16e-/	.	16g/	.	.	.	.	.	.	.	.	.
8E-\	.	8e-\	.	16e-/	.	16g/	.	.	.	.	.	.	.	.	.
.	.	.	.	16e-/JJ	.	16g/JJ	.	.	.	.	.	.	.	.	.
8E-\	.	8e-\	.	16f/LL	<	16a-/LL	.	.	.	.	.	4ff\	.	4aa-\	.
.	.	.	.	16f/	.	16a-/	.	.	.	.	.	.	.	.	.
8E-\J	.	8e-\J	.	16f/	.	16a-/	.	.	.	.	.	.	.	.	.
.	.	.	.	16f/JJ	.	16a-/JJ	.	.	.	.	.	.	.	.	.
8E-\L	.	8e-\L	.	16g/LL	.	16b-/LL	.	.	.	.	.	4gg\	.	4bb-\	.
.	.	.	.	16g/	.	16b-/	.	.	.	.	.	.	.	.	.
8E-\	.	8e-\	.	16g/	.	16b-/	.	.	.	.	.	.	.	.	.
.	.	.	.	16g/JJ	.	16b-/JJ	.	.	.	.	.	.	.	.	.
8E-\	.	8e-\	.	16a-/LL	.	16cc/LL	.	.	.	.	.	4aa-\)	.	4ccc\)	.
.	.	.	.	16a-/	.	16cc/	.	.	.	.	.	.	.	.	.
8E-\J	.	8e-\J	.	16a-/	.	16cc/	.	.	.	.	.	.	.	.	.
.	.	.	.	16a-/JJ	.	16cc/JJ	.	.	.	.	.	.	.	.	.
!	!	!	!	!	!	!	!	!	!	!	!	!LO:LB:g=original	!	!	!
=127	=127	=127	=127	=127	=127	=127	=127	=127	=127	=127	=127	=127	=127	=127	=127
8E-\L	.	8e-\L	.	16g/LL	.	16b-\LL	.	1e-/_>	.	1ee-\_	.	4gg\`	.	(4bb-\	.
.	.	.	.	16g/	.	16b-\	.	.	.	.	.	.	.	.	.
8E-\	.	8e-\	.	16g/	.	16b-\	.	.	.	.	.	.	.	.	.
.	.	.	.	16g/	.	16b-\	.	.	.	.	.	.	.	.	.
8E-\	.	8e-\	.	16g/	.	16b-\	.	.	.	.	.	(4gg\	.	4bb-\	.
.	.	.	.	16g/	.	16b-\	.	.	.	.	.	.	.	.	.
8E-\J	.	8e-\J	.	16g/	.	16b-\	.	.	.	.	.	.	.	.	.
.	.	.	.	16g/JJ	.	16b-\JJ	.	.	.	.	.	.	.	.	.
8E-\L	.	8e-\L	.	16a-/LL	.	16cc\LL	.	.	.	.	.	4aa-\	.	4ccc\	.
.	.	.	.	16a-/	.	16cc\	.	.	.	.	.	.	.	.	.
8E-\	.	8e-\	.	16a-/	.	16cc\	.	.	.	.	.	.	.	.	.
.	.	.	.	16a-/JJ	.	16cc\JJ	.	.	.	.	.	.	.	.	.
*	*	*	*	*Xtremolo	*	*	*	*	*	*	*	*	*	*	*
!	!	!	!	!LO:TX:t=P:problem:mixed beam	!	!	!	!	!	!	!	!	!	!	!
8E-\	.	8e-\	.	16f/LL	.	16dd\LL	.	.	.	.	.	8ff\L	.	4ddd\)	.
.	.	.	.	16f/	.	16dd\	.	.	.	.	.	.	.	.	.
8E-\J	.	8e-\J	.	16dd\	.	16dd\	.	.	.	.	.	8ddd\J)	.	.	.
.	.	.	.	16dd\JJ	.	16dd\JJ	.	.	.	.	.	.	.	.	.
*	*	*	*	*	*	*Xtremolo	*	*	*	*	*	*	*	*	*
!LO:PB:g=original	!	!	!	!LO:LB:g=original	!	!	!	!	!	!	!	!	!	!	!
=128	=128	=128	=128	=128	=128	=128	=128	=128	=128	=128	=128	=128	=128	=128	=128
!	!LO:DY:a	!LO:TX:t=P:problem:mixed beam	!	!	!	!	!	!	!	!	!	!	!	!	!
8E-\L	f	8e-\L	.	16ee-\LL	.	(16ee-\LL	f	1e-/_>	.	1ee-\_	f	4eee-\	.	4eee-\	.
.	.	.	.	16ff\	.	16ff\	.	.	.	.	.	.	.	.	.
!LO:TX:t=P:problem:mixed beam	!	!	!	!	!	!	!	!	!	!	!	!	!	!	!
8GG/	.	8B-/	.	16gg\	.	16gg\	.	.	.	.	.	.	.	.	.
.	.	.	.	16ff\JJ	.	16ff\JJ)	.	.	.	.	.	.	.	.	.
8GG/	.	8B-/	.	4ee-\	.	4ee-\	.	.	.	.	.	4eee-\	.	4eee-\	.
8GG/J	.	8B-/J	.	.	.	.	.	.	.	.	.	.	.	.	.
8GG/L	.	8B-/L	.	8r	.	8r	.	.	.	.	.	8r	.	8r	.
.	.	.	.	8qqff/	.	8qff/	.	.	.	.	.	.	.	.	.
8GG/	.	8B-/	.	(16ee-\LL	.	(16ee-\LL	.	.	.	.	.	(16ccc\LL	.	(16eee-\LL	.
.	.	.	.	16dd\JJ)	.	16dd\JJ)	.	.	.	.	.	16bb-\JJ)	.	16ddd\JJ)	.
8GG/	.	8B-/	.	8ee-\`L	.	8ee-\`L	.	.	.	.	.	8eee-\`L	.	8eee-\L	.
8GG/J	.	8B-/J	.	8gg\`J	.	8gg\`J	.	.	.	.	.	8ggg\`J	.	8ggg\J	.
=129	=129	=129	=129	=129	=129	=129	=129	=129	=129	=129	=129	=129	=129	=129	=129
8AA-/L	.	8c/L	.	(8bn\L	.	(8bn\L	.	1e-/_>	.	1ee-\_	.	(8bbn\L	.	(8bbn\L	.
8AA-/	.	8c/	.	8cc\J)	.	8cc\J	.	.	.	.	.	8ccc\J	.	8ccc\J)	.
8AA-/	.	8c/	.	4cc\	.	4cc\)	.	.	.	.	.	4ccc\)	.	4ccc\	.
8AA-/J	.	8c/J	.	.	.	.	.	.	.	.	.	.	.	.	.
.	.	.	.	8qqdd/	.	.	.	.	.	.	.	.	.	.	.
8AA-/L	.	8c/L	.	8r	.	8r	.	.	.	.	.	8r	.	8r	.
.	.	.	.	.	.	8qdd/	.	.	.	.	.	.	.	8qqbb/	.
8AA-/	.	8c/	.	16cc\LL	.	(16cc\LL	.	.	.	.	.	(16ccc\LL	.	(16ccc\LL	.
.	.	.	.	16bn\JJ	.	16b\JJ)	.	.	.	.	.	16bbn\JJ)	.	16bbn\JJ)	.
8AA-/	.	8c/	.	8cc\`L	.	8cc\`L	.	.	.	.	.	8ccc\`L	.	8ccc\`L	.
8AA-/J	.	8c/J	.	8ee-\`J	.	8ee-\`J	.	.	.	.	.	8eee-\`J	.	8eee-\`J	.
=130	=130	=130	=130	=130	=130	=130	=130	=130	=130	=130	=130	=130	=130	=130	=130
8AA-/L	.	8c/L	.	(8en/L	.	(8en/L	.	2e-/]	.	2ee-\]	.	(8een\L	.	(8een\L	.
8AA-/	.	8c/	.	8f/J)	.	8f/J)	.	.	.	.	.	8ff\J	.	8ff\J	.
8AA-/	.	8c/	.	4f/	.	4f/	.	.	.	.	.	4ff\)	.	4ff\)	.
8AA-/J	.	8c/J	.	.	.	.	.	.	.	.	.	.	.	.	.
4AA-/	.	4c/	.	2r	.	8r	.	2r	.	2r	.	2r	.	2r	.
.	.	.	.	.	.	8qgg/	p	.	.	.	.	.	.	.	.
.	.	.	.	.	.	(16ff\LL	.	.	.	.	.	.	.	.	.
.	.	.	.	.	.	16een\JJ)	.	.	.	.	.	.	.	.	.
4r	.	4r	.	.	.	8ff\`L	.	.	.	.	.	.	.	.	.
.	.	.	.	.	.	8aa-\`J	.	.	.	.	.	.	.	.	.
!	!	!	!	!	!	!LO:LB:g=original	!	!LO:LB:g=original	!	!	!	!	!	!LO:LB:g=original	!
=131	=131	=131	=131	=131	=131	=131	=131	=131	=131	=131	=131	=131	=131	=131	=131
!	!	!	!	!	!	!	!	!LO:TX:a:t=2	!	!	!	!LO:TX:a:t=2	!	!	!
0r	.	8b-\`L	p	8cc\`L	.	(8een\L	.	0r	.	0r	.	0r	.	0r	.
.	.	8a-\`J	.	8cc\`J	.	8ff\J)	.	.	.	.	.	.	.	.	.
.	.	8a-\`	.	8cc\`	.	8r	.	.	.	.	.	.	.	.	.
!	!	!	!	!	!	!LO:TX:t=P:problem:rozmazany tusz	!	!	!	!	!	!	!	!	!
.	.	8r	.	8r	.	8aa-yy\	.	.	.	.	.	.	.	.	.
!	!	!LO:LB:g=original	!	!	!	!	!	!	!	!	!	!	!	!	!
.	.	8b-\`L	.	8cc\`L	.	(8ee\L	.	.	.	.	.	.	.	.	.
.	.	8a-\`J	.	8cc\`J	.	8ff\J)	.	.	.	.	.	.	.	.	.
.	.	8a-\`	.	8cc\`	.	8r	.	.	.	.	.	.	.	.	.
.	.	8r	.	8r	.	8aa-\	.	.	.	.	.	.	.	.	.
=132	=132	=132	=132	=132	=132	=132	=132	=132	=132	=132	=132	=132	=132	=132	=132
.	.	8b-\`L	.	8cc\L	.	(8een\L	.	.	.	.	.	.	.	.	.
.	.	8a-\`J	.	8cc\J	.	8ff\J	.	.	.	.	.	.	.	.	.
.	.	8a-\`	.	8cc\	.	8aa-\)	.	.	.	.	.	.	.	.	.
.	.	8r	.	8r	.	8r	.	.	.	.	.	.	.	.	.
.	.	8b-\`L	.	8cc\L	.	(8ee\L	.	.	.	.	.	.	.	.	.
.	.	8a-\`J	.	8cc\J	.	8ff\J	.	.	.	.	.	.	.	.	.
.	.	8a-\`	.	8cc\	.	8aa-\)	.	.	.	.	.	.	.	.	.
.	.	8r	.	8r	.	8r	.	.	.	.	.	.	.	.	.
!	!	!	!	!LO:LB:g=original	!	!	!	!	!	!LO:LB:g=original	!	!	!	!	!
=133	=133	=133	=133	=133	=133	=133	=133	=133	=133	=133	=133	=133	=133	=133	=133
*	*	*	*	*tremolo	*	*	*	*	*	*	*	*	*	*	*
!	!LO:DY:t=for	!	!	!	!	!	!	!	!	!	!	!.	!	!	!
8B-\L	f	8b-\L	f	16ee-\LL	.	8.gg\L	f	2ee-\	.	2gg\	f	8.gg\L	f	8.gg\L	.
.	.	.	.	16ee-\	.	.	.	.	.	.	.	.	.	.	.
8B-\	.	8b-\	.	16ee-\	.	.	.	.	.	.	.	.	.	.	.
!	!	!	!	!	!	!	!	!	!	!	!	!LO:N:vis=8	!	!	!
.	.	.	.	16ee-\JJ	.	16bb-\Jk	.	.	.	.	.	16bb-\K	.	16bb-\K	.
8B-\	.	8b-\	.	16ee-\LL	f	8.eee-\L	.	.	.	.	.	8.eee-\	.	8.eee-\	.
.	.	.	.	16ee-\	.	.	.	.	.	.	.	.	.	.	.
8B-\J	.	8b-\J	.	16ee-\	.	.	.	.	.	.	.	.	.	.	.
!	!	!	!	!	!	!	!	!	!	!	!	!LO:N:vis=8	!	!	!
.	.	.	.	16ee-\JJ	.	16ee-\Jk	.	.	.	.	.	16ee-\Jk	.	16ee-\Jk	.
!	!	!	!	!	!	!	!	!	!	!	!	!LO:LB:g=original	!	!	!
8BB-/L	.	8b-\L	.	16ee-\LL	.	4b-\	.	4b-/	f	4ff\	.	4b-\	.	4b-\	.
.	.	.	.	16ee-\	.	.	.	.	.	.	.	.	.	.	.
8BB-/	.	8b-\	.	16ee-\	.	.	.	.	.	.	.	.	.	.	.
.	.	.	.	16ee-\JJ	.	.	.	.	.	.	.	.	.	.	.
8BB-/	.	8b-\	.	16dd\LL	.	4ff\T	.	8.b-/L	.	8.ff\L	.	4dd\t	.	4ff\T	.
.	.	.	.	16dd\	.	.	.	.	.	.	.	.	.	.	.
8BB-/J	.	8b-\J	.	16dd\	.	.	.	.	.	.	.	.	.	.	.
.	.	.	.	16dd\JJ	.	.	.	16b-/Jk	.	16ff\Jk	.	.	.	.	.
*	*	*	*	*Xtremolo	*	*	*	*	*	*	*	*	*	*	*
*	*	*Xtremolo	*	*	*	*	*	*	*	*	*	*	*	*	*
=134	=134	=134	=134	=134	=134	=134	=134	=134	=134	=134	=134	=134	=134	=134	=134
8E-\L	p	8g\`L	.	8ee-\`L	p	4ee-\	.	1e-/	.	[1ee-\	p	4ee-\	.	4ee-\	.
8E-\	.	8g\`	.	(8b-\	.	.	.	.	.	.	.	.	.	.	.
8E-\	.	(8a-\	.	8cc\	.	4r	.	.	.	.	.	4r	.	4r	.
8E-\J	.	8g\J)	.	8b-\J)	.	.	.	.	.	.	.	.	.	.	.
8E-\L	.	(8.a-\L	.	(8.cc\L	.	(4gg\	p	.	.	.	.	(4aa-\	.	(4aa-\	.
8E-\	.	.	.	.	.	.	.	.	.	.	.	.	.	.	.
.	.	16g\K)	.	16b-\K	.	.	.	.	.	.	.	.	.	.	.
8E-\	.	(8a-\	.	8cc\)	.	8.ff\L)	.	.	.	.	.	8.ff\L	.	8.ff\L	p
8E-\J	.	8f\J)	.	8a-\J	.	.	.	.	.	.	.	.	.	.	.
!	!	!	!	!	!	!LO:TX:t=P:problem:ukośna artykulacja	!	!	!	!	!	!	!	!	!
.	.	.	.	.	.	16dd\`Jk	.	.	.	.	.	16dd\Jk)	.	16dd\Jk)	.
=135	=135	=135	=135	=135	=135	=135	=135	=135	=135	=135	=135	=135	=135	=135	=135
8E-\L	.	8e-\`L	.	8g\`L	.	4ee-\	.	1e-/	.	1ee-\]	.	4ee-\	.	4ee-\	.
8E-\	.	(8g\	.	(8b-\	.	.	.	.	.	.	.	.	.	.	.
8E-\	.	8a-\	.	8cc\	.	4r	.	.	.	.	.	4r	.	4r	.
8E-\J	.	8g\J)	.	8b-\J)	.	.	.	.	.	.	.	.	.	.	.
8E-\L	.	(8.a-\L	.	(8.cc\L	.	(4aa-\	.	.	.	.	.	(4aa-\	.	(4aa-\	.
8E-\	.	.	.	.	.	.	.	.	.	.	.	.	.	.	.
.	.	16g\K	.	16b-\K)	.	.	.	.	.	.	.	.	.	.	.
8E-\	.	8a-\`)	.	8cc\`	.	8.ff\L)	.	.	.	.	.	8.ff\L	.	8.ff\L	.
8E-\J	.	8f\`J	.	8a-\`J	.	.	.	.	.	.	.	.	.	.	.
!	!	!	!	!	!	!LO:TX:t=P:problem:ukośna artykulacja	!	!	!	!	!	!	!	!	!
.	.	.	.	.	.	16dd\`Jk	.	.	.	.	.	16dd\Jk)	.	16dd\Jk)	.
=136	=136	=136	=136	=136	=136	=136	=136	=136	=136	=136	=136	=136	=136	=136	=136
!	!LO:DY:t=for	!	!	!	!	!	!	!	!	!	!	!	!	!	!
2E-\	f	8e-\`L	.	8g\L	.	4ee-\	.	2e-/	.	2ee-\	.	4ee-\	.	4ee-\	.
.	.	(8g\	.	8b-\	.	.	.	.	.	.	.	.	.	.	.
.	.	8a-\	.	8cc\	.	4r	.	.	.	.	.	4r	.	4r	.
.	.	8f\J)	.	8dd\J	.	.	.	.	.	.	.	.	.	.	.
!	!	!LO:LB:g=original	!	!	!	!	!	!	!	!	!	!	!	!	!
4e-\	.	4e-\	f	4e-/ 4ee-/	.	4ee-/	.	2ee-\	f	4eee-\	f	(4eee-\	.	4eee-\	.
8.c\L	.	8.c\L	f	8.cc\`L	.	8cc\L	.	.	.	8.ccc\L	.	8.ccc\L	.	(8.ccc\L	.
.	.	.	.	.	.	8a-\J	.	.	.	.	.	.	.	.	.
16A-\Jk	.	16A-/Jk	.	16a-\`Jk	.	.	.	.	.	16aa-\Jk	.	16aa-\Jk)	.	16aa-\Jk)	.
!LO:LB:g=original	!	!	!	!	!	!	!	!	!	!	!	!	!	!	!
=137	=137	=137	=137	=137	=137	=137	=137	=137	=137	=137	=137	=137	=137	=137	=137
!	!	!	!	!LO:TX:t=P:problem:litera?	!	!	!	!	!	!	!	!	!	!	!
!	!	!	!	!LO:TX:b:t=F	!	!	!	!	!	!	!	!	!	!	!
4B-\	.	4B-/	.	4b-/	.	4b-\	.	4bb-\	.	4bb-\	.	4bb-\	.	4bb-\	.
4BB-/	.	4B-/	.	4B-/	.	4B-/	.	4b-/	.	4b-/	.	4b-\	.	4b-\	.
4E-\	.	4G/ 4e-/	.	4G/ 4e-/	.	4G/ 4e-/	.	4g/	.	4ee-\	.	4ee-\	.	4ee-\	.
4E-\	.	4G/ 4e-/	.	4G/ 4e-/ 4ee-/	.	4G/ 4e-/ 4ee-/	.	8.g/L	.	8.ee-\L	.	4ee-\	.	4ee-\	.
.	.	.	.	.	.	.	.	16g/Jk	.	16ee-\Jk	.	.	.	.	.
=138	=138	=138	=138	=138	=138	=138	=138	=138	=138	=138	=138	=138	=138	=138	=138
2E-\	.	2G/ 2e-/	.	2G/ 2e-/ 2ee-/	.	2G/ 2e-/ 2ee-/	.	2g/	.	2ee-\	.	2ee-\	.	2ee-\	.
2r	.	2r	.	2r	.	2r	.	2r	.	2r	.	2r	.	2r	.
!	!	!	!	!	!	!	!	!LO:TX:b:t=Andante Tacet	!	!LO:TX:b:t=Andante Tacet	!	!LO:TX:b:t=Andante Tacet	!	!LO:TX:b:t=Andante Tacet	!
!	!	!	!	!	!	!	!	!	!	!LO:TX:b:t=Verte	!	!	!	!	!
==	==	==	==	==	==	==	==	==	==	==	==	==	==	==	==
*-	*-	*-	*-	*-	*-	*-	*-	*-	*-	*-	*-	*-	*-	*-	*-
!!!system-decoration: [(s1,s2)][(s3,s4)][(s5,s6,s7)][(s8)]
!!!RDF**kern: > = above
!!!RDF**kern: < = below
!!!RDF**dynam: < = creſ.
!!!EED: Leszek Kubiak
!!!EST: 2020-10-21
!!!AIN: 2 cor 1 empty 2 flt 1 viola 2 violn
!!!ENC: Marta Chmielewska
!!!END: 2020-06-04
